Jose05M/robotics_control_challenge/PD_CTC_Controller_csv/CTC_GAUSS.csv
time,x_d,y_d,z_d,x,y,z,vx_cmd,vy_cmd,vz_cmd,q1,q2,q3,q4,q5,q6,qd1,qd2,qd3,qd4,qd5,qd6,qref1,qref2,qref3,qref4,qref5,qref6,cmd1,cmd2,cmd3,cmd4,cmd5,cmd6,mode,perturbation
2.7007,0.15,0.2,0.3,0.2807483485244375,0.12855776275796363,0.31123071560079596,0.0,0.0,0.0,0.44269534945487976,0.34071823954582214,1.3025875091552734,-0.08551942557096481,0.8770854473114014,1.2480851411819458,-3.568573894281805e-16,5.1863276788965094e-15,2.2838873346920025e-15,-1.4036391550814272e-15,-6.978544574959386e-16,1.3639882722710325e-15,0.44422591900978003,0.33995668546786084,1.3015366986446852,-0.08524928785392095,0.8770639561949408,1.247071936580833,0.07012332660885316,-0.027246871038401833,-0.03232228666587285,0.0069535574876396986,-0.0004992706039809152,-0.021504302876915973,CTC,1
2.8008,0.15,0.2,0.3,0.2807481033194539,0.12855829824270848,0.31123071560079596,0.0,0.0,0.0,0.4427068531513214,0.34071630239486694,1.302585482597351,-0.08551942557096481,0.8770854473114014,1.2480851411819458,0.00020544385188259184,-3.4240641980431974e-05,-3.4240641980431974e-05,-1.4036391550814272e-15,-6.978544574959386e-16,1.3639882722710325e-15,0.4487773049724594,0.3376920863000823,1.298411950610847,-0.08444599145395841,0.8770000490268755,1.2440590155514921,0.12432943955983006,-0.04393299026189168,-0.048229038976642345,0.009207821326569648,-0.0006057673501701479,-0.023777728352551316,CTC,1
2.9008,0.15,0.2,0.3,0.2804630355827481,0.12896550518776945,0.3112344893912139,0.0,0.0,0.0,0.4448870122432709,0.34009313583374023,1.3018338680267334,-0.08551942557096481,0.8770854473114014,1.2480851411819458,0.030885059386491776,-0.009929786436259747,-0.011915743350982666,-1.4036391550814272e-15,-6.978544574959386e-16,1.3639882722710325e-15,0.45613004296827103,0.33403363929454505,1.293363938030913,-0.0831482707134334,0.8768968073623161,1.2391916588578462,0.18016456201415917,-0.06700733260463587,-0.07417046355671558,0.012374583227032292,-0.000768236133397118,-0.02806302193630518,CTC,1
3.0007,0.15,0.2,0.3,0.279707939945223,0.12992045146115053,0.3112985569139142,0.0,0.0,0.0,0.4487488269805908,0.3386971950531006,1.3002979755401611,-0.08551942557096481,0.8770854473114014,1.2482768297195435,0.03756198659539223,-0.012600556015968323,-0.014586513862013817,-1.4036391550814272e-15,-6.978544574959386e-16,0.0034240642562508583,0.46606495848842305,0.32909039747691604,1.286543134875017,-0.08139480881485779,0.8767573086862935,1.2326149553787662,0.23923900266653098,-0.0885940723332316,-0.09695718568411221,0.016376592415082623,-0.000982065179100274,-0.0310558913309283,CTC,1
3.1007,0.15,0.2,0.3,0.27882887958171804,0.13105713175532924,0.3113570546537849,0.0,0.0,0.0,0.45357704162597656,0.33704817295074463,1.2984437942504883,-0.08551942557096481,0.8770854473114014,1.2482768297195435,0.057592760771512985,-0.01968836970627308,-0.02211945503950119,-1.4036391550814272e-15,-6.978544574959386e-16,1.3639882722710325e-15,0.47837712934270926,0.3229643224530019,1.2780902302027524,-0.07922177347923234,0.8765844303634076,1.2244645592603327,0.3046376117954537,-0.11502724780772716,-0.12601421915493222,0.021142010523421427,-0.0012429428253269191,-0.04225103171847522,CTC,1
3.2007,0.15,0.2,0.3,0.27741833514106823,0.1328336101614357,0.31149155598814615,0.0,0.0,0.0,0.46099573373794556,0.334317684173584,1.2955368757247925,-0.08551942557096481,0.8770854473114014,1.2482768297195435,0.07128901779651642,-0.025303835049271584,-0.02814580872654915,-1.4036391550814272e-15,-6.978544574959386e-16,1.3639882722710325e-15,0.4928377033484377,0.31576928249649283,1.2681623421785138,-0.07666955594913402,0.8763813857653702,1.2148919657963961,0.3652202034492282,-0.1401758130925524,-0.1548403834150019,0.026589593845893413,-0.0015460474146368967,-0.05162715490613797,CTC,1
3.3007,0.15,0.2,0.3,0.27590063943800985,0.13466285069185152,0.31156067203059745,0.0,0.0,0.0,0.46924281120300293,0.33131107687950134,1.292083501815796,-0.08551942557096481,0.8770854473114014,1.2482768297195435,0.09197036921977997,-0.034514568746089935,-0.038965851068496704,-1.4036391550814272e-15,-6.978544574959386e-16,1.3639882722710325e-15,0.5092489759343479,0.30760364799636786,1.25689520461512,-0.07377305007264603,0.8761509509123574,1.2040280512222907,0.43039492904872817,-0.16890072682503138,-0.1883324161469671,0.03264995973258913,-0.001887212860330141,-0.062394490129481665,CTC,1
3.4013,0.15,0.2,0.3,0.27368640831249713,0.1372640273219035,0.3117719070043823,0.0,0.0,0.0,0.47996532917022705,0.3271501660346985,1.287613868713379,-0.08551942557096481,0.8770854473114014,1.2482768297195435,0.10652264207601547,-0.041020289063453674,-0.044889483600854874,-1.4036391550814272e-15,-6.978544574959386e-16,1.3639882722710325e-15,0.5275005762740423,0.29852233534153727,1.2443645924579634,-0.07055173573748454,0.8758946755492185,1.191945878685507,0.48968260756466925,-0.19496668807927942,-0.21905271609647717,0.039284824805155466,-0.002264060340057016,-0.07446603843432445,CTC,1
3.5008,0.15,0.2,0.3,0.2713593104736048,0.13988051539440616,0.31190767966471966,0.0,0.0,0.0,0.49164852499961853,0.322527140378952,1.2824348211288452,-0.08551942557096481,0.8770854473114014,1.2482768297195435,0.1283339262008667,-0.05249090492725372,-0.057592760771512985,-1.4036391550814272e-15,-6.978544574959386e-16,1.3639882722710325e-15,0.5470536865055896,0.2887934401168887,1.2309404303999776,-0.0671007115470803,0.8756201253546152,1.1790021341890582,0.5487150471107884,-0.22307855105319624,-0.25377140956131305,0.046301303314471916,-0.0026653936198721096,-0.0874704353942445,CTC,1
3.6009,0.15,0.2,0.3,0.2682810291958431,0.14322111149157127,0.31212021475966223,0.0,0.0,0.0,0.505822479724884,0.31690508127212524,1.2761435508728027,-0.08551942557096481,0.8770854473114014,1.2484686374664307,0.13850340247154236,-0.05594921112060547,-0.06166739761829376,-1.4036391550814272e-15,-6.978544574959386e-16,0.0034240642562508583,0.5680264698437762,0.2783581687329393,1.2165415936417925,-0.0633991222969254,0.8753256411687909,1.1651185961895187,0.5992442203958436,-0.2461921390554701,-0.2823243005220078,0.0537436653600508,-0.0030935382916405262,-0.09832760479590308,CTC,1
3.7007,0.15,0.2,0.3,0.2654048911731523,0.14618452802550053,0.31225359504121963,0.0,0.0,0.0,0.5195247530937195,0.3113003075122833,1.269650936126709,-0.08551942557096481,0.8770854473114014,1.2484686374664307,0.1468581110239029,-0.06033201143145561,-0.07091236859560013,-1.4036391550814272e-15,-6.978544574959386e-16,1.3639882722710325e-15,0.590011290653792,0.26741934541222656,1.2014479438912138,-0.059518913596692286,0.8750169467073865,1.1505651108362815,0.6564959589309995,-0.2711094841919707,-0.31486398390473036,0.061467278936257676,-0.0035400232555029233,-0.11639742491791864,CTC,1
3.8008,0.15,0.2,0.3,0.26158548628432887,0.14998000084720242,0.3124635227118243,0.0,0.0,0.0,0.5365596413612366,0.3042459189891815,1.2617106437683105,-0.08551942557096481,0.8770854473114014,1.2484686374664307,0.16267728805541992,-0.06769374758005142,-0.07574030011892319,-1.4036391550814272e-15,-6.978544574959386e-16,1.3639882722710325e-15,0.6129079761024354,0.25602681240424574,1.1857282546748453,-0.05547776544033102,0.8746954485226346,1.1354079904215133,0.6970867410338276,-0.2925960473465835,-0.34169990449813986,0.06943670118228652,-0.004002655280194713,-0.1317443628158413,CTC,1
3.9007,0.15,0.2,0.3,0.2579955287392287,0.15336593267852144,0.3125745397440725,0.0,0.0,0.0,0.5530614256858826,0.2973525822162628,1.2536535263061523,-0.08551942557096481,0.8770854473114014,1.2484686374664307,0.17270980775356293,-0.07450763881206512,-0.08519072085618973,-1.4036391550814272e-15,-6.978544574959386e-16,1.3639882722710325e-15,0.6364280623839633,0.24432409849336675,1.1695805704383178,-0.05132659021773194,0.87436519700821,1.1198381918699076,0.742459018606053,-0.31510477581467133,-0.3716513155971565,0.07755035744516117,-0.0044754181574641096,-0.14751823759127405,CTC,1
4.0007,0.15,0.2,0.3,0.25337371075253606,0.15754333708473545,0.31276512140360063,0.0,0.0,0.0,0.5727558135986328,0.28906142711639404,1.2439836263656616,-0.08551942557096481,0.8770854473114014,1.247318148612976,0.18750175833702087,-0.07964373379945755,-0.09306606650352478,-1.4036391550814272e-15,-6.978544574959386e-16,1.3639882722710325e-15,0.6604003751032421,0.2323963736467034,1.1531224107369977,-0.047095599336256205,0.8740285956673375,1.1039690290025759,0.7692387592718853,-0.33160888747434053,-0.3961595678538814,0.08574750753458708,-0.004954665486147877,-0.16232632686698736,CTC,1
4.1007,0.15,0.2,0.3,0.24921926328439162,0.1610702147966812,0.31286511646960513,0.0,0.0,0.0,0.5912364721298218,0.28111732006073,1.23458993434906,-0.08551942557096481,0.8770854473114014,1.2459758520126343,0.19414444267749786,-0.08368413150310516,-0.0994005873799324,-1.4036391550814272e-15,-6.978544574959386e-16,-0.017120322212576866,0.6846082354854706,0.22035144910617493,1.1365025360981376,-0.04282303549410023,0.8736886869418117,1.0879439385753904,0.8025590767786438,-0.3488880427976304,-0.42046465585947357,0.09395152229534451,-0.005435829181842742,-0.19384337132063603,CTC,1
4.2012,0.15,0.2,0.3,0.24391967964341815,0.16534201129431314,0.3129400048330643,0.0,0.0,0.0,0.6121580600738525,0.27198246121406555,1.223783016204834,-0.08551942557096481,0.8770854473114014,1.2444418668746948,0.21328496932983398,-0.09529171139001846,-0.10895372182130814,-1.4036391550814272e-15,-6.978544574959386e-16,-0.013696257025003433,0.708913534469467,0.2082580427672926,1.1198157651156597,-0.03853327423589133,0.8733474100560925,1.071854345859288,0.8196451791236434,-0.36397451739877923,-0.4420616420089689,0.10211203227177994,-0.005915887480282493,-0.20505279166192697,CTC,1
4.3009,0.15,0.2,0.3,0.23924835213188805,0.1688896900260608,0.3129618757405378,0.0,0.0,0.0,0.6316127777099609,0.26349762082099915,1.2134535312652588,-0.08551942557096481,0.8770854473114014,1.2417573928833008,0.2021225094795227,-0.08981320261955261,-0.10837163031101227,-1.4036391550814272e-15,-6.978544574959386e-16,-0.037664707750082016,0.7328188938155509,0.19636363141117044,1.1034035721644608,-0.03431410028316956,0.8730117488245642,1.0560295047057677,0.8410094900111863,-0.37340007519261714,-0.45760983427947377,0.11005877851996597,-0.00638475237988157,-0.24153286159491363,CTC,1
4.4008,0.15,0.2,0.3,0.2334674527826371,0.17299754520762275,0.31300329556153783,0.0,0.0,0.0,0.6552092432975769,0.2528422176837921,1.2006524801254272,-0.08551942557096481,0.8770854473114014,1.2390730381011963,0.2197221964597702,-0.10049628466367722,-0.12011617422103882,-1.4036391550814272e-15,-6.978544574959386e-16,-0.017120322212576866,0.7563619367054359,0.18464949515188875,1.0872401270987229,-0.03015887333632649,0.8726811749705621,1.0404445093660522,0.8331864219499515,-0.3792400307481897,-0.4717966797511114,0.1178004615080882,-0.0068428759049429045,-0.2340942580624813,CTC,1
4.5007,0.15,0.2,0.3,0.22847914360384558,0.17633372072202858,0.3129423601656288,0.0,0.0,0.0,0.6754097938537598,0.24374379217624664,1.1894314289093018,-0.08551942557096481,0.8770854473114014,1.2348545789718628,0.21201805770397186,-0.09796247631311417,-0.11830142140388489,-1.4036391550814272e-15,-6.978544574959386e-16,-0.04451283439993858,0.7792568940767843,0.17325782197043912,1.0715216242915435,-0.026118030176790673,0.8723597010501831,1.0252885329018222,0.8397016408921317,-0.3840899351760221,-0.48066327869693587,0.12523760941405918,-0.007284339575050852,-0.2714462942565053,CTC,1
4.6008,0.15,0.2,0.3,0.22229811001194405,0.1801869533274491,0.31282131174270245,0.0,0.0,0.0,0.6986803412437439,0.23301167786121368,1.1761932373046875,-0.08551942557096481,0.8770854473114014,1.2310196161270142,0.22574855387210846,-0.1071389690041542,-0.1299089938402176,-1.4036391550814272e-15,-6.978544574959386e-16,-0.03424064442515373,0.8013300979369682,0.16227502255464288,1.0563672952743628,-0.022222222319158047,0.8720497655798889,1.0106765398428725,0.8206950605679069,-0.384804799773448,-0.48924160868678956,0.13230754818519266,-0.007705402587040041,-0.27167936991389624,CTC,1
4.7006,0.15,0.2,0.3,0.2170504222253199,0.18322787041004507,0.3126883386515545,0.0,0.0,0.0,0.7189710140228271,0.22362372279167175,1.1642894744873047,-0.08475244045257568,0.8770854473114014,1.2254588603973389,0.21099084615707397,-0.09837336838245392,-0.1250125914812088,0.0034240642562508583,-6.978544574959386e-16,-0.06848128885030746,0.8222731624377393,0.15185453815097394,1.0419888619448354,-0.018525878292173142,0.8717556986838204,0.9968126750837376,0.8106699005452573,-0.38083935292799,-0.4890141668320882,0.14010992887516335,-0.0080997632527202,-0.31278943129974107,CTC,1
4.8007,0.15,0.2,0.3,0.21019184509985583,0.1868968842135772,0.3124781313942899,0.0,0.0,0.0,0.7452040314674377,0.21122916042804718,1.148711919784546,-0.08456069231033325,0.8770854473114014,1.2187477350234985,0.266905814409256,-0.13025140762329102,-0.16308818757534027,0.0034240642562508583,-6.978544574959386e-16,-0.07190535217523575,0.8419712027189806,0.14205353116243305,1.0284651983522535,-0.015049274687471734,0.8714791134895227,0.9837729899665443,0.7553395103381098,-0.37797502989593423,-0.5003834724257274,0.1458064407714258,-0.008464783201092183,-0.32149550161363205,CTC,1
4.9007,0.15,0.2,0.3,0.20407083634739243,0.18990838192052134,0.31219249569318297,0.0,0.0,0.0,0.766894519329071,0.20084026455879211,1.1352684497833252,-0.08341020345687866,0.8770854473114014,1.2122282981872559,0.19876693189144135,-0.09583956003189087,-0.12641645967960358,-1.4016565685892601e-15,-6.978544574959386e-16,-0.07875347882509232,0.8601655847777405,0.13300068818089505,1.0159738693304572,-0.01183805908695143,0.8712236415428213,0.9717286947188554,0.716086593157015,-0.3529811631415139,-0.469617569654009,0.1462393300431064,-0.00879510473144065,-0.3326444593043664,CTC,1
5.0011,0.15,0.2,0.3,0.1981708263629243,0.19240553759866824,0.3117717206016831,0.0,0.0,0.0,0.7885217070579529,0.18982437252998352,1.1206669807434082,-0.08264321833848953,0.8771653771400452,1.2041748762130737,0.22502949833869934,-0.11501432210206985,-0.15185725688934326,0.006848128512501717,0.001426693401299417,-0.07190535217523575,0.87670278333896,0.1247723976324312,1.0046202774546888,-0.008919327918331096,0.8709914385311567,0.9607814198184097,0.6650279804567034,-0.3429445623865766,-0.46861255763961235,0.15499162036623768,-0.007923134179361541,-0.32744160852891563,CTC,1
5.1009,0.15,0.2,0.3,0.19241979079344823,0.19470640321885513,0.311362170349171,0.0,0.0,0.0,0.8085325360298157,0.17993786931037903,1.1075801849365234,-0.08149272948503494,0.8771653771400452,1.1970802545547485,0.18414618074893951,-0.0899159237742424,-0.1208694651722908,0.0034240642562508583,-6.978544574959386e-16,-0.06848128885030746,0.891200157911726,0.11755904709225143,0.9946671240496544,-0.0063606152759174694,0.8707878772069962,0.9511844651591739,0.6094092149370708,-0.31505640995937734,-0.4335442788172367,0.15396979743327965,-0.009453695075657855,-0.32514596943478796,CTC,1
5.2008,0.15,0.2,0.3,0.1871564177864034,0.1965598503159693,0.3108641853248769,0.0,0.0,0.0,0.8272950053215027,0.1699746549129486,1.0939545631408691,-0.07919175922870636,0.8771653771400452,1.1888351440429688,0.20044472813606262,-0.10717321187257767,-0.14559121429920197,0.013696257025003433,-6.978544574959386e-16,-0.09244973212480545,0.9035724406759649,0.11140306263363564,0.9861729496248408,-0.004176970494893212,0.8706141548374916,0.9429942762305732,0.5463477223281481,-0.2989220869259638,-0.42530769943269237,0.16077640227847417,-0.009652369367446758,-0.34685106834807944,CTC,1
5.3008,0.15,0.2,0.3,0.18205364060035545,0.1981996350073209,0.3103647923486005,0.0,0.0,0.0,0.8442665934562683,0.1611197590827942,1.0818341970443726,-0.07861651480197906,0.8771653771400452,1.1813569068908691,0.15600036084651947,-0.08111608028411865,-0.11398709565401077,0.006848128512501717,-6.978544574959386e-16,-0.0821775421500206,0.9135810679195586,0.10642314462353905,0.9793015397823698,-0.0024104988532280686,0.8704736211564097,0.9363687771530782,0.47770157023594606,-0.26454978536591556,-0.38233327638015346,0.15642806362496592,-0.009798247305199036,-0.33409445137227983,CTC,1
5.4008,0.15,0.2,0.3,0.17763355339008313,0.19936639746908724,0.3097860501991482,0.0,0.0,0.0,0.8595431447029114,0.15261191129684448,1.0696601867675781,-0.07669904083013535,0.8771653771400452,1.17157781124115,0.16387571394443512,-0.09077194333076477,-0.13240855932235718,0.02054438553750515,-6.978544574959386e-16,-0.11299411952495575,0.921020644822172,0.10272148983081639,0.9741939080654269,-0.0010974514887290704,0.8703691601646703,0.9314439349438963,0.401620696656364,-0.2400832599546753,-0.36331915818074384,0.16484619219233806,-0.009886903921052707,-0.35717229010187196,CTC,1
5.5007,0.15,0.2,0.3,0.17338454738332967,0.2003624751471505,0.3092366335917839,0.0,0.0,0.0,0.8729827404022217,0.14500145614147186,1.0588666200637817,-0.07574030011892319,0.8771653771400452,1.1644831895828247,0.12062978744506836,-0.06858401000499725,-0.0994005873799324,0.006848128512501717,-6.978544574959386e-16,-0.07190535217523575,0.9256551757575873,0.1004155208390751,0.9710120769601439,-0.0002794804253076627,0.8703040855368926,0.9283759737050691,0.31762858649458153,-0.20025902041292407,-0.3112353366519577,0.15220390431386638,-0.009913573637843114,-0.3106677194443963,CTC,1
5.6007,0.15,0.2,0.3,0.17001995785408952,0.20094658285196096,0.30859008314356423,0.0,0.0,0.0,0.8837838768959045,0.13838233053684235,1.0485928058624268,-0.07324758172035217,0.8771653771400452,1.1539371013641357,0.11689755320549011,-0.07156294584274292,-0.11189842224121094,0.013696257025003433,-6.978544574959386e-16,-0.10614599287509918,0.9272845587074523,0.09960480091716264,0.9698934262434811,8.097351773761474e-06,0.8702812069564176,0.9272973567310853,0.22925404291727247,-0.16783393750856904,-0.2812245557961043,0.15179105601508588,-0.009873858754215472,-0.33197083361356694,CTC,1
5.7007,0.15,0.2,0.3,0.1669288383514806,0.2013209462067449,0.3079833878133049,0.0,0.0,0.0,0.8927691578865051,0.1326068937778473,1.039787769317627,-0.07228884100914001,0.8771653771400452,1.1472258567810059,0.07680176198482513,-0.04982013627886772,-0.07909588515758514,0.010272192768752575,-6.978544574959386e-16,-0.07190535217523575,0.9272849793839476,0.09960459160429641,0.9698931374285877,8.171599028766566e-06,0.870281201049592,0.9272970782521627,0.20709492898465487,-0.15193726320575063,-0.25714142676166873,0.15281177943133958,-0.010326264135680451,-0.31238890151345855,CTC,1
5.8009,0.15,0.2,0.3,0.1649162255973986,0.20131558224343604,0.30737248575061715,0.0,0.0,0.0,0.8985100984573364,0.12811806797981262,1.0320814847946167,-0.07056311517953873,0.8771653771400452,1.1374467611312866,0.06296854466199875,-0.048518989235162735,-0.08560160547494888,0.017120322212576866,-6.978544574959386e-16,-0.10957005620002747,0.9272849793839476,0.09960459160429641,0.9698931374285877,8.171599028766566e-06,0.870281201049592,0.9272970782521627,0.17264928555966708,-0.13346150119612993,-0.2379260053830562,0.15483883132719645,-0.010326264135680469,-0.3385433062430633,CTC,1
5.9008,0.15,0.2,0.3,0.16277519414550506,0.201330173529568,0.30676284155738504,0.0,0.0,0.0,0.9045367240905762,0.12372897565364838,1.0247471332550049,-0.06902913749217987,0.8771653771400452,1.1299686431884766,0.05574376508593559,-0.03937673941254616,-0.06786495447158813,0.013696257025003433,-6.978544574959386e-16,-0.07190535217523575,0.9272849793839476,0.09960459160429641,0.9698931374285877,8.171599028766566e-06,0.870281201049592,0.9272970782521627,0.1364895317602286,-0.11224823196242632,-0.20528096016220435,0.14903162380242002,-0.010326264135680451,-0.2934059665616763,CTC,1
6.0008,0.15,0.2,0.3,0.16109167215386377,0.20125375173274515,0.3062146163691821,0.0,0.0,0.0,0.9090120792388916,0.12008193135261536,1.0184003114700317,-0.06730340421199799,0.8771653771400452,1.1201894283294678,0.048758674412965775,-0.03900009021162987,-0.07132326066493988,0.02054438553750515,-6.978544574959386e-16,-0.10614599287509918,0.9272849793839476,0.09960459160429641,0.9698931374285877,8.171599028766566e-06,0.870281201049592,0.9272970782521627,0.10963740087033602,-0.09750939507792773,-0.18831547852329594,0.15105866005205767,-0.010326264135680451,-0.3162046581026328,CTC,1
6.1008,0.15,0.2,0.3,0.159536426522019,0.20113585715063478,0.3056181028027537,0.0,0.0,0.0,0.9129735827445984,0.11679346114397049,1.0123180150985718,-0.06576942652463913,0.8771653771400452,1.114628791809082,0.030542653053998947,-0.027392514050006866,-0.05115551874041557,0.017120322212576866,-6.978544574959386e-16,-0.047936901450157166,0.9272849793839476,0.09960459160429641,0.9698931374285877,8.171599028766566e-06,0.870281201049592,0.9272970782521627,0.0858683798360953,-0.07971248377869906,-0.15796794425420146,0.1452514540173973,-0.010326264135680469,-0.25304304833376534,CTC,1
6.2007,0.15,0.2,0.3,0.15843488734125422,0.20095933549819295,0.30514311006181155,0.0,0.0,0.0,0.9156350493431091,0.11431608349084854,1.007532000541687,-0.06423544883728027,0.8771653771400452,1.1063836812973022,0.02948119305074215,-0.025783203542232513,-0.05365508794784546,0.02054438553750515,-6.978544574959386e-16,-0.08560160547494888,0.9272849793839476,0.09960459160429641,0.9698931374285877,8.171599028766566e-06,0.870281201049592,0.9272970782521627,0.06989958024503087,-0.06915924896310152,-0.1451096421080051,0.14492274930262222,-0.010326264135680451,-0.28088483671510345,CTC,1
6.3007,0.15,0.2,0.3,0.15730704603037646,0.20077259657600552,0.30461337023811735,0.0,0.0,0.0,0.9183387160301208,0.11183678358793259,1.002611756324768,-0.06270146369934082,0.8771653771400452,1.1019734144210815,0.021914010867476463,-0.020955273881554604,-0.04153389856219292,0.017120322212576866,-6.978544574959386e-16,-0.0308165792375803,0.9272849793839476,0.09960459160429641,0.9698931374285877,8.171599028766566e-06,0.870281201049592,0.9272970782521627,0.05367758012296053,-0.057310877487166546,-0.12307619582585676,0.1391155283668007,-0.010326264135680469,-0.2223442174386395,CTC,1
6.4007,0.15,0.2,0.3,0.15657358812258054,0.20059724839360796,0.3042564704278653,0.0,0.0,0.0,0.9199666380882263,0.1100190207362175,0.9990107417106628,-0.0613592304289341,0.8771653771400452,1.0944952964782715,0.01753120869398117,-0.01910627819597721,-0.04060940071940422,0.013696257025003433,-6.978544574959386e-16,-0.0821775421500206,0.9272849793839476,0.09960459160429641,0.9698931374285877,8.171599028766566e-06,0.870281201049592,0.9272970782521627,0.04391004777432772,-0.04930022780607524,-0.11171845327786785,0.13369180967592847,-0.010326264135680451,-0.26445203135573986,CTC,1
6.5007,0.15,0.2,0.3,0.15577190974702657,0.2003894674667487,0.30382034652204704,0.0,0.0,0.0,0.9216884970664978,0.10830096155405045,0.9953330159187317,-0.06040049344301224,0.8771653771400452,1.0904686450958252,0.015647973865270615,-0.01444955077022314,-0.03472001105546951,0.013696257025003433,-6.978544574959386e-16,-0.037664707750082016,0.9272849793839476,0.09960459160429641,0.9698931374285877,8.171599028766566e-06,0.870281201049592,0.9272970782521627,0.0335788939046988,-0.04056530010710539,-0.09715164210371358,0.13177433570408476,-0.010326264135680451,-0.21640013712310915,CTC,1
6.6011,0.15,0.2,0.3,0.15521945504741402,0.20022204908243169,0.3034658533957648,0.0,0.0,0.0,0.9227335453033447,0.10704118013381958,0.9924433827400208,-0.05886651203036308,0.8771653771400452,1.0837574005126953,0.01082004327327013,-0.013319609686732292,-0.03153563290834427,0.02054438553750515,-6.978544574959386e-16,-0.08902566879987717,0.9272849793839476,0.09960459160429641,0.9698931374285877,8.171599028766566e-06,0.870281201049592,0.9272970782521627,0.02730860448361727,-0.03507419799278559,-0.08657211567930562,0.1341848756887878,-0.010326264135680451,-0.2593515099104655,CTC,1
6.7008,0.15,0.2,0.3,0.15467874678496826,0.2000131781136159,0.3031207057717762,0.0,0.0,0.0,0.9237805008888245,0.10578715056180954,0.9896476864814758,-0.05848301574587822,0.8771653771400452,1.0804977416992188,0.009450417011976242,-0.010785802267491817,-0.02633105404675007,0.006848128512501717,-6.978544574959386e-16,-0.027392514050006866,0.9272849793839476,0.09960459160429641,0.9698931374285877,8.171599028766566e-06,0.870281201049592,0.9272970782521627,0.021026870970738853,-0.02904455673704925,-0.07506227958671433,0.12246087749981534,-0.010326264135680469,-0.19536539356076843,CTC,1
6.8009,0.15,0.2,0.3,0.15427994594172428,0.19985720688360448,0.30281388358216443,0.0,0.0,0.0,0.9244592785835266,0.1049012765288353,0.9873601794242859,-0.05733253061771393,0.8771653771400452,1.073403000831604,0.00715629430487752,-0.009621620178222656,-0.02550927922129631,0.010272192768752575,-6.978544574959386e-16,-0.09244973212480545,0.9272849793839476,0.09960459160429641,0.9698931374285877,8.171599028766566e-06,0.870281201049592,0.9272970782521627,0.01695420480252597,-0.025035387769444604,-0.06770669351987224,0.12289915864848747,-0.010326264135680451,-0.2513172523196948,CTC,1
6.9008,0.15,0.2,0.3,0.15388488319096788,0.19965469993157225,0.3025102456721377,0.0,0.0,0.0,0.925086259841919,0.10393103212118149,0.9850726127624512,-0.057140786200761795,0.8771653771400452,1.071677327156067,0.005546984262764454,-0.008902567438781261,-0.02092103287577629,-1.394717674685353e-15,-6.978544574959386e-16,-0.017120322212576866,0.9272849793839476,0.09960459160429641,0.9698931374285877,8.171599028766566e-06,0.870281201049592,0.9272970782521627,0.013192317252171959,-0.02086678904305281,-0.05809104572705608,0.11429791559958002,-0.010326264135680469,-0.17559618956262,CTC,1
7.0008,0.15,0.2,0.3,0.15360198601955433,0.1995218186185719,0.3022673929996964,0.0,0.0,0.0,0.9254602193832397,0.10330785065889359,0.98331618309021,-0.055990297347307205,0.8771653771400452,1.0643908977508545,0.004006155300885439,-0.006813887972384691,-0.019414443522691727,0.017120322212576866,-6.978544574959386e-16,-0.08902566879987717,0.9272849793839476,0.09960459160429641,0.9698931374285877,8.171599028766566e-06,0.870281201049592,0.9272970782521627,0.010948560004247154,-0.017538591407342572,-0.0519178030984817,0.12569319566273346,-0.010326264135680469,-0.23804835687244064,CTC,1
7.1007,0.15,0.2,0.3,0.15333469434094293,0.1993504853492804,0.30201393131170096,0.0,0.0,0.0,0.9258111119270325,0.10270768404006958,0.9816978573799133,-0.05579855293035507,0.8771653771400452,1.0632404088974,0.0028419734444469213,-0.004725208505988121,-0.01311416644603014,0.0034240642562508583,-6.978544574959386e-16,-0.010272192768752575,0.9272849793839476,0.09960459160429641,0.9698931374285877,8.171599028766566e-06,0.870281201049592,0.9272970782521627,0.008843204741490807,-0.014302453145487927,-0.043282659721594875,0.11435270046376839,-0.010326264135680451,-0.1596044126231385,CTC,1
7.2007,0.15,0.2,0.3,0.15330438882442995,0.19933505856878603,0.3020001587501535,0.0,0.0,0.0,0.9258456230163574,0.10264056921005249,0.9816269278526306,-0.05579855293035507,0.8771653771400452,1.0632404088974,6.848128396086395e-05,-0.0001369625679217279,2.2838873346920025e-15,-1.3957089149918772e-15,-6.978544574959386e-16,1.3639882722710325e-15,0.9272849793839476,0.09960459160429641,0.9698931374285877,8.171599028766566e-06,0.870281201049592,0.9272970782521627,0.008636138205541101,-0.012198695450193003,-0.035201371272127274,0.11161344905876656,-0.010326264135680469,-0.14953766370975963,CTC,1
7.3007,0.15,0.2,0.3,0.15330432122365334,0.19933496870403575,0.3020006421089768,0.0,0.0,0.0,0.9258456230163574,0.10263865441083908,0.9816269278526306,-0.05579855293035507,0.8771653771400452,1.0632404088974,-4.758098525709073e-16,-3.4240641980431974e-05,2.2838873346920025e-15,-1.3957089149918772e-15,-6.978544574959386e-16,1.3639882722710325e-15,0.9272849793839476,0.09960459160429641,0.9698931374285877,8.171599028766566e-06,0.870281201049592,0.9272970782521627,0.008636138205541107,-0.012149947482962857,-0.03520137127212726,0.11161344905876656,-0.010326264135680469,-0.14953766370975963,CTC,1
7.4007,0.15,0.2,0.3,0.15330296557260004,0.19933396438859619,0.30200597315323024,0.0,0.0,0.0,0.925849437713623,0.10260605812072754,0.9816211462020874,-0.05579855293035507,0.8771653771400452,1.0626652240753174,6.848128396086395e-05,-0.0004108877037651837,-0.00010272192594129592,-1.3957089149918772e-15,-6.978544574959386e-16,-0.010272192768752575,0.9272849793839476,0.09960459160429641,0.9698931374285877,8.171599028766566e-06,0.870281201049592,0.9272970782521627,0.00861325002194735,-0.012170221147230587,-0.03524565947606378,0.11161344905876654,-0.010326264135680469,-0.15897170931884771,CTC,1
7.5008,0.15,0.2,0.3,0.15329684201410249,0.19933063566978584,0.3020061721308907,0.0,0.0,0.0,0.9258590340614319,0.10258496552705765,0.9815885424613953,-0.05579855293035507,0.8771653771400452,1.0626652240753174,0.00010272192594129592,-0.00010272192594129592,-0.000308165792375803,-1.3957089149918772e-15,-6.978544574959386e-16,1.3639882722710325e-15,0.9272849793839476,0.09960459160429641,0.9698931374285877,8.171599028766566e-06,0.870281201049592,0.9272970782521627,0.008555671935094322,-0.011962584461421458,-0.035271114573848066,0.11161344905876658,-0.010326264135680469,-0.14890496040546886,CTC,1
7.6008,0.15,0.2,0.3,0.15329378454656914,0.19932736884529884,0.30200285653279824,0.0,0.0,0.0,0.9258609414100647,0.1025753766298294,0.9815617203712463,-0.05579855293035507,0.8771653771400452,1.0626652240753174,3.4240641980431974e-05,-6.848128396086395e-05,-0.00020544385188259184,-1.3957089149918772e-15,-6.978544574959386e-16,1.3639882722710325e-15,0.9272849793839476,0.09960459160429641,0.9698931374285877,8.171599028766566e-06,0.870281201049592,0.9272970782521627,0.00854422784329745,-0.011910532615716334,-0.03512901513910536,0.11161344905876656,-0.010326264135680469,-0.14890496040546886,CTC,1
7.7007,0.15,0.2,0.3,0.15328922774935427,0.1993237292826597,0.3020015524313097,0.0,0.0,0.0,0.9258667230606079,0.10254853218793869,0.9815291166305542,-0.05579855293035507,0.8771653771400452,1.0626652240753174,3.4240641980431974e-05,-0.00023968449386302382,-0.00034240641980431974,-1.3957089149918772e-15,-6.978544574959386e-16,1.3639882722710325e-15,0.9272849793839476,0.09960459160429641,0.9698931374285877,8.171599028766566e-06,0.870281201049592,0.9272970782521627,0.008509537940038175,-0.011871636132114323,-0.035113381457781985,0.11161344905876656,-0.010326264135680469,-0.14890496040546886,CTC,1
7.8007,0.15,0.2,0.3,0.15328570150970433,0.19932143475249983,0.3020010319812345,0.0,0.0,0.0,0.9258724451065063,0.10253511369228363,0.9815118312835693,-0.05579855293035507,0.8771653771400452,1.0626652240753174,-4.758098525709073e-16,-0.00010272192594129592,-0.00017120320990215987,-1.3957089149918772e-15,-6.978544574959386e-16,1.3639882722710325e-15,0.9272849793839476,0.09960459160429641,0.9698931374285877,8.171599028766566e-06,0.870281201049592,0.9272970782521627,0.008475205664647545,-0.011763177122325398,-0.0349588034908861,0.11161344905876656,-0.010326264135680469,-0.14890496040546886,CTC,1
7.9007,0.15,0.2,0.3,0.1532827524330474,0.1993191096711039,0.3019990534018198,0.0,0.0,0.0,0.925876259803772,0.10252360254526138,0.9814926981925964,-0.05579855293035507,0.8771653771400452,1.0626652240753174,3.4240641980431974e-05,-0.00010272192594129592,-0.00017120320990215987,-1.3957089149918772e-15,-6.978544574959386e-16,1.3639882722710325e-15,0.9272849793839476,0.09960459160429641,0.9698931374285877,8.171599028766566e-06,0.870281201049592,0.9272970782521627,0.0084523174810538,-0.011717132534236403,-0.0349014042179674,0.11161344905876656,-0.010326264135680469,-0.14890496040546886,CTC,1
8.0007,0.15,0.2,0.3,0.15328067068156762,0.199317962559571,0.3019988057946435,0.0,0.0,0.0,0.9258801341056824,0.10251402109861374,0.981479287147522,-0.05579855293035507,0.8771653771400452,1.0626652240753174,3.4240641980431974e-05,-0.00010272192594129592,-0.00010272192594129592,-1.3957089149918772e-15,-6.978544574959386e-16,1.3639882722710325e-15,0.9272849793839476,0.09960459160429641,0.9698931374285877,8.171599028766566e-06,0.870281201049592,0.9272970782521627,0.00842907166959139,-0.011678806747645834,-0.034820082312367495,0.11161344905876654,-0.010326264135680469,-0.14890496040546886,CTC,1
8.1007,0.15,0.2,0.3,0.15327927691241083,0.1993169073640298,0.3019980357932732,0.0,0.0,0.0,0.9258820414543152,0.10250826925039291,0.981471598148346,-0.05579855293035507,0.8771653771400452,1.0626652240753174,-4.758098525709073e-16,-6.848128396086395e-05,-6.848128396086395e-05,-1.3957089149918772e-15,-6.978544574959386e-16,1.3639882722710325e-15,0.9272849793839476,0.09960459160429641,0.9698931374285877,8.171599028766566e-06,0.870281201049592,0.9272970782521627,0.008417627577794518,-0.011642103097970355,-0.03477647092965115,0.11161344905876656,-0.010326264135680469,-0.14890496040546886,CTC,1
8.2011,0.15,0.2,0.3,0.15327828772368923,0.1993171878196146,0.30199807861521955,0.0,0.0,0.0,0.9258858561515808,0.10250634700059891,0.9814696907997131,-0.05579855293035507,0.8771653771400452,1.0626652240753174,3.4240641980431974e-05,5.374668842850292e-15,-3.4240641980431974e-05,-1.3957089149918772e-15,-6.978544574959386e-16,1.3639882722710325e-15,0.9272849793839476,0.09960459160429641,0.9698931374285877,8.171599028766566e-06,0.870281201049592,0.9272970782521627,0.008394739394200762,-0.011607021585207836,-0.034750204498564446,0.11161344905876654,-0.010326264135680469,-0.14890496040546886,CTC,1
8.3008,0.15,0.2,0.3,0.15327805409233408,0.1993168772110749,0.3019981057981878,0.0,0.0,0.0,0.9258878231048584,0.10250251740217209,0.9814677238464355,-0.05579855293035507,0.8771653771400452,1.0626652240753174,3.4240641980431974e-05,-3.4240641980431974e-05,2.2838873346920025e-15,-1.3957089149918772e-15,-6.978544574959386e-16,1.3639882722710325e-15,0.9272849793839476,0.09960459160429641,0.9698931374285877,8.171599028766566e-06,0.870281201049592,0.9272970782521627,0.00838293767453524,-0.011605399448294893,-0.034723759253542055,0.11161344905876656,-0.010326264135680469,-0.14890496040546886,CTC,1
8.4008,0.15,0.2,0.3,0.1532769856920737,0.19931707728069603,0.3019986300449355,0.0,0.0,0.0,0.9258897304534912,0.10250059515237808,0.9814658164978027,-0.05579855293035507,0.8771653771400452,1.0626652240753174,-4.758098525709073e-16,5.374668842850292e-15,-3.4240641980431974e-05,-1.3957089149918772e-15,-6.978544574959386e-16,1.3639882722710325e-15,0.9272849793839476,0.09960459160429641,0.9698931374285877,8.171599028766566e-06,0.870281201049592,0.9272970782521627,0.008371493582738363,-0.01158401419232453,-0.03473858159283324,0.11161344905876654,-0.010326264135680469,-0.14890496040546886,CTC,1
8.5007,0.15,0.2,0.3,0.15327637693426358,0.19931706572272412,0.3019986709906976,0.0,0.0,0.0,0.925891637802124,0.10249484330415726,0.9814600944519043,-0.05579855293035507,0.8771653771400452,1.0626652240753174,3.4240641980431974e-05,-0.00010272192594129592,-0.00010272192594129592,-1.3957089149918772e-15,-6.978544574959386e-16,1.3639882722710325e-15,0.9272849793839476,0.09960459160429641,0.9698931374285877,8.171599028766566e-06,0.870281201049592,0.9272970782521627,0.008360049490941485,-0.0116020955698199,-0.03476250422551445,0.11161344905876654,-0.010326264135680469,-0.14890496040546886,CTC,1
8.6008,0.15,0.2,0.3,0.15327371472530482,0.19931512187027517,0.30199947180467357,0.0,0.0,0.0,0.9258954524993896,0.1024814248085022,0.9814466834068298,-0.05579855293035507,0.8771653771400452,1.0626652240753174,3.4240641980431974e-05,-0.00010272192594129592,-0.00010272192594129592,-1.3957089149918772e-15,-6.978544574959386e-16,1.3639882722710325e-15,0.9272849793839476,0.09960459160429641,0.9698931374285877,8.171599028766566e-06,0.870281201049592,0.9272970782521627,0.008337161307347737,-0.011548421587199662,-0.03472227109029107,0.11161344905876654,-0.010326264135680469,-0.14890496040546886,CTC,1
8.7007,0.15,0.2,0.3,0.15327241464171973,0.199314191170837,0.30199962553552157,0.0,0.0,0.0,0.9258973598480225,0.10247375071048737,0.9814389944076538,-0.05579855293035507,0.8771653771400452,1.0622817277908325,-4.758098525709073e-16,-6.848128396086395e-05,-0.00010272192594129592,-1.3957089149918772e-15,-6.978544574959386e-16,-0.006848128512501717,0.9272849793839476,0.09960459160429641,0.9698931374285877,8.171599028766566e-06,0.870281201049592,0.9272970782521627,0.008325717215550863,-0.011504028938348166,-0.03469920409276298,0.11161344905876654,-0.010326264135680469,-0.15519428043478853,CTC,1
8.8007,0.15,0.2,0.3,0.1532653860293438,0.1993080624075586,0.30198927560575023,0.0,0.0,0.0,0.9259127378463745,0.10244306921958923,0.9812740683555603,-0.05579855293035507,0.8771653771400452,1.0622817277908325,0.00020544385188259184,-0.0005136096151545644,-0.002910454524680972,-1.3957089149918772e-15,-6.978544574959386e-16,1.3639882722710325e-15,0.9272849793839476,0.09960459160429641,0.9698931374285877,8.171599028766566e-06,0.870281201049592,0.9272970782521627,0.00823344922543856,-0.011559354307233122,-0.035889065495726284,0.11161344905876656,-0.010326264135680469,-0.1484831144925355,CTC,1
8.9007,0.15,0.2,0.3,0.15318751992343346,0.19923740510281773,0.30185877362696506,0.0,0.0,0.0,0.9259913563728333,0.10233377665281296,0.9806566834449768,-0.05579855293035507,0.8771653771400452,1.0622817277908325,0.0008217754075303674,-0.001232663169503212,-0.0048279305920004845,-1.3957089149918772e-15,-6.978544574959386e-16,1.3639882722710325e-15,0.9272849793839476,0.09960459160429641,0.9698931374285877,8.171599028766566e-06,0.870281201049592,0.9272970782521627,0.007761738066686125,-0.01140980546186748,-0.0351873964043675,0.11161344905876656,-0.010326264135680469,-0.1484831144925355,CTC,1
9.001,0.15,0.2,0.3,0.1531770736155767,0.19923313366379863,0.3018574157084816,0.0,0.0,0.0,0.9260104894638062,0.10229925811290741,0.9806355834007263,-0.05579855293035507,0.8771653771400452,1.0622817277908325,0.0001369625679217279,-0.0002739251358434558,-0.0001369625679217279,-1.3957089149918772e-15,-6.978544574959386e-16,1.3639882722710325e-15,0.9272849793839476,0.09960459160429641,0.9698931374285877,8.171599028766566e-06,0.870281201049592,0.9272970782521627,0.007646939520848723,-0.010888236088781368,-0.03230951545716878,0.11161344905876658,-0.010326264135680469,-0.1484831144925355,CTC,1
9.1008,0.15,0.2,0.3,0.15312228671412076,0.19918431959597666,0.30176652723618574,0.0,0.0,0.0,0.926069974899292,0.10221872478723526,0.9801120758056641,-0.05579855293035507,0.8771653771400452,1.0622817277908325,0.0007532941526733339,-0.0008902567205950618,-0.00643724063411355,-1.3957089149918772e-15,-6.978544574959386e-16,1.3639882722710325e-15,0.9272849793839476,0.09960459160429641,0.9698931374285877,8.171599028766566e-06,0.870281201049592,0.9272970782521627,0.007290026907933677,-0.01081263541999342,-0.03451915951169711,0.11161344905876656,-0.010326264135680469,-0.1484831144925355,CTC,1
9.2008,0.15,0.2,0.3,0.15310379273805572,0.19917414866595584,0.30175346538746844,0.0,0.0,0.0,0.9261006116867065,0.10216695815324783,0.9800258278846741,-0.05579855293035507,0.8771653771400452,1.0622817277908325,0.0001369625679217279,-0.000308165792375803,-0.0005820909282192588,-1.3957089149918772e-15,-6.978544574959386e-16,1.3639882722710325e-15,0.9272849793839476,0.09960459160429641,0.9698931374285877,8.171599028766566e-06,0.870281201049592,0.9272970782521627,0.007106206183446373,-0.010372732512756016,-0.030747325925190562,0.11161344905876654,-0.010326264135680469,-0.1484831144925355,CTC,1
9.3009,0.15,0.2,0.3,0.1530491931071548,0.19912237540503136,0.30166234102871087,0.0,0.0,0.0,0.9261620044708252,0.10207108408212662,0.9794985055923462,-0.05579855293035507,0.8771653771400452,1.0622817277908325,0.0008217754075303674,-0.0010272192303091288,-0.005683946888893843,-1.3957089149918772e-15,-6.978544574959386e-16,1.3639882722710325e-15,0.9272849793839476,0.09960459160429641,0.9698931374285877,8.171599028766566e-06,0.870281201049592,0.9272970782521627,0.006737849478734459,-0.010276857603444491,-0.03222647262461166,0.11161344905876656,-0.010326264135680469,-0.1484831144925355,CTC,1
9.4008,0.15,0.2,0.3,0.15303132973413994,0.19911622375112403,0.30165314559094014,0.0,0.0,0.0,0.9261946082115173,0.10203272849321365,0.9794505834579468,-0.05579855293035507,0.8771653771400452,1.0622817277908325,0.00023968449386302382,-0.00023968449386302382,-0.00037664707633666694,-1.3957089149918772e-15,-6.978544574959386e-16,1.3639882722710325e-15,0.9272849793839476,0.09960459160429641,0.9698931374285877,8.171599028766566e-06,0.870281201049592,0.9272970782521627,0.006542227034581626,-0.00980842135321418,-0.028898326333879117,0.11161344905876656,-0.010326264135680469,-0.1484831144925355,CTC,1
9.5007,0.15,0.2,0.3,0.15297983664269332,0.19906694598975638,0.301564461442497,0.0,0.0,0.0,0.9262406229972839,0.10194644331932068,0.9789424538612366,-0.05579855293035507,0.8771653771400452,1.0622817277908325,0.000616331584751606,-0.0011299411999061704,-0.006026353221386671,-1.3957089149918772e-15,-6.978544574959386e-16,1.3639882722710325e-15,0.9272849793839476,0.09960459160429641,0.9698931374285877,8.171599028766566e-06,0.870281201049592,0.9272970782521627,0.006266138319982009,-0.009819383340059539,-0.0307637612307785,0.11161344905876658,-0.010326264135680469,-0.1484831144925355,CTC,1
9.6007,0.15,0.2,0.3,0.1529628863363695,0.19905721928165954,0.3015522167267667,0.0,0.0,0.0,0.9262712597846985,0.1019042581319809,0.9788734316825867,-0.05579855293035507,0.8771653771400452,1.0622817277908325,0.00017120320990215987,-0.00034240641980431974,-0.00037664707633666694,-1.3957089149918772e-15,-6.978544574959386e-16,1.3639882722710325e-15,0.9272849793839476,0.09960459160429641,0.9698931374285877,8.171599028766566e-06,0.870281201049592,0.9272970782521627,0.00608231759549472,-0.009335628678659667,-0.027166871007798812,0.11161344905876656,-0.010326264135680469,-0.1484831144925355,CTC,1
9.7007,0.15,0.2,0.3,0.15291588850357862,0.19901151720967497,0.30147803041295457,0.0,0.0,0.0,0.9263173341751099,0.10180263221263885,0.9784151315689087,-0.05579855293035507,0.8771653771400452,1.0622817277908325,0.000616331584751606,-0.001232663169503212,-0.005992112681269646,-1.3957089149918772e-15,-6.978544574959386e-16,1.3639882722710325e-15,0.9272849793839476,0.09960459160429641,0.9698931374285877,8.171599028766566e-06,0.870281201049592,0.9272970782521627,0.005805871253026441,-0.009285227701171064,-0.02916125002972466,0.11161344905876656,-0.010326264135680469,-0.1484831144925355,CTC,1
9.801,0.15,0.2,0.3,0.15289701234442227,0.1990040017606527,0.3014680679742002,0.0,0.0,0.0,0.9263556599617004,0.10175853222608566,0.9783499240875244,-0.05579855293035507,0.8771653771400452,1.0622817277908325,0.0002739251358434558,-0.000308165792375803,-0.0004108877037651837,-1.3957089149918772e-15,-6.978544574959386e-16,1.3639882722710325e-15,0.9272849793839476,0.09960459160429641,0.9698931374285877,8.171599028766566e-06,0.870281201049592,0.9272970782521627,0.005575916533482994,-0.00873902880410733,-0.025616892599069137,0.11161344905876654,-0.010326264135680469,-0.1484831144925355,CTC,1
9.9008,0.15,0.2,0.3,0.15285354729445,0.19895977572888102,0.301398707035671,0.0,0.0,0.0,0.9263863563537598,0.10165690630674362,0.9779070019721985,-0.05579855293035507,0.8771653771400452,1.0622817277908325,0.00037664707633666694,-0.0011641818564385176,-0.0051360963843762875,-1.3957089149918772e-15,-6.978544574959386e-16,1.3639882722710325e-15,0.9272849793839476,0.09960459160429641,0.9698931374285877,8.171599028766566e-06,0.870281201049592,0.9272970782521627,0.005391738181127046,-0.008674931552364257,-0.02712325146145802,0.11161344905876656,-0.010326264135680469,-0.1484831144925355,CTC,1
10.0008,0.15,0.2,0.3,0.15283844459727436,0.19895010577053931,0.3013910391788656,0.0,0.0,0.0,0.9264112710952759,0.10161280632019043,0.9778590798377991,-0.05579855293035507,0.8771653771400452,1.0622817277908325,0.0002739251358434558,-0.000308165792375803,-0.000308165792375803,-1.3957089149918772e-15,-6.978544574959386e-16,1.3639882722710325e-15,0.9272849793839476,0.09960459160429641,0.9698931374285877,8.171599028766566e-06,0.870281201049592,0.9272970782521627,0.005242249732030362,-0.008156125180526403,-0.0240827267030595,0.11161344905876658,-0.010326264135680469,-0.1484831144925355,CTC,1
10.1008,0.15,0.2,0.3,0.15279796696763884,0.19890982100709598,0.3013211969821802,0.0,0.0,0.0,0.9264457821846008,0.1015380248427391,0.9774582982063293,-0.05579855293035507,0.8771653771400452,1.0622817277908325,0.00034240641980431974,-0.0008560160640627146,-0.004793690051883459,-1.3957089149918772e-15,-6.978544574959386e-16,1.3639882722710325e-15,0.9272849793839476,0.09960459160429641,0.9698931374285877,8.171599028766566e-06,0.870281201049592,0.9272970782521627,0.005035183196080659,-0.008076139379395858,-0.025571696364354905,0.11161344905876656,-0.010326264135680469,-0.1484831144925355,CTC,1
10.2007,0.15,0.2,0.3,0.15278378052016411,0.19890216239752667,0.3013170468756524,0.0,0.0,0.0,0.9264687895774841,0.10148049890995026,0.9774007797241211,-0.05579855293035507,0.8771653771400452,1.0624734163284302,0.00017120320990215987,-0.000616331584751606,-0.0005136096151545644,-1.3957089149918772e-15,-6.978544574959386e-16,0.0034240642562508583,0.9272849793839476,0.09960459160429641,0.9698931374285877,8.171599028766566e-06,0.870281201049592,0.9272970782521627,0.004897138838780852,-0.007750161856516021,-0.022831092655692813,0.11161344905876656,-0.010326264135680469,-0.14533838891276843,CTC,1
10.3007,0.15,0.2,0.3,0.15274136127004767,0.19886249342630472,0.30125339916247384,0.0,0.0,0.0,0.9265090823173523,0.10139612853527069,0.9769885540008545,-0.05579855293035507,0.8771653771400452,1.0624734163284302,0.0004108877037651837,-0.0007875347509980202,-0.004622486885637045,-1.3957089149918772e-15,-6.978544574959386e-16,1.3639882722710325e-15,0.9272849793839476,0.09960459160429641,0.9698931374285877,8.171599028766566e-06,0.870281201049592,0.9272970782521627,0.00465538239957186,-0.007481161624296318,-0.024059741848182496,0.11161344905876656,-0.010326264135680469,-0.14869397188389294,CTC,1
10.4007,0.15,0.2,0.3,0.1527267787171843,0.19885188901877654,0.30123777856613926,0.0,0.0,0.0,0.926530122756958,0.10136544704437256,0.9769309759140015,-0.05579855293035507,0.8771653771400452,1.0624734163284302,0.00017120320990215987,-0.00020544385188259184,-0.00023968449386302382,-1.3957089149918772e-15,-6.978544574959386e-16,1.3639882722710325e-15,0.9272849793839476,0.09960459160429641,0.9698931374285877,8.171599028766566e-06,0.870281201049592,0.9272970782521627,0.00452913976193759,-0.00712559930105763,-0.021257326152559,0.11161344905876656,-0.010326264135680469,-0.14869397188389294,CTC,1
10.5007,0.15,0.2,0.3,0.1526997526839703,0.19882551318548541,0.30119604973098857,0.0,0.0,0.0,0.9265550971031189,0.10130025446414948,0.9766356945037842,-0.05579855293035507,0.8771653771400452,1.0624734163284302,0.00023968449386302382,-0.0007875347509980202,-0.003937673754990101,-1.3957089149918772e-15,-6.978544574959386e-16,1.3639882722710325e-15,0.9272849793839476,0.09960459160429641,0.9698931374285877,8.171599028766566e-06,0.870281201049592,0.9272970782521627,0.004379293684972249,-0.007097665339811464,-0.022590275478583388,0.11161344905876654,-0.010326264135680469,-0.14869397188389294,CTC,1
10.6009,0.15,0.2,0.3,0.15268258671889312,0.19881146607096623,0.3011780555280585,0.0,0.0,0.0,0.9265742301940918,0.1012599915266037,0.9765532612800598,-0.05579855293035507,0.8771653771400452,1.0624734163284302,0.00020544385188259184,-0.00034240641980431974,-0.0004451283602975309,-1.3957089149918772e-15,-6.978544574959386e-16,1.3639882722710325e-15,0.9272849793839476,0.09960459160429641,0.9698931374285877,8.171599028766566e-06,0.870281201049592,0.9272970782521627,0.004264495139134845,-0.006758562257150876,-0.02024744857059474,0.11161344905876656,-0.010326264135680469,-0.14869397188389294,CTC,1
10.7008,0.15,0.2,0.3,0.15265282298522884,0.19878223610197554,0.3011339148929872,0.0,0.0,0.0,0.9266030192375183,0.1011890396475792,0.9762483835220337,-0.05579855293035507,0.8771653771400452,1.0624734163284302,0.00037664707633666694,-0.0008217754075303674,-0.0039034332148730755,-1.3957089149918772e-15,-6.978544574959386e-16,1.3639882722710325e-15,0.9272849793839476,0.09960459160429641,0.9698931374285877,8.171599028766566e-06,0.870281201049592,0.9272970782521627,0.00409176087857578,-0.006666502336143276,-0.0214077982092617,0.11161344905876656,-0.010326264135680469,-0.14869397188389294,CTC,1
10.8009,0.15,0.2,0.3,0.15263581109075136,0.19877319084029046,0.30112254158763363,0.0,0.0,0.0,0.9266356229782104,0.10114110261201859,0.9761889576911926,-0.05579855293035507,0.8771653771400452,1.0624734163284302,0.00034240641980431974,-0.0004451283602975309,-0.00034240641980431974,-1.3957089149918772e-15,-6.978544574959386e-16,1.3639882722710325e-15,0.9272849793839476,0.09960459160429641,0.9698931374285877,8.171599028766566e-06,0.870281201049592,0.9272970782521627,0.0038961384344229468,-0.006324095375007703,-0.019092904639697254,0.11161344905876656,-0.010326264135680469,-0.14869397188389294,CTC,1
10.9007,0.15,0.2,0.3,0.15260735071863857,0.19874651079671768,0.3010823459764591,0.0,0.0,0.0,0.9266586303710938,0.10107015818357468,0.9759013056755066,-0.05579855293035507,0.8771653771400452,1.0624734163284302,0.00020544385188259184,-0.0008217754075303674,-0.0035952674224972725,-1.3957089149918772e-15,-6.978544574959386e-16,1.3639882722710325e-15,0.9272849793839476,0.09960459160429641,0.9698931374285877,8.171599028766566e-06,0.870281201049592,0.9272970782521627,0.003758094077123128,-0.006190976480125205,-0.020181665194254923,0.11161344905876656,-0.010326264135680469,-0.14869397188389294,CTC,1
11.0008,0.15,0.2,0.3,0.1525922843388769,0.19873363518483844,0.30106928476249767,0.0,0.0,0.0,0.926673948764801,0.10102414339780807,0.9758265614509583,-0.05579855293035507,0.8771653771400452,1.0624734163284302,0.0001369625679217279,-0.0004108877037651837,-0.0004451283602975309,-1.3957089149918772e-15,-6.978544574959386e-16,1.3639882722710325e-15,0.9272849793839476,0.09960459160429641,0.9698931374285877,8.171599028766566e-06,0.870281201049592,0.9272970782521627,0.0036661837148794785,-0.005842562255552731,-0.018067349083290066,0.11161344905876656,-0.010326264135680469,-0.14869397188389294,CTC,1
11.1007,0.15,0.2,0.3,0.1525688348434575,0.1987120065748872,0.3010372920503932,0.0,0.0,0.0,0.9266988635063171,0.10096853226423264,0.9755887985229492,-0.05579855293035507,0.8771653771400452,1.0624734163284302,0.00020544385188259184,-0.000616331584751606,-0.003047417150810361,-1.3957089149918772e-15,-6.978544574959386e-16,1.3639882722710325e-15,0.9272849793839476,0.09960459160429641,0.9698931374285877,8.171599028766566e-06,0.870281201049592,0.9272970782521627,0.003516695265782796,-0.005702295273645536,-0.018915433573570662,0.11161344905876656,-0.010326264135680469,-0.14869397188389294,CTC,1
11.2007,0.15,0.2,0.3,0.15255573453435436,0.19869935944371356,0.3010198805639083,0.0,0.0,0.0,0.926708459854126,0.1009359359741211,0.9755120873451233,-0.05579855293035507,0.8771653771400452,1.0624734163284302,0.00010272192594129592,-0.00023968449386302382,-0.00047936898772604764,-1.3957089149918772e-15,-6.978544574959386e-16,1.3639882722710325e-15,0.9272849793839476,0.09960459160429641,0.9698931374285877,8.171599028766566e-06,0.870281201049592,0.9272970782521627,0.003459117178929764,-0.005421251276843949,-0.01714447114224228,0.11161344905876656,-0.010326264135680469,-0.14869397188389294,CTC,1
11.3007,0.15,0.2,0.3,0.15253376724372172,0.19867890554857665,0.30098956591533044,0.0,0.0,0.0,0.9267333745956421,0.10088033229112625,0.9753088355064392,-0.05579855293035507,0.8771653771400452,1.0624734163284302,0.00023968449386302382,-0.0006848128396086395,-0.002773492131382227,-1.3957089149918772e-15,-6.978544574959386e-16,1.3639882722710325e-15,0.9272849793839476,0.09960459160429641,0.9698931374285877,8.171599028766566e-06,0.870281201049592,0.9272970782521627,0.00330962872983309,-0.005376887883162808,-0.01791118951238374,0.11161344905876656,-0.010326264135680469,-0.14869397188389294,CTC,1
11.4013,0.15,0.2,0.3,0.1525197088162597,0.19866657162663526,0.30097359862556256,0.0,0.0,0.0,0.9267468452453613,0.1008438989520073,0.9752187132835388,-0.05579855293035507,0.8771653771400452,1.0624734163284302,0.00017120320990215987,-0.00034240641980431974,-0.00047936898772604764,-1.3957089149918772e-15,-6.978544574959386e-16,1.3639882722710325e-15,0.9272849793839476,0.09960459160429641,0.9698931374285877,8.171599028766566e-06,0.870281201049592,0.9272970782521627,0.0032288048315176616,-0.005094191958765257,-0.016264348957488874,0.11161344905876656,-0.010326264135680469,-0.14869397188389294,CTC,1
11.5008,0.15,0.2,0.3,0.15249945819373606,0.19864601418734446,0.30094881490772674,0.0,0.0,0.0,0.9267640709877014,0.10077103227376938,0.9750115871429443,-0.05579855293035507,0.8771653771400452,1.0624734163284302,0.00020544385188259184,-0.0008902567205950618,-0.0028077326714992523,-1.3957089149918772e-15,-6.978544574959386e-16,1.3639882722710325e-15,0.9272849793839476,0.09960459160429641,0.9698931374285877,8.171599028766566e-06,0.870281201049592,0.9272970782521627,0.0031254503774771386,-0.005021865366129895,-0.017039988745969348,0.11161344905876654,-0.010326264135680469,-0.14869397188389294,CTC,1
11.6008,0.15,0.2,0.3,0.1524811321488494,0.1986296096422978,0.3009306365082103,0.0,0.0,0.0,0.9267813563346863,0.10071734338998795,0.9748850464820862,-0.05579855293035507,0.8771653771400452,1.0624734163284302,0.00017120320990215987,-0.0004108877037651837,-0.0009587379754520953,-1.3957089149918772e-15,-6.978544574959386e-16,1.3639882722710325e-15,0.9272849793839476,0.09960459160429641,0.9698931374285877,8.171599028766566e-06,0.870281201049592,0.9272970782521627,0.0030217382955679546,-0.004615362224272211,-0.015550969945766586,0.11161344905876656,-0.010326264135680469,-0.14869397188389294,CTC,1
11.7008,0.15,0.2,0.3,0.15246228590293465,0.19861009958383175,0.3009033329280282,0.0,0.0,0.0,0.9267947673797607,0.10066365450620651,0.9746875762939453,-0.05579855293035507,0.8771653771400452,1.0624734163284302,0.00017120320990215987,-0.000616331584751606,-0.0023626042529940605,-1.3957089149918772e-15,-6.978544574959386e-16,1.3639882722710325e-15,0.9272849793839476,0.09960459160429641,0.9698931374285877,8.171599028766566e-06,0.870281201049592,0.9272970782521627,0.002941272025121185,-0.004482784241541051,-0.015800879147869165,0.11161344905876656,-0.010326264135680469,-0.14869397188389294,CTC,1
11.8007,0.15,0.2,0.3,0.15244749235063298,0.19859598668542788,0.30088897072416515,0.0,0.0,0.0,0.926810085773468,0.10061763226985931,0.9746031761169434,-0.05579855293035507,0.8771653771400452,1.0624734163284302,0.00017120320990215987,-0.00034240641980431974,-0.0004451283602975309,-1.3957089149918772e-15,-6.978544574959386e-16,1.3639882722710325e-15,0.9272849793839476,0.09960459160429641,0.9698931374285877,8.171599028766566e-06,0.870281201049592,0.9272970782521627,0.0028493616628775258,-0.0041891252301733415,-0.014397193081245391,0.11161344905876656,-0.010326264135680469,-0.14869397188389294,CTC,1
11.9007,0.15,0.2,0.3,0.1524301393307404,0.19857766818984593,0.30086337107250966,0.0,0.0,0.0,0.926817774772644,0.1005677804350853,0.9744153022766113,-0.05579855293035507,0.8771653771400452,1.0624734163284302,6.848128396086395e-05,-0.0005820909282192588,-0.002157160546630621,-1.3957089149918772e-15,-6.978544574959386e-16,1.3639882722710325e-15,0.9272849793839476,0.09960459160429641,0.9698931374285877,8.171599028766566e-06,0.870281201049592,0.9272970782521627,0.002803227667821367,-0.004085591694443249,-0.014860790872049147,0.11161344905876654,-0.010326264135680469,-0.14869397188389294,CTC,1
12.0007,0.15,0.2,0.3,0.15241747821117443,0.1985648036003423,0.300845486379985,0.0,0.0,0.0,0.9268292784690857,0.10053902119398117,0.9743251800537109,-0.05579855293035507,0.8771653771400452,1.0624734163284302,0.00010272192594129592,-0.00023968449386302382,-0.0005820909282192588,-1.3957089149918772e-15,-6.978544574959386e-16,1.3639882722710325e-15,0.9272849793839476,0.09960459160429641,0.9698931374285877,8.171599028766566e-06,0.870281201049592,0.9272970782521627,0.0027342054891714633,-0.003833592156284255,-0.013645382432301165,0.11161344905876654,-0.010326264135680469,-0.14869397188389294,CTC,1
12.1007,0.15,0.2,0.3,0.1524020827444737,0.19854668079227633,0.3008220863929718,0.0,0.0,0.0,0.9268369674682617,0.10049299895763397,0.9741506576538086,-0.05579855293035507,0.8771653771400452,1.0624734163284302,0.0001369625679217279,-0.0005478502716869116,-0.0024995668791234493,-1.3957089149918772e-15,-6.978544574959386e-16,1.3639882722710325e-15,0.9272849793839476,0.09960459160429641,0.9698931374285877,8.171599028766566e-06,0.870281201049592,0.9272970782521627,0.0026880714941153235,-0.0037727695220250096,-0.014272300803136637,0.11161344905876656,-0.010326264135680469,-0.14869397188389294,CTC,1
12.2013,0.15,0.2,0.3,0.15238889722371446,0.19853311651014227,0.30080476472124745,0.0,0.0,0.0,0.926844596862793,0.10046040266752243,0.9740586280822754,-0.05579855293035507,0.8771653771400452,1.0624734163284302,0.00010272192594129592,-0.0002739251358434558,-0.00047936898772604764,-1.3957089149918772e-15,-6.978544574959386e-16,1.3639882722710325e-15,0.9272849793839476,0.09960459160429641,0.9698931374285877,8.171599028766566e-06,0.870281201049592,0.9272970782521627,0.0026422951269278127,-0.003532814307241455,-0.012784093353698591,0.11161344905876656,-0.010326264135680469,-0.14869397188389294,CTC,1
12.3008,0.15,0.2,0.3,0.15238199200850655,0.19851418257091946,0.30078183076246534,0.0,0.0,0.0,0.9268580079078674,0.10043163597583771,0.9739071726799011,-0.055990297347307205,0.8771653771400452,1.0624734163284302,0.0001369625679217279,-0.00034240641980431974,-0.0019859573803842068,-1.3957089149918772e-15,-6.978544574959386e-16,1.3639882722710325e-15,0.9272849793839476,0.09960459160429641,0.9698931374285877,8.171599028766566e-06,0.870281201049592,0.9272970782521627,0.0025618288564810427,-0.003445140054086908,-0.013233680182170679,0.11199693789267083,-0.010326264135680469,-0.14869397188389294,CTC,1
12.4008,0.15,0.2,0.3,0.1523699956632864,0.19850381605523482,0.3007665167089985,0.0,0.0,0.0,0.9268714785575867,0.100406713783741,0.9738380908966064,-0.055990297347307205,0.8771653771400452,1.0624734163284302,0.00010272192594129592,-0.00020544385188259184,-0.00037664707633666694,-1.3957089149918772e-15,-6.978544574959386e-16,1.3639882722710325e-15,0.9272849793839476,0.09960459160429641,0.9698931374285877,8.171599028766566e-06,0.870281201049592,0.9272970782521627,0.0024810049581656082,-0.003290666258531375,-0.01206084864985813,0.11199693789267083,-0.010326264135680469,-0.14869397188389294,CTC,1
12.5008,0.15,0.2,0.3,0.15235621791050968,0.1984886409572778,0.30074325874301383,0.0,0.0,0.0,0.9268791079521179,0.10037603229284286,0.9736828207969666,-0.055990297347307205,0.8771653771400452,1.0624734163284302,6.848128396086395e-05,-0.00034240641980431974,-0.002020197920501232,-1.3957089149918772e-15,-6.978544574959386e-16,1.3639882722710325e-15,0.9272849793839476,0.09960459160429641,0.9698931374285877,8.171599028766566e-06,0.870281201049592,0.9272970782521627,0.002435228590978113,-0.003222725322107539,-0.012581168857437194,0.11199693789267083,-0.010326264135680469,-0.14869397188389294,CTC,1
12.6008,0.15,0.2,0.3,0.15234473040666083,0.19847733630724437,0.3007265872379572,0.0,0.0,0.0,0.926886796951294,0.10035110265016556,0.9736003279685974,-0.055990297347307205,0.8771653771400452,1.0624734163284302,3.4240641980431974e-05,-0.00023968449386302382,-0.00047936898772604764,-1.3957089149918772e-15,-6.978544574959386e-16,1.3639882722710325e-15,0.9272849793839476,0.09960459160429641,0.9698931374285877,8.171599028766566e-06,0.870281201049592,0.9272970782521627,0.0023890945959219524,-0.003081917981021794,-0.011409193012664647,0.11199693789267083,-0.010326264135680469,-0.14869397188389294,CTC,1
12.7007,0.15,0.2,0.2,0.15233243024326357,0.19846335870675208,0.300708311148719,0.0,0.0,0.0,0.92689448595047,0.1003146767616272,0.9734641909599304,-0.055990297347307205,0.8771653771400452,1.0624734163284302,0.00010272192594129592,-0.00037664707633666694,-0.0017462727846577764,-1.3957089149918772e-15,-6.978544574959386e-16,1.3639882722710325e-15,0.9268877195200808,0.10097992262172852,0.9732489494455651,-0.05586116254919853,0.8761761309359755,1.0621616950012749,6.3469372354814e-06,0.028573707143904475,-0.014599373991086956,0.0043919401778715955,-0.030816122358607773,-0.00899739975688678,CTC,1
12.8007,0.15,0.2,0.2,0.15232304685951165,0.19845565126838732,0.30069637418281725,0.0,0.0,0.0,0.9269059896469116,0.10029549896717072,0.9734143614768982,-0.055990297347307205,0.8771653771400452,1.0624734163284302,6.848128396086395e-05,-0.0001369625679217279,-0.000308165792375803,-1.3957089149918772e-15,-6.978544574959386e-16,1.3639882722710325e-15,0.9268911278231089,0.10330301120194497,0.9719508299978622,-0.055384091863849315,0.8725214973943836,1.0610100835893086,-1.9703228191552877e-05,0.046764260223924846,-0.020506051514959496,0.005777373667436662,-0.03699626468755723,-0.009827300949890514,CTC,1
12.9007,0.15,0.2,0.2,0.1523201797292039,0.19845421587260687,0.30069432820414443,0.0,0.0,0.0,0.9269098043441772,0.10028783231973648,0.9733970761299133,-0.055990297347307205,0.8771653771400452,1.0624734163284302,3.4240641980431974e-05,-0.00010272192594129592,-0.00017120320990215987,-1.3957089149918772e-15,-6.978544574959386e-16,1.3639882722710325e-15,0.9268968729073641,0.10721884248682899,0.969762701319464,-0.05457993470398008,0.8663611949079332,1.0590689109481057,1.2605447075425365e-05,0.07046352795758429,-0.029687809976238818,0.007766866385779716,-0.04674372751591211,-0.01151405743032993,CTC,1
13.0011,0.15,0.2,0.2,0.15231820972450133,0.19845318086484792,0.30069499768664615,0.0,0.0,0.0,0.9269136190414429,0.10027632117271423,0.9733913540840149,-0.055990297347307205,0.8771653771400452,1.0624734163284302,3.4240641980431974e-05,-0.00010272192594129592,2.2838873346920025e-15,-1.3957089149918772e-15,-6.978544574959386e-16,1.3639882722710325e-15,0.9269048164711629,0.11263315048561155,0.9667372383350012,-0.05346804958273762,0.8578435207282356,1.056384907017994,5.640398921422565e-05,0.0994607023793784,-0.041134861702505125,0.010323358053459556,-0.05983763240247902,-0.014003955904299727,CTC,1
13.1008,0.15,0.2,0.2,0.15231653460871894,0.19845335840009964,0.3006955450121238,0.0,0.0,0.0,0.9269213080406189,0.10027056932449341,0.9733855724334717,-0.055990297347307205,0.8771653771400452,1.0624734163284302,0.00010272192594129592,-3.4240641980431974e-05,-6.848128396086395e-05,-1.3957089149918772e-15,-6.978544574959386e-16,1.3639882722710325e-15,0.9269146861259066,0.11936027598967316,0.9629781856159928,-0.05208656357226709,0.8472605499732628,1.053050107576345,8.661137799224741e-05,0.13293898177970515,-0.05463930847648817,0.013367152755042308,-0.07583712941243638,-0.017200850983328506,CTC,1
13.2008,0.15,0.2,0.2,0.1523150263456753,0.19845293854607088,0.3006961479987208,0.0,0.0,0.0,0.9269232153892517,0.10026481747627258,0.973381757736206,-0.055990297347307205,0.8771653771400452,1.0624734163284302,3.4240641980431974e-05,-6.848128396086395e-05,-3.4240641980431974e-05,-1.3957089149918772e-15,-6.978544574959386e-16,1.3639882722710325e-15,0.9269263925104333,0.12733931071333718,0.9585195781238414,-0.05044798482995804,0.8347081022625036,1.0490947063391738,0.00016080802488166367,0.17067841338391737,-0.06992317759519802,0.016876308992016746,-0.09460074639313344,-0.021066872009129305,CTC,1
13.3007,0.15,0.2,0.2,0.15231458208324203,0.19845314147148996,0.30069662699014643,0.0,0.0,0.0,0.9269251227378845,0.10026290267705917,0.9733798503875732,-0.055990297347307205,0.8771653771400452,1.0622817277908325,-4.758098525709073e-16,5.374668842850292e-15,-3.4240641980431974e-05,-1.3957089149918772e-15,-6.978544574959386e-16,-0.0034240642562508583,0.9269397086911866,0.1364155774611065,0.9534478479805508,-0.04858407794554334,0.8204295124698827,1.0445953805477277,0.0002428658913151632,0.2120980758749869,-0.08679940367281475,0.020786082169353733,-0.1157632645800447,-0.028664623958718438,CTC,1
13.4009,0.15,0.2,0.2,0.1523142877613479,0.19845274933004733,0.30069714793061997,0.0,0.0,0.0,0.9269251227378845,0.10025906562805176,0.9733798503875732,-0.055990297347307205,0.8771653771400452,1.0622817277908325,-4.758098525709073e-16,-3.4240641980431974e-05,2.2838873346920025e-15,-1.3957089149918772e-15,-6.978544574959386e-16,1.3639882722710325e-15,0.9269545076691404,0.14650251409802428,0.9478113652705762,-0.046512619364312606,0.804560958304911,1.0395950411539654,0.00034351492955939333,0.25681036773374094,-0.10508758360898728,0.025061526682609747,-0.13911923693005768,-0.030300028336049587,CTC,1
13.5007,0.15,0.2,0.2,0.15232145511320386,0.19844779139222746,0.30069754381619884,0.0,0.0,0.0,0.9269270896911621,0.10025906562805176,0.9733798503875732,-0.05618204548954964,0.8771653771400452,1.0622817277908325,3.4240641980431974e-05,5.374668842850292e-15,2.2838873346920025e-15,-0.0034240642562508583,-6.978544574959386e-16,1.3639882722710325e-15,0.926970529654825,0.15742304894174108,0.9417090759387486,-0.0442699726195266,0.7873810051718921,1.0341814668899878,0.0004378885917048971,0.30412973060891485,-0.12451901320496994,0.027273508803372273,-0.16425351033173854,-0.0357352068694429,CTC,1
13.6007,0.15,0.2,0.2,0.15232138936855663,0.19844770379788343,0.3006980228071115,0.0,0.0,0.0,0.9269270896911621,0.10025715082883835,0.9733798503875732,-0.05618204548954964,0.8771653771400452,1.0622817277908325,-4.758098525709073e-16,-3.4240641980431974e-05,2.2838873346920025e-15,-1.3957089149918772e-15,-6.978544574959386e-16,1.3639882722710325e-15,0.9269876826361254,0.16911446682554293,0.9351760246141324,-0.041869016930609335,0.7689883152371293,1.0283857471866098,0.0005490955258530396,0.3537943112228086,-0.1449745275069587,0.03484755072299095,-0.19101488653984672,-0.0415775581171006,CTC,1
13.7007,0.15,0.2,0.2,0.15232022372656448,0.1984469455705618,0.30069721331058674,0.0,0.0,0.0,0.9269289970397949,0.10025139898061752,0.9733721613883972,-0.05618204548954964,0.8771653771400452,1.0622817277908325,-4.758098525709073e-16,-6.848128396086395e-05,-6.848128396086395e-05,-1.3957089149918772e-15,-6.978544574959386e-16,1.3639882722710325e-15,0.9270057455740814,0.18142610829209685,0.9282963983454736,-0.0393406918024838,0.7496199027543262,1.0222825675947236,0.0006525364434410344,0.4052267217285134,-0.16621653457676752,0.03988729081875026,-0.2190495593686932,-0.0477463347205424,CTC,1
13.801,0.15,0.2,0.2,0.15231894407041424,0.19844683026984145,0.30069777432546335,0.0,0.0,0.0,0.9269328117370605,0.10024756193161011,0.9733683466911316,-0.05618204548954964,0.8771653771400452,1.0622817277908325,6.848128396086395e-05,-3.4240641980431974e-05,2.2838873346920025e-15,-1.3957089149918772e-15,-6.978544574959386e-16,1.3639882722710325e-15,0.9270246167676031,0.19428865419950822,0.9211089319993451,-0.0366992326503697,0.7293848191230723,1.0159062912959802,0.0007476189763420888,0.4581594098198438,-0.18804133154134467,0.04510320566495476,-0.24818894084407495,-0.05420148208849788,CTC,1
13.9008,0.15,0.2,0.2,0.15231848209347804,0.19844621473977575,0.30069784263340593,0.0,0.0,0.0,0.9269328117370605,0.10024372488260269,0.9733625650405884,-0.05618204548954964,0.8771653771400452,1.0622817277908325,-4.758098525709073e-16,-3.4240641980431974e-05,-6.848128396086395e-05,-1.3957089149918772e-15,-6.978544574959386e-16,1.3639882722710325e-15,0.9270439371622298,0.2074573741616419,0.913750378550382,-0.033994897434309335,0.7086680689813449,1.0093782370846471,0.0008664822983753816,0.5115687802712737,-0.21018345022024124,0.050395588579465016,-0.2778676952869481,-0.06081489032098043,CTC,1
14.0008,0.15,0.2,0.2,0.15231764694745045,0.1984458968427537,0.3006979227904754,0.0,0.0,0.0,0.9269366264343262,0.10023797303438187,0.9733606576919556,-0.05618204548954964,0.8771653771400452,1.0622817277908325,6.848128396086395e-05,-6.848128396086395e-05,-3.4240641980431974e-05,-1.3957089149918772e-15,-6.978544574959386e-16,1.3639882722710325e-15,0.9270636830056261,0.22091607866147456,0.9062297845442375,-0.03123101084198254,0.6874951213329693,1.0027064304973816,0.0009632413967342432,0.5654076563354249,-0.23249133090321947,0.05575712474853157,-0.3080373448260337,-0.06757318878199005,CTC,1
14.1007,0.15,0.2,0.2,0.1523170398665469,0.1984458828133321,0.3006979647316613,0.0,0.0,0.0,0.9269366264343262,0.10023797303438187,0.9733587503433228,-0.05637379363179207,0.8771653771400452,1.0622817277908325,-4.758098525709073e-16,5.374668842850292e-15,2.2838873346920025e-15,-0.0034240642562508583,-6.978544574959386e-16,1.3639882722710325e-15,0.927083637655375,0.23451710491183542,0.8986296625193317,-0.028437896980561136,0.6660982761338899,0.9959640715629197,0.0010823642063744236,0.6191069889423396,-0.2547669705481343,0.05877157796700844,-0.33835202958406085,-0.07439700376418955,CTC,1
14.2008,0.15,0.2,0.2,0.1523239795746261,0.19844062172231663,0.3006984020458964,0.0,0.0,0.0,0.9269385933876038,0.10023413598537445,0.9733568429946899,-0.05637379363179207,0.8771653771400452,1.0622817277908325,-4.758098525709073e-16,-3.4240641980431974e-05,2.2838873346920025e-15,-1.3957089149918772e-15,-6.978544574959386e-16,1.3639882722710325e-15,0.9271036331050639,0.2481459402724321,0.8910140010323804,-0.025639072225723036,0.6446576822340959,0.9892079269773306,0.0011881504671822274,0.6721637221385214,-0.2768383974275707,0.06684251557632041,-0.3685404447393647,-0.08122359043242484,CTC,1
14.3007,0.15,0.2,0.2,0.15232320485016154,0.19844038431848754,0.30069799136352304,0.0,0.0,0.0,0.9269405007362366,0.10023413598537445,0.9733529686927795,-0.05637379363179207,0.8771653771400452,1.0622817277908325,-4.758098525709073e-16,5.374668842850292e-15,-3.4240641980431974e-05,-1.3957089149918772e-15,-6.978544574959386e-16,1.3639882722710325e-15,0.9271234516515273,0.26165419895315056,0.8834657166288612,-0.02286500916090249,0.6234067770023832,0.9825115551794636,0.001291460120040998,0.7240258561053957,-0.29845281401609824,0.07207532460905201,-0.3982566069755143,-0.0879732616494153,CTC,1
14.4007,0.15,0.2,0.2,0.15232240054814475,0.19844010750766572,0.30069947024422106,0.0,0.0,0.0,0.9269443154335022,0.10022646933794022,0.9733510613441467,-0.05637379363179207,0.8771653771400452,1.0620899200439453,3.4240641980431974e-05,-3.4240641980431974e-05,-3.4240641980431974e-05,-1.3957089149918772e-15,-6.978544574959386e-16,-0.0034240642562508583,0.9271429609128157,0.2749516498354043,0.8760352295858237,-0.020134237695785456,0.6024875101152691,0.9759196859255421,0.0013796889718948474,0.7743192452724588,-0.3194274998695754,0.07717151380795507,-0.42728280356788695,-0.09774001193374299,CTC,1
14.5007,0.15,0.2,0.2,0.15232163116369202,0.19843987721047696,0.3006990714092345,0.0,0.0,0.0,0.9269443154335022,0.1002226322889328,0.9733472466468811,-0.05637379363179207,0.8771653771400452,1.0618982315063477,-4.758098525709073e-16,-6.848128396086395e-05,-3.4240641980431974e-05,-1.3957089149918772e-15,-6.978544574959386e-16,1.3639882722710325e-15,0.9271619639751053,0.2879040770786732,0.8687975384178541,-0.017474320465549482,0.5821110270782475,0.9694988532663665,0.0014859913223856142,0.8224903346768114,-0.3395473063126807,0.08207624771692207,-0.4553043438345947,-0.10059561493384413,CTC,1
14.6009,0.15,0.2,0.2,0.15232127110012011,0.19843939745982705,0.3007000713006993,0.0,0.0,0.0,0.9269443154335022,0.10021880269050598,0.9733453392982483,-0.05637379363179207,0.8771653771400452,1.0618982315063477,-4.758098525709073e-16,-3.4240641980431974e-05,2.2838873346920025e-15,-1.3957089149918772e-15,-6.978544574959386e-16,1.3639882722710325e-15,0.9271803314929292,0.30042331922125864,0.861801906897735,-0.014903362354060014,0.5624160216276415,0.9632927609789912,0.001586675277272919,0.8682165501050041,-0.3586500358665296,0.08675200614718977,-0.48210559819367577,-0.10676769782054607,CTC,1
14.7009,0.15,0.2,0.2,0.15232097678075085,0.19843900530607175,0.3007005922108544,0.0,0.0,0.0,0.926946222782135,0.10021496564149857,0.9733434319496155,-0.05637379363179207,0.8771653771400452,1.0618982315063477,3.4240641980431974e-05,-3.4240641980431974e-05,-3.4240641980431974e-05,-1.3957089149918772e-15,-6.978544574959386e-16,1.3639882722710325e-15,0.9271977793508851,0.3123157241020954,0.8551565459815653,-0.012461131870355212,0.5437071432241984,0.9573974071413777,0.0016686488916234294,0.9107083226129682,-0.3764779931379387,0.09112200314361035,-0.507245683096501,-0.11258803624354181,CTC,1
14.8009,0.15,0.2,0.2,0.15232036489080486,0.19843898485167882,0.30070061856290153,0.0,0.0,0.0,0.926946222782135,0.10021305084228516,0.9733414649963379,-0.05637379363179207,0.8771653771400452,1.0618982315063477,-4.758098525709073e-16,5.374668842850292e-15,2.2838873346920025e-15,-1.3957089149918772e-15,-6.978544574959386e-16,1.3639882722710325e-15,0.927214197439257,0.3235062412866526,0.8489033931268545,-0.010163041410906827,0.5261024596151762,0.9518499960760878,0.0017541054799699,0.9496693510048119,-0.39281630347986346,0.09515372412678384,-0.5305375195160046,-0.11801330949411686,CTC,1
14.9008,0.15,0.2,0.2,0.15232029888847554,0.19843889691050942,0.30070109940269507,0.0,0.0,0.0,0.926946222782135,0.10021112859249115,0.9733414649963379,-0.05637379363179207,0.8771653771400452,1.0618982315063477,-4.758098525709073e-16,5.374668842850292e-15,2.2838873346920025e-15,-1.3957089149918772e-15,-6.978544574959386e-16,1.3639882722710325e-15,0.9272293857056173,0.3338585156720003,0.8431186422473492,-0.008037092930939363,0.5098164817481898,0.9467181223182383,0.0018304204680531168,0.9845433421586357,-0.40750769812857207,0.09879200398220075,-0.5516639117126312,-0.12297013623452661,CTC,1
15.0008,0.15,0.2,0.2,0.15232718508578208,0.19843353983647444,0.3007020189013261,0.0,0.0,0.0,0.9269481301307678,0.10020729154348373,0.9733395576477051,-0.0565655417740345,0.8771653771400452,1.0618982315063477,3.4240641980431974e-05,-3.4240641980431974e-05,2.2838873346920025e-15,-1.3957089149918772e-15,-6.978544574959386e-16,1.3639882722710325e-15,0.9272431981915255,0.34327306244598155,0.837857884494636,-0.0061037166834882195,0.49500571701365187,0.9420511029046276,0.001885242108201262,1.0149259148164511,-0.42034751776019774,0.10237816494030638,-0.5703830546508262,-0.1274028090523918,CTC,1
15.1007,0.15,0.2,0.2,0.15232695676921248,0.1984332356217485,0.3007020589663469,0.0,0.0,0.0,0.9269481301307678,0.10020537674427032,0.9733376502990723,-0.0565655417740345,0.8771653771400452,1.0618982315063477,-4.758098525709073e-16,-3.4240641980431974e-05,2.2838873346920025e-15,-1.3957089149918772e-15,-6.978544574959386e-16,1.3639882722710325e-15,0.9272554340580073,0.35161299039801625,0.8331976133542355,-0.0043910247191251625,0.48188551975232924,0.9379167981319507,0.0019402774503179884,1.0402920802207722,-0.4311162801159186,0.10508997057102112,-0.586377161228532,-0.1312377632609063,CTC,1
15.2007,0.15,0.2,0.2,0.15232689102121869,0.19843314801910658,0.3007025379411828,0.0,0.0,0.0,0.9269481301307678,0.10020346194505692,0.9733376502990723,-0.0565655417740345,0.8771653771400452,1.0618982315063477,-4.758098525709073e-16,-3.4240641980431974e-05,2.2838873346920025e-15,-1.3957089149918772e-15,-6.978544574959386e-16,1.3639882722710325e-15,0.9272659206017119,0.3587605854696855,0.8292036063043733,-0.002923190858428293,0.4706410752171125,0.9343735617169702,0.001983041786509986,1.0601630272496594,-0.43962157948119873,0.10726238490524508,-0.5993674517635702,-0.13441059806314254,CTC,1
15.3007,0.15,0.2,0.2,0.1523983285855262,0.1985378785073978,0.2989408196873331,0.0,0.0,0.0,0.926953911781311,0.1095128059387207,0.9694240689277649,-0.05541505664587021,0.8728510737419128,1.0618982315063477,0.00010272192594129592,0.16432084143161774,-0.06930305808782578,0.02054438553750515,-0.07704144716262817,1.3639882722710325e-15,0.9272744828592137,0.36459659314256027,0.8259425016174414,-0.0017247052716487105,0.46145999207981403,0.9314805110198765,0.0019777894138756566,1.1025561362846408,-0.475497837362026,0.12298074073928661,-0.6719372279615583,-0.13685607651135323,CTC,1
15.4012,0.15,0.2,0.2,0.15270857295045392,0.19888879350171168,0.29176805633172576,0.0,0.0,0.0,0.9269596338272095,0.12630797922611237,0.9622642397880554,-0.05733253061771393,0.8639028072357178,1.0617064237594604,6.848128396086395e-05,0.11148753017187119,-0.0464303120970726,0.010272192768752575,-0.049934271723032,1.3639882722710325e-15,0.9272809695246358,0.3690178838087959,0.8234719271216326,-0.0008167467089697927,0.4545045116458969,0.9292887698911836,0.001958531920367501,1.0216883233924952,-0.4436652391977741,0.11954618376573854,-0.6402699806248265,-0.13830306870851952,CTC,1
15.5008,0.15,0.2,0.2,0.1525523994408308,0.19898766786003214,0.29266494451961095,0.0,0.0,0.0,0.9269654154777527,0.12616033852100372,0.9620993137359619,-0.054072823375463486,0.8622250556945801,1.0617064237594604,0.00010272192594129592,0.07118629664182663,-0.024858705699443817,0.05820909142494202,-0.028533868491649628,1.3639882722710325e-15,0.927285121912232,0.37184813808078504,0.8218904083867461,-0.00023552421201076396,0.45005201582557763,0.9278857441322238,0.0019233542863107006,1.0066081667390634,-0.43069737214588755,0.1516292890121293,-0.6207387597937347,-0.139088285069154,CTC,1
15.6008,0.15,0.2,0.2,0.15283476244177197,0.19921805875813475,0.28499221019674886,0.0,0.0,0.0,0.9269769191741943,0.14628233015537262,0.9533939957618713,-0.05637379363179207,0.8511995673179626,1.0617064237594604,0.00010272192594129592,0.17021022737026215,-0.07430219650268555,0.0034240642562508583,-0.09558846056461334,1.3639882722710325e-15,0.9272868345590167,0.37301547272054175,0.8212381130714705,4.200239894856794e-06,0.4482155897998772,0.9273070680093348,0.0018373166620799593,0.9587530811428606,-0.4316400852189766,0.11191943821379849,-0.6626611171222796,-0.13895133303345922,CTC,1
15.7007,0.15,0.2,0.2,0.1527163097672886,0.19925508949773196,0.28618178135609246,0.0,0.0,0.0,0.9269903302192688,0.14366689324378967,0.9542050957679749,-0.054072823375463486,0.850879967212677,1.0617064237594604,0.00023968449386302382,0.02249610237777233,-0.006094834301620722,0.06505721807479858,-0.011413547210395336,1.3639882722710325e-15,0.9272868680755575,0.3730383174889095,0.8212253476356843,8.891653470151871e-06,0.4481796508961963,0.927295743303002,0.0017792271377321508,0.9264841379315881,-0.4025961449778441,0.16020920451770615,-0.6143226669640769,-0.14785174850210295,CTC,1
15.8007,0.15,0.2,0.2,0.1528680227073863,0.199363653313053,0.27892420740300106,0.0,0.0,0.0,0.9270114302635193,0.1640017181634903,0.9452734589576721,-0.055990297347307205,0.8391354084014893,1.0617064237594604,0.00023968449386302382,0.1843516230583191,-0.08323900401592255,-0.0034240642562508583,-0.09130837768316269,1.3639882722710325e-15,0.9272868680755575,0.3730383174889095,0.8212253476356843,8.891653470151871e-06,0.4481796508961963,0.927295743303002,0.0016526268722292289,0.9098870465250045,-0.4220877363755169,0.10925912659655407,-0.6686111761727859,-0.14785174850210295,CTC,1
15.9007,0.15,0.2,0.2,0.1528090080492031,0.19941758059179232,0.27935445072421117,0.0,0.0,0.0,0.9270440340042114,0.16267099976539612,0.9455745220184326,-0.05445631965994835,0.8392153382301331,1.0617064237594604,0.00034240641980431974,0.017496967688202858,-0.005581224802881479,0.05820909142494202,0.001426693401299417,1.3639882722710325e-15,0.9272868680755575,0.3730383174889095,0.8212253476356843,8.891653470151871e-06,0.4481796508961963,0.927295743303002,0.0014570044280763966,0.8484680579693347,-0.37639625802997373,0.15549769576679062,-0.5852695069397357,-0.14785174850210295,CTC,1
16.0007,0.15,0.2,0.2,0.15285386020720962,0.19938558354562563,0.27284381183190887,0.0,0.0,0.0,0.9270574450492859,0.18104232847690582,0.9372929334640503,-0.05637379363179207,0.8270713090896606,1.0617064237594604,0.0001369625679217279,0.172093465924263,-0.07851379364728928,-0.013696257025003433,-0.11270878463983536,1.3639882722710325e-15,0.9272868680755575,0.3730383174889095,0.8212253476356843,8.891653470151871e-06,0.4481796508961963,0.927295743303002,0.0013765381576296223,0.8368213424177199,-0.39531103367347153,0.10180836495052173,-0.6697753934660483,-0.14785174850210295,CTC,1
16.1007,0.15,0.2,0.2,0.15278413739233154,0.19944628797487443,0.27315155614921643,0.0,0.0,0.0,0.9270862340927124,0.18017946183681488,0.9375057816505432,-0.05426457151770592,0.8265120387077332,1.0617064237594604,0.0004108877037651837,0.02016773819923401,-0.006334519013762474,0.047936901450157166,-0.008560161106288433,1.3639882722710325e-15,0.9272868680755575,0.3730383174889095,0.8212253476356843,8.891653470151871e-06,0.4481796508961963,0.927295743303002,0.001203803897070534,0.779502517888072,-0.35264201345283414,0.14689644750247788,-0.5752027267129648,-0.14785174850210295,CTC,1
16.2012,0.15,0.2,0.2,0.15275253534436123,0.19934687630442655,0.2671169127739095,0.0,0.0,0.0,0.927097737789154,0.1969439536333084,0.9296882152557373,-0.055990297347307205,0.8145278096199036,1.0617064237594604,0.0001369625679217279,0.16004076600074768,-0.07676751911640167,-1.3808398868775384e-15,-0.1055753156542778,1.3639882722710325e-15,0.9272868680755575,0.3730383174889095,0.8212253476356843,8.891653470151871e-06,0.4481796508961963,0.927295743303002,0.001134781718420636,0.7683937618227034,-0.37144911433,0.1119983780015536,-0.6445400221744109,-0.14785174850210295,CTC,1
16.3007,0.15,0.2,0.2,0.15269925176476062,0.19938252169691473,0.26739988326410113,0.0,0.0,0.0,0.9271092414855957,0.1961117684841156,0.9298550486564636,-0.05464806407690048,0.8146077394485474,1.0617064237594604,0.0001369625679217279,0.01886659488081932,-0.0063687595538794994,0.05136096477508545,0.002853386802598834,1.3639882722710325e-15,0.9272868680755575,0.3730383174889095,0.8212253476356843,8.891653470151871e-06,0.4481796508961963,0.927295743303002,0.0010657595397707323,0.7152528339715033,-0.3297103587946656,0.15040268328080963,-0.5470740847061876,-0.14785174850210295,CTC,1
16.4008,0.15,0.2,0.2,0.1525338912801984,0.19914799890211732,0.26189950252407973,0.0,0.0,0.0,0.9271149635314941,0.21152253448963165,0.9226242303848267,-0.05637379363179207,0.8039017915725708,1.0617064237594604,0.00010272192594129592,0.14819350838661194,-0.07166566699743271,-0.02054438553750515,-0.1055753156542778,1.3639882722710325e-15,0.9272868680755575,0.3730383174889095,0.8212253476356843,8.891653470151871e-06,0.4481796508961963,0.927295743303002,0.0010314272643801021,0.7053405353517561,-0.34719604844588664,0.09632986214052033,-0.6286009951034117,-0.14785174850210295,CTC,1
16.5007,0.15,0.2,0.2,0.15252216951802558,0.19918137748223735,0.2621292939777127,0.0,0.0,0.0,0.9271264672279358,0.21069800853729248,0.9228236675262451,-0.05464806407690048,0.8034224510192871,1.0617064237594604,0.0001369625679217279,0.014209866523742676,-0.004554005339741707,0.037664707750082016,-0.008560161106288433,1.3639882722710325e-15,0.9272868680755575,0.3730383174889095,0.8212253476356843,8.891653470151871e-06,0.4481796508961963,0.927295743303002,0.0009624050857302074,0.6550451824159651,-0.30752736287552734,0.1394456776608069,-0.5405683451802957,-0.14785174850210295,CTC,1
16.6008,0.15,0.2,0.2,0.15236039263575418,0.19891210523865116,0.2570498014984715,0.0,0.0,0.0,0.9271264672279358,0.2247876226902008,0.9160703420639038,-0.05618204548954964,0.7929562330245972,1.0617064237594604,-4.758098525709073e-16,0.13415484130382538,-0.06598171591758728,-0.0034240642562508583,-0.08560160547494888,1.3639882722710325e-15,0.9272868680755575,0.3730383174889095,0.8212253476356843,8.891653470151871e-06,0.4481796508961963,0.927295743303002,0.0009624050857302019,0.6466647157163649,-0.3241240128352108,0.1096426228810389,-0.5942063181200553,-0.14785174850210295,CTC,1
16.7007,0.15,0.2,0.2,0.15232329560556757,0.19897824031942452,0.25726701551496645,0.0,0.0,0.0,0.927132248878479,0.22366781532764435,0.9163867235183716,-0.05464806407690048,0.7927165031433105,1.0617064237594604,0.00010272192594129592,5.245803791353865e-15,0.0009587379754520953,0.04451283439993858,-6.661338147750939e-16,1.3639882722710325e-15,0.9272868680755575,0.3730383174889095,0.8212253476356843,8.891653470151871e-06,0.4481796508961963,0.927295743303002,0.0009277151824709167,0.5974820086450626,-0.2849088848627905,0.14492417898069213,-0.5168052783706719,-0.14785174850210295,CTC,1
16.8007,0.15,0.2,0.2,0.15216412746513097,0.1986981933186105,0.2527225350114687,0.0,0.0,0.0,0.9271341562271118,0.23687922954559326,0.9100935459136963,-0.05618204548954964,0.7822502851486206,1.0617064237594604,-4.758098525709073e-16,0.12241029739379883,-0.05992112308740616,-1.3838137136762299e-15,-0.07846813648939133,1.3639882722710325e-15,0.9272868680755575,0.3730383174889095,0.8212253476356843,8.891653470151871e-06,0.4481796508961963,0.927295743303002,0.000916271090674047,0.5936004707307845,-0.3025572686864796,0.11238187428603846,-0.5717272742190886,-0.14785174850210295,CTC,1
16.9007,0.15,0.2,0.2,0.15216518997806452,0.19878460034775575,0.25324035552431395,0.0,0.0,0.0,0.9271341562271118,0.234513059258461,0.9109410643577576,-0.054839812219142914,0.7822502851486206,1.0620899200439453,-4.758098525709073e-16,-0.02465326339006424,0.010648840107023716,0.037664707750082016,0.002853386802598834,0.006848128512501717,0.9272868680755575,0.3730383174889095,0.8212253476356843,8.891653470151871e-06,0.4481796508961963,0.927295743303002,0.000916271090674047,0.5442397275657682,-0.2627578461020055,0.13982917394529173,-0.49853790325629743,-0.14156242847278597,CTC,1
17.001,0.15,0.2,0.2,0.1519527598881555,0.19846965500984515,0.2490411266972834,0.0,0.0,0.0,0.9271341562271118,0.24736207723617554,0.9047572016716003,-0.055990297347307205,0.7726629376411438,1.0620899200439453,-4.758098525709073e-16,0.12799152731895447,-0.06461209058761597,-0.0034240642562508583,-0.10985539853572845,1.3639882722710325e-15,0.9272868680755575,0.3730383174889095,0.8212253476356843,8.891653470151871e-06,0.4481796508961963,0.927295743303002,0.000916271090674047,0.5539015719385176,-0.2893628164603176,0.10925912659655401,-0.5855947887995768,-0.1482735944150363,CTC,1
17.1008,0.15,0.2,0.2,0.15191518545420488,0.1984918069771227,0.24912116480579183,0.0,0.0,0.0,0.9271341562271118,0.24620966613292694,0.9050428867340088,-0.054839812219142914,0.7723433375358582,1.0620899200439453,-4.758098525709073e-16,-0.010306433774530888,0.004793690051883459,0.0410887710750103,-6.661338147750939e-16,1.3639882722710325e-15,0.9272868680755575,0.3730383174889095,0.8212253476356843,8.891653470151871e-06,0.4481796508961963,0.927295743303002,0.000916271090674047,0.5031920319141178,-0.24857640326384328,0.1425684246052344,-0.48624552995949333,-0.1482735944150363,CTC,1
17.2009,0.15,0.2,0.2,0.15178859226362737,0.19829909100668405,0.24543924230607614,0.0,0.0,0.0,0.9271341562271118,0.25734061002731323,0.8995857834815979,-0.055990297347307205,0.7605189085006714,1.0620899200439453,-4.758098525709073e-16,0.11563064903020859,-0.05790092796087265,-1.3857961942892786e-15,-0.11698886007070541,1.3639882722710325e-15,0.9272868680755575,0.3730383174889095,0.8212253476356843,8.891653470151871e-06,0.4481796508961963,0.927295743303002,0.000916271090674047,0.5090430894584684,-0.26982186431426436,0.1119983780015536,-0.5737988604703474,-0.1482735944150363,CTC,1
17.3007,0.15,0.2,0.2,0.15173160315980322,0.19828015370250732,0.2453053663715974,0.0,0.0,0.0,0.9271341562271118,0.25676536560058594,0.8996989130973816,-0.05522330850362778,0.7609983086585999,1.0620899200439453,-4.758098525709073e-16,-0.005957871675491333,0.003218620317056775,0.03424064442515373,0.011413547210395336,1.3639882722710325e-15,0.9272868680755575,0.3730383174889095,0.8212253476356843,8.891653470151871e-06,0.4481796508961963,0.927295743303002,0.000916271090674047,0.46270865888309776,-0.2334895241948577,0.13785691585431886,-0.4589557941542495,-0.1482735944150363,CTC,1
17.4007,0.15,0.2,0.2,0.15158710453930044,0.19807522806207722,0.24198798512522882,0.0,0.0,0.0,0.9271341562271118,0.2667822539806366,0.8946789503097534,-0.055990297347307205,0.7501325607299805,1.0620899200439453,-4.758098525709073e-16,0.10518725216388702,-0.054100215435028076,-0.013696257025003433,-0.10129523277282715,1.3639882722710325e-15,0.9272868680755575,0.3730383174889095,0.8212253476356843,8.891653470151871e-06,0.4481796508961963,0.927295743303002,0.000916271090674047,0.46709915489864634,-0.2528209372832241,0.101041372381552,-0.5440950742462207,-0.1482735944150363,CTC,1
17.5007,0.15,0.2,0.2,0.1515596436032548,0.19808449478478918,0.24187832835579837,0.0,0.0,0.0,0.9271341562271118,0.2661609947681427,0.8947728872299194,-0.05541505664587021,0.7497330904006958,1.0618982315063477,-4.758098525709073e-16,-0.006676925346255302,0.0032871016301214695,0.027392514050006866,-6.661338147750939e-16,1.3639882722710325e-15,0.9272868680755575,0.3730383174889095,0.8212253476356843,8.891653470151871e-06,0.4481796508961963,0.927295743303002,0.000916271090674047,0.424838520744565,-0.21867035780463248,0.13276190783868624,-0.4523301592567498,-0.14806273702367886,CTC,1
17.6008,0.15,0.2,0.2,0.15137501502163286,0.1978511266401802,0.23882268681071017,0.0,0.0,0.0,0.9271341562271118,0.27537447214126587,0.8900424838066101,-0.055990297347307205,0.7399060726165771,1.0618982315063477,-4.758098525709073e-16,0.09717494249343872,-0.05221698060631752,-0.010272192768752575,-0.1055753156542778,1.3639882722710325e-15,0.9272868680755575,0.3730383174889095,0.8212253476356843,8.891653470151871e-06,0.4481796508961963,0.927295743303002,0.000916271090674047,0.4295253583879499,-0.23778159687656783,0.10378062378655269,-0.5326074166694212,-0.14806273702367886,CTC,1
17.7007,0.15,0.2,0.2,0.15137024411682004,0.1978206272238965,0.23870185271351793,0.0,0.0,0.0,0.9271341562271118,0.274858683347702,0.8901211023330688,-0.05579855293035507,0.7397462725639343,1.0618982315063477,-4.758098525709073e-16,-0.006676925346255302,0.002739251358434558,0.017120322212576866,-6.661338147750939e-16,1.3639882722710325e-15,0.9272868680755575,0.3730383174889095,0.8212253476356843,8.891653470151871e-06,0.4481796508961963,0.927295743303002,0.000916271090674047,0.3900477664263276,-0.2050437132770928,0.12531114693771198,-0.4373499325016076,-0.14806273702367886,CTC,1
17.8011,0.15,0.2,0.2,0.15115743552708452,0.19760066361204515,0.23589587341630017,0.0,0.0,0.0,0.9271341562271118,0.2832687199115753,0.885785698890686,-0.05579855293035507,0.7303985357284546,1.0618982315063477,-4.758098525709073e-16,0.08892294764518738,-0.04776569455862045,-1.3867875404749213e-15,-0.099868543446064,1.3639882722710325e-15,0.9272868680755575,0.3730383174889095,0.8212253476356843,8.891653470151871e-06,0.4481796508961963,0.927295743303002,0.000916271090674047,0.39464756936741163,-0.2223404705001774,0.11161488916764936,-0.513210016349845,-0.14806273702367886,CTC,1
17.9008,0.15,0.2,0.2,0.15111976044831912,0.1975805059156652,0.23577771975437545,0.0,0.0,0.0,0.9271341562271118,0.2828775644302368,0.88577800989151,-0.05541505664587021,0.7303985357284546,1.0618982315063477,-4.758098525709073e-16,-0.0036295081954449415,0.0019859573803842068,0.027392514050006866,-6.661338147750939e-16,1.3639882722710325e-15,0.9272868680755575,0.3730383174889095,0.8212253476356843,8.891653470151871e-06,0.4481796508961963,0.927295743303002,0.000916271090674047,0.35919120895651263,-0.19246641233924652,0.13276190783868624,-0.423328327248388,-0.14806273702367886,CTC,1
18.0009,0.15,0.2,0.2,0.1509714644125754,0.19738053186697993,0.23324391518329313,0.0,0.0,0.0,0.9271341562271118,0.2904535233974457,0.8818280100822449,-0.05637379363179207,0.7214503288269043,1.0618982315063477,-4.758098525709073e-16,0.07906164228916168,-0.042218711227178574,-0.010272192768752575,-0.09130837768316269,1.3639882722710325e-15,0.9272868680755575,0.3730383174889095,0.8212253476356843,8.891653470151871e-06,0.4481796508961963,0.927295743303002,0.000916271090674047,0.3619638332815199,-0.20713921407598876,0.10454761635552241,-0.4920835568109084,-0.14806273702367886,CTC,1
18.1008,0.15,0.2,0.2,0.15095266155690334,0.19733193739158722,0.23309690086023452,0.0,0.0,0.0,0.9271341562271118,0.29005658626556396,0.8818433880805969,-0.05618204548954964,0.7211307883262634,1.0618982315063477,-4.758098525709073e-16,-0.008251994848251343,0.0034925455693155527,0.010272192768752575,-6.661338147750939e-16,1.3639882722710325e-15,0.9272868680755575,0.3730383174889095,0.8212253476356843,8.891653470151871e-06,0.4481796508961963,0.927295743303002,0.000916271090674047,0.32862612695408155,-0.17975859399314842,0.12059962850104163,-0.40942670614510124,-0.14806273702367886,CTC,1
18.2008,0.15,0.2,0.2,0.15076782681437292,0.19713358814939022,0.23080229691870116,0.0,0.0,0.0,0.9271341562271118,0.2970055341720581,0.8780141472816467,-0.05618204548954964,0.7123423218727112,1.0618982315063477,-4.758098525709073e-16,0.06985091418027878,-0.0410887710750103,-1.3828224733697055e-15,-0.09416176378726959,1.3639882722710325e-15,0.9272868680755575,0.3730383174889095,0.8212253476356843,8.891653470151871e-06,0.4481796508961963,0.927295743303002,0.000916271090674047,0.332071498939517,-0.19501966158289338,0.11238187428603846,-0.48098959387331497,-0.14806273702367886,CTC,1
18.3007,0.15,0.2,0.2,0.15076605433012985,0.19712243652633077,0.23075893936289807,0.0,0.0,0.0,0.9271341562271118,0.2963171601295471,0.8781349658966064,-0.05637379363179207,0.7122624516487122,1.0618982315063477,-4.758098525709073e-16,-0.008388957008719444,0.003526786109432578,-1.3828224733697055e-15,-6.661338147750939e-16,1.3639882722710325e-15,0.9272868680755575,0.3730383174889095,0.8212253476356843,8.891653470151871e-06,0.4481796508961963,0.927295743303002,0.000916271090674047,0.3035290466339617,-0.16861278311710684,0.11276537057052335,-0.39612420112877433,-0.14806273702367886,CTC,1
18.4007,0.15,0.2,0.2,0.15060014545893358,0.19693403843584378,0.22865160359822567,0.0,0.0,0.0,0.9271341562271118,0.30280205607414246,0.8746374845504761,-0.05637379363179207,0.7036337852478027,1.0618982315063477,-4.758098525709073e-16,0.0753636509180069,-0.04262959957122803,-1.3828224733697055e-15,-0.10129523277282715,1.3639882722710325e-15,0.9272868680755575,0.3730383174889095,0.8212253476356843,8.891653470151871e-06,0.4481796508961963,0.927295743303002,0.000916271090674047,0.31109050602627086,-0.18581417048711205,0.11276537057052335,-0.4743469110229541,-0.14806273702367886,CTC,1
18.5007,0.15,0.2,0.2,0.15058477007046722,0.19692212071199747,0.22843701833890537,0.0,0.0,0.0,0.9271341562271118,0.30236679315567017,0.8744783401489258,-0.05637379363179207,0.7029946446418762,1.0618982315063477,-4.758098525709073e-16,-0.017120322212576866,0.005238818470388651,-1.3828224733697055e-15,-6.661338147750939e-16,1.3639882722710325e-15,0.9272868680755575,0.3730383174889095,0.8212253476356843,8.891653470151871e-06,0.4481796508961963,0.927295743303002,0.000916271090674047,0.2758379684479265,-0.15661568645749113,0.11276537057052335,-0.3822224906185204,-0.14806273702367886,CTC,1
18.6012,0.15,0.2,0.2,0.15043543762276823,0.19675068144312535,0.22669482269160007,0.0,0.0,0.0,0.9271341562271118,0.3079332113265991,0.8714563846588135,-0.05637379363179207,0.6951649188995361,1.0618982315063477,-4.758098525709073e-16,0.06515993922948837,-0.03855496272444725,-1.3828224733697055e-15,-0.11841555684804916,1.3639882722710325e-15,0.9272868680755575,0.3730383174889095,0.8212253476356843,8.891653470151871e-06,0.4481796508961963,0.927295743303002,0.000916271090674047,0.2864844003410368,-0.17382608870405578,0.11276537057052335,-0.47705190316825397,-0.14806273702367886,CTC,1
18.7008,0.15,0.2,0.2,0.15042882911665986,0.19675338939446985,0.22639998944073766,0.0,0.0,0.0,0.9271341562271118,0.3078641891479492,0.8711860179901123,-0.05637379363179207,0.6942861080169678,1.0618982315063477,-4.758098525709073e-16,-0.010717321187257767,0.0028077326714992523,-1.3828224733697055e-15,-6.661338147750939e-16,1.3639882722710325e-15,0.9272868680755575,0.3730383174889095,0.8212253476356843,8.891653470151871e-06,0.4481796508961963,0.927295743303002,0.000916271090674047,0.25640958488893795,-0.14819737146038436,0.11276537057052331,-0.36915968568115776,-0.14806273702367886,CTC,1
18.8008,0.15,0.2,0.2,0.1502973589942952,0.19662042860002393,0.22478219738625435,0.0,0.0,0.0,0.9271341562271118,0.31301069259643555,0.8682829737663269,-0.05618204548954964,0.687175452709198,1.0618982315063477,-4.758098525709073e-16,0.05858574062585831,-0.035336341708898544,0.0034240642562508583,-0.08560160547494888,1.3639882722710325e-15,0.9272868680755575,0.3730383174889095,0.8212253476356843,8.891653470151871e-06,0.4481796508961963,0.927295743303002,0.000916271090674047,0.26354479582023904,-0.16237468341726685,0.1151211256910403,-0.4355351476469566,-0.14806273702367886,CTC,1
18.9007,0.15,0.2,0.2,0.15023810233176121,0.19654541578594364,0.22450647502902535,0.0,0.0,0.0,0.9271341562271118,0.3129109740257263,0.8680816292762756,-0.05618204548954964,0.6868558526039124,1.0618982315063477,-4.758098525709073e-16,-0.008834085427224636,0.002294122939929366,-1.3828224733697055e-15,-6.661338147750939e-16,1.3639882722710325e-15,0.9272868680755575,0.3730383174889095,0.8212253476356843,8.891653470151871e-06,0.4481796508961963,0.927295743303002,0.000916271090674047,0.23697573968184274,-0.1391923711578163,0.11238187428603846,-0.3580143025615746,-0.14806273702367886,CTC,1
19.0008,0.15,0.2,0.2,0.1501239621890386,0.1964218884490707,0.22303703688755694,0.0,0.0,0.0,0.9271341562271118,0.3175435960292816,0.8653741478919983,-0.05618204548954964,0.6788663864135742,1.0618982315063477,-4.758098525709073e-16,0.05139520391821861,-0.03201499953866005,-1.3828224733697055e-15,-0.09844184666872025,1.3639882722710325e-15,0.9272868680755575,0.3730383174889095,0.8212253476356843,8.891653470151871e-06,0.4481796508961963,0.927295743303002,0.000916271090674047,0.2425369674057989,-0.1516554004921379,0.11238187428603845,-0.43462776527791513,-0.14806273702367886,CTC,1
19.1007,0.15,0.2,0.2,0.15010704906335723,0.1964087938043365,0.22274509901247258,0.0,0.0,0.0,0.9271341562271118,0.31754937767982483,0.8651574850082397,-0.05618204548954964,0.6784669160842896,1.0618982315063477,-4.758098525709073e-16,-0.006711165886372328,0.0015065883053466678,-1.3828224733697055e-15,-6.661338147750939e-16,1.3639882722710325e-15,0.9272868680755575,0.3730383174889095,0.8212253476356843,8.891653470151871e-06,0.4481796508961963,0.927295743303002,0.000916271090674047,0.21927129288178968,-0.13089245913445824,0.11238187428603846,-0.3454308977821404,-0.14806273702367886,CTC,1
19.2007,0.15,0.2,0.2,0.1500193827132425,0.19632038357254705,0.22142695350707675,0.0,0.0,0.0,0.9271341562271118,0.321729451417923,0.8626954555511475,-0.05618204548954964,0.6707969903945923,1.0617064237594604,-4.758098525709073e-16,0.04752601310610771,-0.029892081394791603,-1.3828224733697055e-15,-0.10985539853572845,-0.0034240642562508583,0.9272868680755575,0.3730383174889095,0.8212253476356843,8.891653470151871e-06,0.4481796508961963,0.927295743303002,0.000916271090674047,0.2242458695263891,-0.14234557258326436,0.11238187428603845,-0.4327958679297495,-0.15120733147323012,CTC,1
19.3007,0.15,0.2,0.2,0.14999469274766492,0.19629588768719514,0.22113249762440562,0.0,0.0,0.0,0.9271341562271118,0.321834921836853,0.8624883890151978,-0.05618204548954964,0.6703975200653076,1.0617064237594604,-4.758098525709073e-16,-0.005238818470388651,0.0010272192303091288,-1.3828224733697055e-15,-6.661338147750939e-16,1.3639882722710325e-15,0.9272868680755575,0.3730383174889095,0.8212253476356843,8.891653470151871e-06,0.4481796508961963,0.927295743303002,0.000916271090674047,0.20271805522007036,-0.1231727926003548,0.11238187428603846,-0.3333268037536675,-0.14785174850210295,CTC,1
19.4009,0.15,0.2,0.2,0.14994936640133907,0.19626888155902886,0.21988677640027365,0.0,0.0,0.0,0.9271341562271118,0.3257427513599396,0.8601030111312866,-0.05618204548954964,0.6609699726104736,1.0617064237594604,-4.758098525709073e-16,0.04605366289615631,-0.029446952044963837,-1.3828224733697055e-15,-0.11698886007070541,1.3639882722710325e-15,0.9272868680755575,0.3730383174889095,0.8212253476356843,8.891653470151871e-06,0.4481796508961963,0.927295743303002,0.000916271090674047,0.20760372967434215,-0.13430116171378517,0.11238187428603846,-0.4244754566350508,-0.14785174850210295,CTC,1
