Jose05M/robotics_control_challenge/PD_CTC_Controller_csv/CTC_sin_perturbaciones.csv
time,x_d,y_d,z_d,x,y,z,vx_cmd,vy_cmd,vz_cmd,q1,q2,q3,q4,q5,q6,qd1,qd2,qd3,qd4,qd5,qd6,qref1,qref2,qref3,qref4,qref5,qref6,cmd1,cmd2,cmd3,cmd4,cmd5,cmd6,mode,perturbation
2.8008,0.15,0.2,0.3,0.28074915793229094,0.12858697701345684,0.3112616385234229,0.0,0.0,0.0,0.4427797198295593,0.3407067060470581,1.3027006387710571,-0.08551942557096481,0.8770854473114014,1.2482768297195435,6.502734934146716e-16,4.55984474693181e-15,1.8080775880002136e-15,-9.377419173340002e-16,-7.771561172376096e-16,2.252166797850276e-15,0.44293982740657156,0.34062703245302284,1.302590660599306,-0.08549116247973947,0.8770831988087121,1.248170760096419,0.04267908297939982,-0.019068742676919048,-0.02482440116638469,0.005994786510450062,-0.0004616158664778233,-0.021198372481798507,CTC,1
2.9009,0.15,0.2,0.3,0.28074915793229094,0.12858697701345684,0.3112616385234229,0.0,0.0,0.0,0.4427797198295593,0.3407067060470581,1.3027006387710571,-0.08551942557096481,0.8770854473114014,1.2482768297195435,6.502734934146716e-16,4.55984474693181e-15,1.8080775880002136e-15,-9.377419173340002e-16,-7.771561172376096e-16,2.252166797850276e-15,0.4455004213565874,0.33935281591268335,1.3008317841833679,-0.08503915201433335,0.8770472385968954,1.246474392939279,0.08647042649692686,-0.03222421950436537,-0.037023149866358275,0.007597934100622271,-0.000528224587332928,-0.022041055312113336,CTC,1
3.0007,0.15,0.2,0.3,0.2807422519200804,0.12860205412042142,0.3112616385234229,0.0,0.0,0.0,0.44292545318603516,0.3407009541988373,1.3027006387710571,-0.08551942557096481,0.8770854473114014,1.2482768297195435,0.002602288732305169,-0.00010272192594129592,1.8080775880002136e-15,-9.377419173340002e-16,-7.771561172376096e-16,2.252166797850276e-15,0.4509952505142924,0.33661844945874236,1.2970573765249274,-0.08406917382435675,0.8769700708677416,1.2428341251345498,0.1447595066037964,-0.0505728367569975,-0.05465748479529094,0.010159064924228791,-0.000653588238379584,-0.024996547644939,CTC,1
3.1007,0.15,0.2,0.3,0.2803217494821939,0.1291990937865914,0.31127538299040247,0.0,0.0,0.0,0.44548335671424866,0.3399416506290436,1.3018146753311157,-0.08551942557096481,0.8770854473114014,1.2482768297195435,0.02876213937997818,-0.010409154929220676,-0.011949984356760979,-9.377419173340002e-16,-7.771561172376096e-16,2.252166797850276e-15,0.45922487162421227,0.3325231811172225,1.2914044355413503,-0.08261643475653697,0.8768544965423855,1.2373820857877844,0.20286641386472212,-0.07479944962020692,-0.08185649364075981,0.013610564407426884,-0.0008335534315520798,-0.029915178772241854,CTC,1
3.2007,0.15,0.2,0.3,0.2797132222525571,0.1299840091130703,0.31131143724536714,0.0,0.0,0.0,0.44878333806991577,0.3388390839099884,1.300535798072815,-0.08551942557096481,0.8770854473114014,1.2482768297195435,0.03708261623978615,-0.011504855938255787,-0.013353850692510605,-9.377419173340002e-16,-7.771561172376096e-16,2.252166797850276e-15,0.4699736938886001,0.32717429434102446,1.2840210509247363,-0.08071899211270678,0.8767035433131923,1.2302611015852203,0.2694921053200191,-0.09834289229970151,-0.10615100171785724,0.017875660325873333,-0.0010635655045394066,-0.03664069937910795,CTC,1
3.3007,0.15,0.2,0.3,0.2786774802351586,0.1313579073713062,0.31139288138356125,0.0,0.0,0.0,0.4544571340084076,0.3369542062282562,1.298499345779419,-0.08551942557096481,0.8770854473114014,1.2482768297195435,0.06009232625365257,-0.020818309858441353,-0.02174280770123005,-9.377419173340002e-16,-7.771561172376096e-16,2.252166797850276e-15,0.4830235528616955,0.32068035329562233,1.27505708021046,-0.0784153575095411,0.8765202750160663,1.221615704228434,0.33352728013983474,-0.12598132611999807,-0.13651381008528035,0.022877100241995234,-0.0013390255574381423,-0.04501454560733882,CTC,1
3.4008,0.15,0.2,0.3,0.2773479766091205,0.13302911440595097,0.3115114726799455,0.0,0.0,0.0,0.46150386333465576,0.3344154953956604,1.2957535982131958,-0.08551942557096481,0.8770854473114014,1.2482768297195435,0.07714416831731796,-0.02684466354548931,-0.030405690893530846,-9.377419173340002e-16,-7.771561172376096e-16,2.252166797850276e-15,0.49816879528397895,0.3131436962626688,1.2646537869784134,-0.07574183401865625,0.8763075797835725,1.2115821368867912,0.39975339277877303,-0.1532201194318597,-0.1686415013241173,0.028542449530042695,-0.0016555990352588137,-0.05488613494988287,CTC,1
3.5007,0.15,0.2,0.3,0.27556063367869277,0.13522071966690738,0.31161569836639186,0.0,0.0,0.0,0.47063106298446655,0.33119603991508484,1.2921698093414307,-0.08551942557096481,0.8771653771400452,1.2482768297195435,0.09063497930765152,-0.03283677622675896,-0.03670596703886986,-9.377419173340002e-16,0.001426693401299417,2.252166797850276e-15,0.5151618236085398,0.3046875340658163,1.2529812464120917,-0.07274212895351044,0.8760689348012416,1.2003244303886722,0.4624072542201237,-0.1807511069736115,-0.20004855204781802,0.034783752528963374,-0.0008439492641805729,-0.06607737305777989,CTC,1
3.6008,0.15,0.2,0.3,0.27347476572037527,0.137674384938815,0.31181326256883257,0.0,0.0,0.0,0.4811771810054779,0.32718467712402344,1.2878247499465942,-0.08551942557096481,0.8771653771400452,1.2482768297195435,0.11289139837026596,-0.0408148467540741,-0.04810810461640358,-9.377419173340002e-16,-7.771561172376096e-16,2.252166797850276e-15,0.533835228965121,0.2953951736079338,1.2401544519542125,-0.06944579427073369,0.8758066911089304,1.1879534913888852,0.5244971651949095,-0.20861625165113828,-0.23510840799161004,0.04154258120145038,-0.0025128166121286583,-0.07846289434010495,CTC,1
3.7009,0.15,0.2,0.3,0.27081341278427684,0.1406912782471294,0.3119951425035029,0.0,0.0,0.0,0.49421027302742004,0.32214364409446716,1.2823331356048584,-0.08551942557096481,0.8771653771400452,1.2482768297195435,0.13059380650520325,-0.051052797585725784,-0.056257374584674835,-9.377419173340002e-16,-7.771561172376096e-16,2.252166797850276e-15,0.5539632046064977,0.28537898205767487,1.2263285106502528,-0.06589269064909715,0.8755240198687282,1.1746189145351293,0.5782425284430364,-0.23551974463925118,-0.2671829837867674,0.04873884359106168,-0.002925264311994592,-0.09187903798736075,CTC,1
3.8007,0.15,0.2,0.3,0.2678635354743245,0.14389469225865054,0.3121594319372881,0.0,0.0,0.0,0.5085127353668213,0.3165733814239502,1.2760323286056519,-0.08551942557096481,0.8771653771400452,1.2482768297195435,0.15490466356277466,-0.06046897545456886,-0.06796767562627792,-9.377419173340002e-16,-7.771561172376096e-16,2.252166797850276e-15,0.5752440945969218,0.27478907106504125,1.21171063048456,-0.062136068093315254,0.8752251574459302,1.1605205437824198,0.6291030054764015,-0.261621208901454,-0.3007447542557887,0.05626599140954651,-0.0033590207965080695,-0.10611112358383672,CTC,1
3.9008,0.15,0.2,0.3,0.2643257698735214,0.1475463133787862,0.31234287524856563,0.0,0.0,0.0,0.5246789455413818,0.31001368165016174,1.2685753107070923,-0.08551942557096481,0.8771653771400452,1.2482768297195435,0.16226640343666077,-0.06560507416725159,-0.07481580227613449,-9.377419173340002e-16,-7.771561172376096e-16,2.252166797850276e-15,0.5975815476880686,0.26367338745670454,1.1963669952963656,-0.058192935068395665,0.8749114569685085,1.1457222108418355,0.6729888499517247,-0.28351858546693776,-0.32951016889089163,0.06409021273414524,-0.003811978827662699,-0.12108173613779497,CTC,1
4.0007,0.15,0.2,0.3,0.2604804164340115,0.15131842859067343,0.3125494625957381,0.0,0.0,0.0,0.5423811078071594,0.302746444940567,1.260303258895874,-0.08551942557096481,0.8771653771400452,1.2482768297195435,0.19020676612854004,-0.07734961062669754,-0.08834085613489151,-9.377419173340002e-16,-7.771561172376096e-16,2.252166797850276e-15,0.6207001820692843,0.25216896821115237,1.1804867653280162,-0.05411190352251438,0.8745867858158424,1.1304063533307362,0.7101896004640639,-0.30614049290307044,-0.3608543841412176,0.07211425932227782,-0.004278378947404216,-0.1365938006490725,CTC,1
4.1007,0.15,0.2,0.3,0.2561155046626977,0.15538359297784507,0.3127518590160664,0.0,0.0,0.0,0.5610707402229309,0.29482153058052063,1.2511799335479736,-0.08551942557096481,0.8771653771400452,1.2482768297195435,0.18404345214366913,-0.07841107249259949,-0.08837509900331497,-9.377419173340002e-16,-7.771561172376096e-16,2.252166797850276e-15,0.6443925393639682,0.2403790498821127,1.1642124440974517,-0.04992959517672137,0.8742540574710189,1.1147104102899885,0.7427553954904971,-0.322357852803442,-0.3821412991140302,0.08026491687457794,-0.004753846522656049,-0.15249567234514655,CTC,1
4.2007,0.15,0.2,0.3,0.251571282638165,0.1593698591968199,0.31287198160318963,0.0,0.0,0.0,0.5810067057609558,0.28636544942855835,1.2410575151443481,-0.08551942557096481,0.8771653771400452,1.2480851411819458,0.21496275067329407,-0.09080618619918823,-0.10881676524877548,-9.377419173340002e-16,-7.771561172376096e-16,-0.0034240642562508583,0.6684679987357764,0.2283984902359259,1.147674969387068,-0.045679659494630896,0.8739159489557702,1.0987606660632068,0.7679897151318616,-0.3411036449949673,-0.4128727819768218,0.08847458962145734,-0.0052343387809721765,-0.17179174225698335,CTC,1
4.3008,0.15,0.2,0.3,0.2465432736651587,0.16351995050772833,0.3129913766181332,0.0,0.0,0.0,0.6017653346061707,0.27730920910835266,1.2303657531738281,-0.08551942557096481,0.8771653771400452,1.2465511560440063,0.20291005074977875,-0.08782725036144257,-0.10641991347074509,-9.377419173340002e-16,-7.771561172376096e-16,-0.010272192768752575,0.6926962683618885,0.21634188832869794,1.131032529048531,-0.04140274888581832,0.8735756944192391,1.0827096866145445,0.7870491037415874,-0.35095958286800827,-0.4279154917471564,0.09666203386693711,-0.005715016505842784,-0.19304935500004383,CTC,1
4.4008,0.15,0.2,0.3,0.24140052525441433,0.16751645431362758,0.313077873004516,0.0,0.0,0.0,0.6233580112457275,0.2677735984325409,1.2189644575119019,-0.08551942557096481,0.8771653771400452,1.244633674621582,0.23256243765354156,-0.10193439573049545,-0.12467017769813538,-9.377419173340002e-16,-7.771561172376096e-16,-0.02054438553750515,0.7168405038076109,0.20432710396251583,1.1144478119339436,-0.03714067246381141,0.8732366200334798,1.0667143789461306,0.7984471438920775,-0.36492269392812876,-0.4524537637817395,0.10474400289672885,-0.006190918500498688,-0.21715186055586863,CTC,1
4.501,0.15,0.2,0.3,0.23580508256080712,0.17157279193618435,0.3130820854832122,0.0,0.0,0.0,0.6454645991325378,0.25785258412361145,1.2068901062011719,-0.08551942557096481,0.8771653771400452,1.241373896598816,0.2102375477552414,-0.09357967972755432,-0.12049282342195511,-9.377419173340002e-16,-7.771561172376096e-16,-0.0410887710750103,0.740755956524108,0.19242616768916426,1.0980202460720199,-0.032918982057679194,0.8729007586036064,1.0508706374828842,0.8032191976299587,-0.3672552071886115,-0.4604466099894676,0.11266789089042822,-0.006658890895818753,-0.2496458836345764,CTC,1
4.6007,0.15,0.2,0.3,0.23021669500955383,0.17533950677016658,0.3129561446659834,0.0,0.0,0.0,0.6679182648658752,0.24773597717285156,1.1943172216415405,-0.08551942557096481,0.8771653771400452,1.2386895418167114,0.23684252798557281,-0.10556390136480331,-0.13620927929878235,-9.377419173340002e-16,-7.771561172376096e-16,-0.03424064442515373,0.7640477988137875,0.18083555579214503,1.0820210392915723,-0.02880737487628323,0.8725736549711336,1.0354400315138057,0.8000530930398675,-0.37507070074247345,-0.47701891324622003,0.12029858682136065,-0.007110901851852915,-0.2554531545850283,CTC,1
4.7007,0.15,0.2,0.3,0.22430382897785767,0.17906399249468394,0.31286210543730464,0.0,0.0,0.0,0.69031822681427,0.2374199628829956,1.1814719438552856,-0.08551942557096481,0.8771653771400452,1.2337040901184082,0.20873095095157623,-0.09412752836942673,-0.12552618980407715,-9.377419173340002e-16,-7.771561172376096e-16,-0.037664707750082016,0.7866984786963146,0.16956400258236226,1.0664622480782706,-0.024808949294045597,0.8722555556307977,1.0204341890453517,0.791186458216905,-0.37079313642512984,-0.4750125065156744,0.12762516524893577,-0.007546266804904379,-0.2682955835396049,CTC,1
4.8007,0.15,0.2,0.3,0.21884010749291335,0.18225014343442292,0.3126819197103493,0.0,0.0,0.0,0.7121275663375854,0.2272745966911316,1.1686939001083374,-0.08551942557096481,0.8771653771400452,1.2292938232421875,0.23595227301120758,-0.10731017589569092,-0.14096872508525848,-9.377419173340002e-16,-7.771561172376096e-16,-0.0410887710750103,0.8084107670815,0.15875941679910935,1.0515480396085863,-0.020976173863970507,0.8719506347786057,1.0060500212928831,0.7780851697330763,-0.37453673142164484,-0.4863596039157361,0.13454473408408307,-0.007958858796092915,-0.2810589987332892,CTC,1
4.9007,0.15,0.2,0.3,0.21278247198028227,0.18556819278454934,0.3124703235071619,0.0,0.0,0.0,0.7341766357421875,0.2168569415807724,1.1554557085037231,-0.08494418859481812,0.8771653771400452,1.2239248752593994,0.20859399437904358,-0.09758583456277847,-0.12908722460269928,0.010272192768752575,-7.771561172376096e-16,-0.04451283439993858,0.8289904106251067,0.14851846383685116,1.037411846840874,-0.017343339280423822,0.8716616204501388,0.9924162190991341,0.7545888384728789,-0.36512844318916965,-0.47700358873338516,0.1480552433615306,-0.00834454114172927,-0.291913046336594,CTC,1
5.0007,0.15,0.2,0.3,0.20714297195552728,0.18842828228342384,0.31219371255621015,0.0,0.0,0.0,0.7555296421051025,0.2066483050584793,1.142305612564087,-0.0836019515991211,0.8771653771400452,1.217213749885559,0.22859053313732147,-0.10994670540094376,-0.1399415135383606,0.017120322212576866,-7.771561172376096e-16,-0.0821775421500206,0.8482067801209654,0.1389559106422116,1.0242120893760058,-0.013951157509789938,0.87139175153265,0.9796855719412578,0.7249374517851234,-0.36203430557517585,-0.4781529284377986,0.15673527073444593,-0.008698487366284351,-0.3338247495617201,CTC,1
5.1008,0.15,0.2,0.3,0.20127855923312943,0.19114857972325797,0.31188699014526505,0.0,0.0,0.0,0.7762959003448486,0.19649143517017365,1.129157543182373,-0.08321845531463623,0.8771653771400452,1.2120366096496582,0.19777394831180573,-0.09655861556529999,-0.125115305185318,0.006848128512501717,-7.771561172376096e-16,-0.05478502810001373,0.8658537443114458,0.13017433336083514,1.012090359131604,-0.010836016002603713,0.8711439228715664,0.9679946396574515,0.6872289412761219,-0.345078312562797,-0.460071831090695,0.15300602693594664,-0.009016328013922282,-0.3124949189639854,CTC,1
5.2007,0.15,0.2,0.3,0.19566589373066243,0.19355739101981173,0.31155234372273477,0.0,0.0,0.0,0.7970717549324036,0.18628662824630737,1.1157256364822388,-0.08168447762727737,0.8771653771400452,1.2032161951065063,0.22530342638492584,-0.11032334715127945,-0.14487215876579285,0.017120322212576866,-7.771561172376096e-16,-0.1027219295501709,0.8816934222828512,0.12229210757306774,1.001210056918992,-0.008039906837504024,0.8709214751949418,0.9575010159065236,0.6364859744625605,-0.3345578128994732,-0.4575795520733479,0.16269825763650897,-0.009293128608802102,-0.3596364061715196,CTC,1
5.3014,0.15,0.2,0.3,0.18993864376555378,0.19577858015834437,0.3111636924407691,0.0,0.0,0.0,0.8164670467376709,0.17637711763381958,1.1025620698928833,-0.07976700365543365,0.8771653771400452,1.1972720623016357,0.17873615026474,-0.09104587137699127,-0.1232663169503212,0.006848128512501717,-7.771561172376096e-16,-0.07190535217523575,0.8956280780011556,0.1153578692100933,0.9916383177890956,-0.005580082929669675,0.8707257810782623,0.9482694498058379,0.5802564535500956,-0.30750774092830857,-0.42649922962965237,0.15443045347087067,-0.009526302146573594,-0.33133330192770843,CTC,1
5.4007,0.15,0.2,0.3,0.1849818583195133,0.1974919353543371,0.3107380065087046,0.0,0.0,0.0,0.8344951272010803,0.16704091429710388,1.0899930000305176,-0.07861651480197906,0.8771653771400452,1.188068151473999,0.19606192409992218,-0.10169471055269241,-0.13963334262371063,0.013696257025003433,-7.771561172376096e-16,-0.11641818284988403,0.9071594630355992,0.10961955933717468,0.9837173894513329,-0.003544497898249968,0.870563837772735,0.9406300258164755,0.5160035175025581,-0.2894042637384092,-0.41454980020969895,0.1604849265742275,-0.009706698820098301,-0.37151184793208325,CTC,1
5.5007,0.15,0.2,0.3,0.17989435627797024,0.19902257038969595,0.3101953490477484,0.0,0.0,0.0,0.851152241230011,0.15810739994049072,1.0776617527008057,-0.07689078897237778,0.8771653771400452,1.1815487146377563,0.15011097490787506,-0.08265691250562668,-0.11600729823112488,0.02054438553750515,-7.771561172376096e-16,-0.0616331584751606,0.9163439752775555,0.10504911293212127,0.9774085320965105,-0.0019231960698248562,0.8704348532433247,0.934545380915432,0.4435696566669265,-0.2556680769352499,-0.37383656963097156,0.16447611222819333,-0.009834199463000414,-0.31558048458985777,CTC,1
5.6007,0.15,0.2,0.3,0.17568219518125325,0.20011694589683826,0.3096665669366461,0.0,0.0,0.0,0.8659244775772095,0.14999264478683472,1.0661760568618774,-0.07554855197668076,0.8771653771400452,1.171194314956665,0.15832872688770294,-0.08772452920675278,-0.12754639983177185,0.02054438553750515,-7.771561172376096e-16,-0.12669037282466888,0.9228735309004998,0.10179984032653264,0.9729233690382748,-0.0007705621365907411,0.8703431541266926,0.9302196174692543,0.3643780185182817,-0.22892647714335232,-0.35070121796307707,0.16274313911307098,-0.009902784736446327,-0.37091370293527853,CTC,1
5.7008,0.15,0.2,0.3,0.17151976145386677,0.20098822802444896,0.3090432497186216,0.0,0.0,0.0,0.8789211511611938,0.1423840969800949,1.0552080869674683,-0.07363107800483704,0.8771653771400452,1.1644831895828247,0.11152177304029465,-0.06628988683223724,-0.10231103748083115,0.017120322212576866,-7.771561172376096e-16,-0.06505721807479858,0.9265414165548385,0.09997460732978852,0.9704038920342252,-0.00012308630323427938,0.8702916434429903,0.9277896809460788,0.2764754775119902,-0.18725693415863578,-0.30055325398340504,0.1560322600164007,-0.009907970316193886,-0.30398165509050523,CTC,1
5.8007,0.15,0.2,0.3,0.16827901450249977,0.20152113161916124,0.30843743736774454,0.0,0.0,0.0,0.8896666765213013,0.13596054911613464,1.0454251766204834,-0.07133010774850845,0.8771653771400452,1.1547040939331055,0.11494583636522293,-0.06793343275785446,-0.10748137533664703,0.023968450725078583,-7.771561172376096e-16,-0.13011443614959717,0.9272849793606268,0.09960459160515128,0.9698931374560298,8.171591013674253e-06,0.8702812010704325,0.9272970782345077,0.22570981703595328,-0.17259720314707522,-0.29108494269534907,0.16185131925910715,-0.010326264104419695,-0.37765986469506274,CTC,1
5.9008,0.15,0.2,0.3,0.16535553985164375,0.20180197255054236,0.30781192915046746,0.0,0.0,0.0,0.8979904651641846,0.13027331233024597,1.036574125289917,-0.06998787075281143,0.8771653771400452,1.1481846570968628,0.06899489462375641,-0.047902658581733704,-0.07964373379945755,0.02054438553750515,-7.771561172376096e-16,-0.06505721807479858,0.9272849793606268,0.09960459160515128,0.9698931374560298,8.171591013674253e-06,0.8702812010704325,0.9272970782345077,0.17576708517865347,-0.14183594633307223,-0.24782920378133616,0.15642759311765436,-0.010326264104419695,-0.3067324104618932,CTC,1
6.0007,0.15,0.2,0.3,0.16329641237125864,0.2018029402495829,0.30720772604476326,0.0,0.0,0.0,0.9042433500289917,0.12560810148715973,1.0287450551986694,-0.06845389306545258,0.8771653771400452,1.1376384496688843,0.07135749608278275,-0.05194305628538132,-0.08693698793649673,0.02054438553750515,-7.771561172376096e-16,-0.1403866410255432,0.9272849793606268,0.09960459160515128,0.9698931374560298,8.171591013674253e-06,0.8702812010704325,0.9272970782345077,0.1382497759898107,-0.12479126204218631,-0.22871794598981698,0.15335963774293662,-0.010326264104419695,-0.3689544167828466,CTC,1
6.101,0.15,0.2,0.3,0.161137233093017,0.20177574931066466,0.30660285469250065,0.0,0.0,0.0,0.9098135828971863,0.12111736834049225,1.02132248878479,-0.06653641909360886,0.8771653771400452,1.1303521394729614,0.047902658581733704,-0.04060940071940422,-0.06666652858257294,0.013696257025003433,-7.771561172376096e-16,-0.06848128885030746,0.9272849793606268,0.09960459160515128,0.9698931374560298,8.171591013674253e-06,0.8702812010704325,0.9272970782345077,0.10482837878064322,-0.10229486722912556,-0.19428797113582452,0.14404618698924784,-0.010326264104419695,-0.29047223043560044,CTC,1
6.2008,0.15,0.2,0.3,0.1597637282654739,0.20161009692250859,0.3060506013334874,0.0,0.0,0.0,0.9133589863777161,0.11790751665830612,1.015393614768982,-0.06519418209791183,0.8771653771400452,1.1219152212142944,0.03769894689321518,-0.034377604722976685,-0.06406424194574356,0.013696257025003433,-7.771561172376096e-16,-0.1232663169503212,0.9272849793606268,0.09960459160515128,0.9698931374560298,8.171591013674253e-06,0.8702812010704325,0.9272970782345077,0.08355595789746449,-0.08696274210181004,-0.1749399771063026,0.14136171299785377,-0.010326264104419695,-0.3348809478890802,CTC,1
6.3007,0.15,0.2,0.3,0.15831439478231946,0.20141232825906602,0.3055252049610382,0.0,0.0,0.0,0.9167625308036804,0.11465547978878021,1.0095491409301758,-0.06346845626831055,0.8771653771400452,1.115012288093567,0.027392514050006866,-0.028351252898573875,-0.052867550402879715,0.017120322212576866,-7.771561172376096e-16,-0.0616331584751606,0.9272849793606268,0.09960459160515128,0.9698931374560298,8.171591013674253e-06,0.8702812010704325,0.9272970782345077,0.06313469134167837,-0.07154405389394528,-0.15068854066416582,0.14064951348870994,-0.010326264104419712,-0.26688722615062255,CTC,1
6.4007,0.15,0.2,0.3,0.1574049093558885,0.2011582667764677,0.30502879664159943,0.0,0.0,0.0,0.91887366771698,0.11237559467554092,1.0048648118972778,-0.06250971555709839,0.8771653771400452,1.1077258586883545,0.023009711876511574,-0.025098390877246857,-0.05115551874041557,0.017120322212576866,-7.771561172376096e-16,-0.10614599287509918,0.9272849793606268,0.09960459160515128,0.9698931374560298,8.171591013674253e-06,0.8702812010704325,0.9272970782345077,0.05046786986188101,-0.06112336863245731,-0.13560833456799348,0.13873203206628562,-0.010326264104419712,-0.3024947315168287,CTC,1
6.5007,0.15,0.2,0.3,0.15642289005006732,0.20090910208258075,0.3045625386345063,0.0,0.0,0.0,0.9209560751914978,0.11005353182554245,1.000462293624878,-0.061167482286691666,0.8771653771400452,1.1021652221679688,0.017736652866005898,-0.020715588703751564,-0.03937673941254616,0.006848128512501717,-7.771561172376096e-16,-0.04451283439993858,0.9272849793606268,0.09960459160515128,0.9698931374560298,8.171591013674253e-06,0.8702812010704325,0.9272970782345077,0.037973425014774076,-0.0500819963630653,-0.11533351215407213,0.12782981056541204,-0.010326264104419712,-0.23597753603874694,CTC,1
6.6008,0.15,0.2,0.3,0.15577059007507044,0.20067916952049863,0.3041520837981448,0.0,0.0,0.0,0.9222829341888428,0.10842559486627579,0.9968459010124207,-0.05982524901628494,0.8771653771400452,1.0952622890472412,0.013251128606498241,-0.01705184020102024,-0.038863129913806915,0.017120322212576866,-7.771561172376096e-16,-0.09244973212480545,0.9272849793606268,0.09960459160515128,0.9698931374560298,8.171591013674253e-06,0.8702812010704325,0.9272970782345077,0.03001227103070426,-0.04210474912490612,-0.10417616861745675,0.13336309898465876,-0.010326264104419712,-0.27536246937631625,CTC,1
6.7007,0.15,0.2,0.3,0.155117853051848,0.20040997036138322,0.3037093737925904,0.0,0.0,0.0,0.9234967231750488,0.10687052458524704,0.9933657050132751,-0.05963350459933281,0.8771653771400452,1.0910438299179077,0.009929786436259747,-0.01359353493899107,-0.03105626255273819,-9.426983306248587e-16,-7.771561172376096e-16,-0.03424064442515373,0.9272849793606268,0.09960459160515128,0.9698931374560298,8.171591013674253e-06,0.8702812010704325,0.9272970782345077,0.02272953711346793,-0.034501145895979454,-0.08905146020337901,0.11928335238069225,-0.010326264104419712,-0.2136772583883907,CTC,1
6.8007,0.15,0.2,0.3,0.15465546516157813,0.2002124416993354,0.3033791836604133,0.0,0.0,0.0,0.9242809414863586,0.10572578758001328,0.9906869530677795,-0.05848301574587822,0.8771653771400452,1.0852913856506348,0.008183513768017292,-0.011676059104502201,-0.029275748878717422,0.006848128512501717,-7.771561172376096e-16,-0.08560160547494888,0.9272849793606268,0.09960459160515128,0.9698931374560298,8.171591013674253e-06,0.8702812010704325,0.9272970782345077,0.018024227245609037,-0.02915520754124885,-0.07994689616247971,0.12246087748378516,-0.010326264104419712,-0.2576833115231897,CTC,1
6.901,0.15,0.2,0.3,0.15422720801379527,0.1999593506197488,0.3030046433793403,0.0,0.0,0.0,0.9249789118766785,0.1046711802482605,0.9880197644233704,-0.05848301574587822,0.8771653771400452,1.0820317268371582,0.005204577464610338,-0.009142251685261726,-0.02355756238102913,-9.426983306248587e-16,-7.771561172376096e-16,-0.0308165792375803,0.9272849793606268,0.09960459160515128,0.9698931374560298,8.171591013674253e-06,0.8702812010704325,0.9272970782345077,0.013836404903690083,-0.02392325524654155,-0.0685144183306392,0.116982374673783,-0.010326264104419712,-0.20040836111574425,CTC,1
7.0007,0.15,0.2,0.3,0.15390360630792685,0.1997871699041888,0.3027253790415033,0.0,0.0,0.0,0.9254180192947388,0.10385625064373016,0.9859086275100708,-0.05733253061771393,0.8771653771400452,1.0772379636764526,0.0045197647996246815,-0.008354716934263706,-0.022564584389328957,0.017120322212576866,-7.771561172376096e-16,-0.0616331584751606,0.9272849793606268,0.09960459160515128,0.9698931374560298,8.171591013674253e-06,0.8702812010704325,0.9272970782345077,0.01120176039532827,-0.02034852292802101,-0.06158522079572042,0.1283776621875167,-0.010326264104419712,-0.22533546929179682,CTC,1
7.1007,0.15,0.2,0.3,0.15359158847959997,0.19958562625931647,0.30242802953793313,0.0,0.0,0.0,0.9258245229721069,0.10311802476644516,0.9838550090789795,-0.057140786200761795,0.8771653771400452,1.074361801147461,0.0033213424030691385,-0.006197556387633085,-0.018421465530991554,-9.466633977300745e-16,-7.771561172376096e-16,-0.023968450725078583,0.9272849793606268,0.09960459160515128,0.9698931374560298,8.171591013674253e-06,0.8702812010704325,0.9272970782345077,0.00876273833111928,-0.016532755200228746,-0.052938494187444056,0.11429791558355022,-0.010326264104419712,-0.1852602769148256,CTC,1
7.2007,0.15,0.2,0.3,0.15338473397470104,0.1994270669582011,0.3021973734965335,0.0,0.0,0.0,0.9260641932487488,0.10256770998239517,0.9822462201118469,-0.0565655417740345,0.8771653771400452,1.0701433420181274,0.002636529505252838,-0.0060605937615036964,-0.017360005527734756,0.010272192768752575,-7.771561172376096e-16,-0.05136096477508545,0.9272849793606268,0.09960459160515128,0.9698931374560298,8.171591013674253e-06,0.8702812010704325,0.9272970782345077,0.007324716671268219,-0.014276711013577036,-0.04747525128409228,0.12136518094509839,-0.010326264104419712,-0.20746463564156548,CTC,1
7.3007,0.15,0.2,0.3,0.1531335264977478,0.19927777604094316,0.30192421401068714,0.0,0.0,0.0,0.926307737827301,0.10210559517145157,0.9806087017059326,-0.055990297347307205,0.8771653771400452,1.0676506757736206,0.002122919773682952,-0.0042115990072488785,-0.014654994942247868,0.0034240642562508583,-7.771561172376096e-16,-0.013696257025003433,0.9272849793606268,0.09960459160515128,0.9698931374560298,8.171591013674253e-06,0.8702812010704325,0.9272970782345077,0.005863449199954744,-0.011688653868100696,-0.040939689715057216,0.11473618928164245,-0.010326264104419695,-0.16781128917752758,CTC,1
7.4008,0.15,0.2,0.3,0.152982316332929,0.19916351499873608,0.3017398356588169,0.0,0.0,0.0,0.9264745712280273,0.10175853222608566,0.9794026017189026,-0.05579855293035507,0.8770854473114014,1.0651578903198242,0.0016093101585283875,-0.0038007113616913557,-0.012771760113537312,-9.476546380365988e-16,-0.001426693401299417,-0.037664707750082016,0.9272849793606268,0.09960459160515128,0.9698931374560298,8.171591013674253e-06,0.8702812010704325,0.9272970782345077,0.004862448795596838,-0.010136047028414072,-0.036191448856740804,0.11161344904273678,-0.011490393422622772,-0.18855830688892855,CTC,1
7.5008,0.15,0.2,0.3,0.1528255045982282,0.19902859304572573,0.3015382326548077,0.0,0.0,0.0,0.92661452293396,0.10138846188783646,0.9781639575958252,-0.05560680478811264,0.8770854473114014,1.0622817277908325,0.0014381069922819734,-0.003047417150810361,-0.0115390969440341,0.0034240642562508583,-7.771561172376096e-16,-0.017120322212576866,0.9272849793606268,0.09960459160515128,0.9698931374560298,8.171591013674253e-06,0.8702812010704325,0.9272970782345077,0.00402273856000113,-0.008354447991064832,-0.0317359185858067,0.11396920416325329,-0.010206369361454005,-0.16526103028028263,CTC,1
7.6008,0.15,0.2,0.3,0.15270529760987933,0.19894722089344474,0.3013907266052969,0.0,0.0,0.0,0.9267295598983765,0.10116219520568848,0.9772780537605286,-0.05522330850362778,0.8770854473114014,1.0599807500839233,0.0012669038260355592,-0.002465326339006424,-0.009621620178222656,0.0034240642562508583,-7.771561172376096e-16,-0.0410887710750103,0.9272849793606268,0.09960459160515128,0.9698931374560298,8.171591013674253e-06,0.8702812010704325,0.9272970782345077,0.003332516773502096,-0.007216544937751342,-0.02792772102042992,0.11320221159428359,-0.010206369361454005,-0.1862190346878673,CTC,1
7.7009,0.15,0.2,0.3,0.15258957160058279,0.19883870209183177,0.3012366583821744,0.0,0.0,0.0,0.9268292784690857,0.10088224709033966,0.9763346910476685,-0.05522330850362778,0.8770854473114014,1.0567209720611572,0.0008902567205950618,-0.0028077326714992523,-0.008936807513237,-9.476546380365988e-16,-7.771561172376096e-16,-0.03424064442515373,0.9272849793606268,0.09960459160515128,0.9698931374560298,8.171591013674253e-06,0.8702812010704325,0.9272970782345077,0.0027342053492467396,-0.00623371500935321,-0.02468674528285821,0.11046296018928216,-0.010206369361454005,-0.17592211474596514,CTC,1
7.8007,0.15,0.2,0.3,0.15251291677020912,0.19876141336804914,0.3011288475076029,0.0,0.0,0.0,0.92689448595047,0.1006847470998764,0.9756578207015991,-0.05522330850362778,0.8770854473114014,1.0546118021011353,0.0007190534961409867,-0.0020886792335659266,-0.007293256931006908,-9.476546380365988e-16,-7.771561172376096e-16,-0.023968450725078583,0.9272849793606268,0.09960459160515128,0.9698931374560298,8.171591013674253e-06,0.8702812010704325,0.9272970782345077,0.002342960460941063,-0.00515609367232686,-0.021670003895312154,0.11046296018928219,-0.010206369361454005,-0.16353527796386733,CTC,1
7.9007,0.15,0.2,0.3,0.15242093669399676,0.19868378486424992,0.30100518860189324,0.0,0.0,0.0,0.9269596338272095,0.10049299895763397,0.9749272465705872,-0.055031560361385345,0.8770854473114014,1.052310824394226,0.00047936898772604764,-0.001848994754254818,-0.006711165886372328,-9.476546380365988e-16,-7.771561172376096e-16,-0.027392514050006866,0.9272849793606268,0.09960459160515128,0.9698931374560298,8.171591013674253e-06,0.8702812010704325,0.9272970782345077,0.0019520732005040562,-0.00429322731163269,-0.01912902687549551,0.11007946390479732,-0.010206369361454005,-0.16435978454469696,CTC,1
8.0007,0.15,0.2,0.3,0.1523537676746895,0.19862721142923362,0.3009247735570274,0.0,0.0,0.0,0.9270037412643433,0.10033193230628967,0.9743826985359192,-0.054839812219142914,0.8770854473114014,1.0503933429718018,0.0004451283602975309,-0.0014038663357496262,-0.005923631135374308,0.0034240642562508583,-7.771561172376096e-16,-0.017120322212576866,0.9272849793606268,0.09960459160515128,0.9698931374560298,8.171591013674253e-06,0.8702812010704325,0.9272970782345077,0.0016874285777013116,-0.0034709093388534096,-0.017022861920892793,0.11243521902531389,-0.010206369361454005,-0.1521838069793488,CTC,1
8.1008,0.15,0.2,0.3,0.1522911815207324,0.1985589935495396,0.3008224704284867,0.0,0.0,0.0,0.9270363450050354,0.10018812119960785,0.9738189578056335,-0.054839812219142914,0.8770854473114014,1.0484758615493774,0.00034240641980431974,-0.0014381069922819734,-0.004588245879858732,-9.476546380365988e-16,-7.771561172376096e-16,-0.017120322212576866,0.9272849793606268,0.09960459160515128,0.9698931374560298,8.171591013674253e-06,0.8702812010704325,0.9272970782345077,0.0014918061335484885,-0.002909361174739061,-0.014530408576726526,0.10969596762031242,-0.010206369361454005,-0.15007457741468205,CTC,1
8.2007,0.15,0.2,0.3,0.15224426594562884,0.198511649724255,0.30074943237923585,0.0,0.0,0.0,0.9270747303962708,0.10009416192770004,0.9734047651290894,-0.054839812219142914,0.8770854473114014,1.0467501878738403,0.00037664707633666694,-0.0010272192303091288,-0.00407463638111949,-9.476546380365988e-16,-7.771561172376096e-16,-0.017120322212576866,0.9272849793606268,0.09960459160515128,0.9698931374560298,8.171591013674253e-06,0.8702812010704325,0.9272970782345077,0.0012614937861363806,-0.0023691689823186943,-0.012979664847850408,0.10969596762031243,-0.010206369361454005,-0.14817633637159122,CTC,1
8.3008,0.15,0.2,0.3,0.15219531828288077,0.198459999730703,0.30067219672250833,0.0,0.0,0.0,0.9271053671836853,0.09999062120914459,0.972965657711029,-0.054839812219142914,0.8770854473114014,1.044832706451416,0.00020544385188259184,-0.0008217754075303674,-0.0036295081954449415,-9.476546380365988e-16,-7.771561172376096e-16,-0.013696257025003433,0.9272849793606268,0.09960459160515128,0.9698931374560298,8.171591013674253e-06,0.8702812010704325,0.9272970782345077,0.0010776730616490755,-0.0018728285789853798,-0.011395265682264774,0.10969596762031243,-0.010206369361454005,-0.14271152292310252,CTC,1
8.4007,0.15,0.2,0.3,0.1521550044064975,0.19843118362933707,0.3006127999582373,0.0,0.0,0.0,0.9271264672279358,0.09994076937437057,0.9726396799087524,-0.05464806407690048,0.8770854473114014,1.043873906135559,0.00020544385188259184,-0.0005136096151545644,-0.003526786109432578,-9.476546380365988e-16,-7.771561172376096e-16,-0.013696257025003433,0.9272849793606268,0.09960459160515128,0.9698931374560298,8.171591013674253e-06,0.8702812010704325,0.9272970782345077,0.0009510727961461467,-0.001550154922938999,-0.010355699023827512,0.1093124713358276,-0.010206369361454005,-0.14165684257565989,CTC,1
8.501,0.15,0.2,0.3,0.15211896994806878,0.19839114740466135,0.300555420671319,0.0,0.0,0.0,0.9271456599235535,0.09985639899969101,0.972304105758667,-0.05464806407690048,0.8770854473114014,1.0425317287445068,0.00020544385188259184,-0.0008217754075303674,-0.00308165792375803,-9.476546380365988e-16,-7.771561172376096e-16,2.252166797850276e-15,0.9272849793606268,0.09960459160515128,0.9698931374560298,8.171591013674253e-06,0.8702812010704325,0.9272970782345077,0.0008359166224401,-0.0013359397411710464,-0.009081899662166448,0.10931247133582755,-0.010206369361454005,-0.12675811556099686,CTC,1
8.6007,0.15,0.2,0.3,0.1520926797386719,0.1983632778149365,0.3005081930191837,0.0,0.0,0.0,0.9271648526191711,0.09981421381235123,0.9720568060874939,-0.05464806407690048,0.8770854473114014,1.04157292842865,0.00017120320990215987,-0.00034240641980431974,-0.0025680481921881437,-9.476546380365988e-16,-7.771561172376096e-16,-0.017120322212576866,0.9272849793606268,0.09960459160515128,0.9698931374560298,8.171591013674253e-06,0.8702812010704325,0.9272970782345077,0.0007207604487340269,-0.00097545139672151,-0.008031834809705225,0.1093124713358276,-0.010206369361454005,-0.14248135098188175,CTC,1
8.7008,0.15,0.2,0.3,0.1520632987993211,0.19832972205588006,0.3004513066932487,0.0,0.0,0.0,0.92717444896698,0.09977394342422485,0.9717768430709839,-0.05464806407690048,0.8770854473114014,1.0371627807617188,6.848128396086395e-05,-0.00034240641980431974,-0.0025338076520711184,-9.476546380365988e-16,-7.771561172376096e-16,-0.07190535217523575,0.9272849793606268,0.09960459160515128,0.9698931374560298,8.171591013674253e-06,0.8702812010704325,0.9272970782345077,0.0006631823618810117,-0.0008143698442160162,-0.007171401436104985,0.10931247133582755,-0.010206369361454005,-0.19131951791166318,CTC,1
8.8007,0.15,0.2,0.3,0.15180601381710135,0.1985103019415823,0.30040328146328266,0.0,0.0,0.0,0.9272146821022034,0.0997375100851059,0.9715774059295654,-0.0481286458671093,0.8766061067581177,1.0335195064544678,0.00023968449386302382,-0.00037664707633666694,-0.0016093101585283875,0.0308165792375803,-0.002853386802598834,-0.02054438553750515,0.9272849793606268,0.09960459160515128,0.9698931374560298,8.171591013674253e-06,0.8702812010704325,0.9272970782345077,0.0004217835505406838,-0.000682332750353129,-0.0060183915157239615,0.12092689830631019,-0.01205540665386671,-0.13697816886871111,CTC,1
8.9007,0.15,0.2,0.3,0.151765505470785,0.19850892702470835,0.30036493670464887,0.0,0.0,0.0,0.9272280931472778,0.09970683604478836,0.9713894724845886,-0.047745153307914734,0.8765262365341187,1.0335195064544678,0.00010272192594129592,-0.00020544385188259184,-0.0016093101585283875,0.0034240642562508583,-0.001426693401299417,2.252166797850276e-15,0.9272849793606268,0.09960459160515128,0.9698931374560298,8.171591013674253e-06,0.8702812010704325,0.9272970782345077,0.0003413172800938928,-0.0004911552993013483,-0.005454591180793553,0.09824590120285752,-0.010651577256698708,-0.11684467104195388,CTC,1
9.0008,0.15,0.2,0.3,0.1517401534027987,0.19851108565083697,0.30033372782100687,0.0,0.0,0.0,0.9272395968437195,0.09968765825033188,0.9712399244308472,-0.04736165702342987,0.8763664364814758,1.0304515361785889,6.848128396086395e-05,-0.00023968449386302382,-0.0014381069922819734,0.0034240642562508583,-0.001426693401299417,-0.0308165792375803,0.9272849793606268,0.09960459160515128,0.9698931374560298,8.171591013674253e-06,0.8702812010704325,0.9272970782345077,0.0002722951014439964,-0.0004281403782675985,-0.004903225119821341,0.0974789086338878,-0.010411877177734478,-0.143670151391318,CTC,1
9.1008,0.15,0.2,0.3,0.1517280913836138,0.19849766359984927,0.3003051048142952,0.0,0.0,0.0,0.9272453784942627,0.09966272860765457,0.9710769653320312,-0.04736165702342987,0.876286506652832,1.030068039894104,6.848128396086395e-05,-0.00023968449386302382,-0.0017462727846577764,-9.238641295261857e-16,-7.771561172376096e-16,2.252166797850276e-15,0.9272849793606268,0.09960459160515128,0.9698931374560298,8.171591013674253e-06,0.8702812010704325,0.9272970782345077,0.00023760519818471424,-0.00032842180755836726,-0.004599247298799049,0.09473965722888635,-0.009007958373600009,-0.11304805782555374,CTC,1
9.2007,0.15,0.2,0.3,0.1517133427348879,0.1984795880300377,0.30027139077564957,0.0,0.0,0.0,0.9272491931915283,0.09965122491121292,0.9709293246269226,-0.04736165702342987,0.876206636428833,1.0296846628189087,3.4240641980431974e-05,-0.0001369625679217279,-0.001232663169503212,-9.238641295261857e-16,-0.001426693401299417,-0.006848128512501717,0.9272849793606268,0.09960459160515128,0.9698931374560298,8.171591013674253e-06,0.8702812010704325,0.9272970782345077,0.00021471701459097387,-0.00024131825141524146,-0.003848159414380399,0.09473965722888635,-0.010172177098770233,-0.11933750898509277,CTC,1
9.3013,0.15,0.2,0.3,0.1516966092606287,0.1984736524730067,0.30024348639152515,0.0,0.0,0.0,0.9272511005401611,0.09964163601398468,0.970798909664154,-0.04716990888118744,0.876206636428833,1.0281506776809692,3.4240641980431974e-05,-0.0001369625679217279,-0.0011641818564385176,0.0034240642562508583,-7.771561172376096e-16,-0.02054438553750515,0.9272849793606268,0.09960459160515128,0.9698931374560298,8.171591013674253e-06,0.8702812010704325,0.9272970782345077,0.0002032729227940971,-0.0002029626625022781,-0.003415825738235918,0.09709541234940292,-0.008888153037601468,-0.13107245721786276,CTC,1
9.4009,0.15,0.2,0.3,0.15148033021300386,0.19863818362923477,0.300217111455474,0.0,0.0,0.0,0.927268385887146,0.09961671382188797,0.9706953763961792,-0.041609227657318115,0.8758071660995483,1.022206425666809,0.0001369625679217279,-0.0001369625679217279,-0.0008560160640627146,0.02054438553750515,-0.0042800805531442165,-0.006848128512501717,0.9272849793606268,0.09960459160515128,0.9698931374560298,8.171591013674253e-06,0.8702812010704325,0.9272970782345077,9.956084088492068e-05,-0.00010327389411543748,-0.0029203264588858607,0.0996703069266677,-0.012141020041503558,-0.1111114481177832,CTC,1
9.5007,0.15,0.2,0.3,0.15145067226611927,0.1986530509181499,0.3001975742797499,0.0,0.0,0.0,0.9272875785827637,0.0996013730764389,0.9705975651741028,-0.04103398695588112,0.8755674958229065,1.0216312408447266,0.0001369625679217279,-0.0001369625679217279,-0.0010272192303091288,0.006848128512501717,-0.002853386802598834,2.252166797850276e-15,0.9272849793606268,0.09960459160515128,0.9698931374560298,8.171591013674253e-06,0.8702812010704325,0.9272970782345077,-1.5595332821128488e-05,-4.191091231917127e-05,-0.0027296146924044836,0.08756281990379097,-0.010497490251049943,-0.10376757887123855,CTC,1
9.6007,0.15,0.2,0.3,0.1514383709572172,0.1986529867415066,0.30018022790916754,0.0,0.0,0.0,0.9272894859313965,0.09959369897842407,0.970518946647644,-0.04084223881363869,0.8754875659942627,1.0216312408447266,1.268826370578278e-16,-6.848128396086395e-05,-0.0007190534961409867,-9.30803023430093e-16,-0.001426693401299417,2.252166797850276e-15,0.9272849793606268,0.09960459160515128,0.9698931374560298,8.171591013674253e-06,0.8702812010704325,0.9272970782345077,-2.703942461801549e-05,1.6177993324497205e-05,-0.0023088596725273506,0.081700820809304,-0.009093571446914767,-0.10376757887123855,CTC,1
9.7007,0.15,0.2,0.3,0.15143424348785955,0.19864928907605828,0.3001653343828757,0.0,0.0,0.0,0.9272933006286621,0.09958794713020325,0.9704461097717285,-0.04084223881363869,0.8754875659942627,1.0216312408447266,3.4240641980431974e-05,-6.848128396086395e-05,-0.0007532941526733339,-9.30803023430093e-16,-7.771561172376096e-16,2.252166797850276e-15,0.9272849793606268,0.09960459160515128,0.9698931374560298,8.171591013674253e-06,0.8702812010704325,0.9272970782345077,-4.992760821176314e-05,3.918538620780392e-05,-0.002110893438700188,0.081700820809304,-0.007809547385745994,-0.10376757887123855,CTC,1
9.8007,0.15,0.2,0.3,0.15124340095079758,0.19881474698644166,0.3001454265650936,0.0,0.0,0.0,0.9273048043251038,0.09957261383533478,0.9703809022903442,-0.03528155758976936,0.8749282956123352,1.0149199962615967,0.00010272192594129592,-0.0001369625679217279,-0.00047936898772604764,0.0308165792375803,-0.0042800805531442165,-0.023968450725078583,0.9272849793606268,0.09960459160515128,0.9698931374560298,8.171591013674253e-06,0.8702812010704325,0.9272970782345077,-0.00011894978686166673,7.312605209732872e-05,-0.001750915895578981,0.09523272175163033,-0.010822714310683861,-0.11987429154037489,CTC,1
9.9008,0.15,0.2,0.3,0.15121773223175317,0.19882907660397003,0.30013518725366445,0.0,0.0,0.0,0.9273124933242798,0.09956110268831253,0.9703252911567688,-0.0348980613052845,0.8747684955596924,1.014728307723999,0.00010272192594129592,-0.00010272192594129592,-0.0007190534961409867,0.0034240642562508583,-0.001426693401299417,-0.0034240642562508583,0.9272849793606268,0.09960459160515128,0.9698931374560298,8.171591013674253e-06,0.8702812010704325,0.9272970782345077,-0.0001650837819178246,0.00013286689697848296,-0.0017278931999016448,0.07255171719759705,-0.008014965795059305,-0.09952993540956631,CTC,1
10.0008,0.15,0.2,0.3,0.15119903487243674,0.19883735248431583,0.3001224758756158,0.0,0.0,0.0,0.9273182153701782,0.0995534360408783,0.9702658653259277,-0.03470631688833237,0.8747684955596924,1.014728307723999,3.4240641980431974e-05,-6.848128396086395e-05,-0.0005136096151545644,-9.288205428170443e-16,-7.771561172376096e-16,2.252166797850276e-15,0.9272849793606268,0.09960459160515128,0.9698931374560298,8.171591013674253e-06,0.8702812010704325,0.9272970782345077,-0.0001994160573084411,0.00017722974350760086,-0.0014263493787865845,0.06942897695869132,-0.006730941733890528,-0.09617435243843828,CTC,1
10.1011,0.15,0.2,0.3,0.1511976425652624,0.1988372691876198,0.300115558551993,0.0,0.0,0.0,0.927320122718811,0.09954576939344406,0.9702274799346924,-0.03470631688833237,0.8746886253356934,1.014728307723999,1.268826370578278e-16,-0.00010272192594129592,-0.0004451283602975309,-9.288205428170443e-16,-0.001426693401299417,2.252166797850276e-15,0.9272849793606268,0.09960459160515128,0.9698931374560298,8.171591013674253e-06,0.8702812010704325,0.9272970782345077,-0.00021086014910531506,0.00019420007645236793,-0.0012701044521663042,0.06942897695869137,-0.007895160459060763,-0.09617435243843828,CTC,1
10.2007,0.15,0.2,0.3,0.1511933476133552,0.1988323609131601,0.3001063771938884,0.0,0.0,0.0,0.9273220896720886,0.09954193234443665,0.9701853394508362,-0.03470631688833237,0.8746886253356934,1.0145364999771118,1.268826370578278e-16,-3.4240641980431974e-05,-0.00037664707633666694,-9.288205428170443e-16,-7.771561172376096e-16,2.252166797850276e-15,0.9272849793606268,0.09960459160515128,0.9698931374560298,8.171591013674253e-06,0.8702812010704325,0.9272970782345077,-0.00022266186877084357,0.00023694078606638136,-0.0011025942302211916,0.06942897695869132,-0.0066111363978919955,-0.09596336391686235,CTC,1
10.3008,0.15,0.2,0.3,0.15105922955082268,0.19893118898018983,0.30009077313988786,0.0,0.0,0.0,0.9273259043693542,0.09953618049621582,0.9701278209686279,-0.03087136335670948,0.8744489550590515,1.0085923671722412,3.4240641980431974e-05,-0.00010272192594129592,-0.000616331584751606,0.06848128885030746,-0.0042800805531442165,-0.1027219295501709,0.9272849793606268,0.09960459160515128,0.9698931374560298,8.171591013674253e-06,0.8702812010704325,0.9272970782345077,-0.0002455500523645973,0.0002325556653653396,-0.0010738494886454058,0.11654410097569229,-0.010103703480758331,-0.19009230879067437,CTC,1
10.4007,0.15,0.2,0.3,0.15102255501102463,0.19897642615719158,0.30008379230310345,0.0,0.0,0.0,0.9273297190666199,0.0995323434472084,0.9701009392738342,-0.030104372650384903,0.8741293549537659,1.0084006786346436,1.268826370578278e-16,-3.4240641980431974e-05,-0.00020544385188259184,-9.293161629703064e-16,-0.002853386802598834,2.252166797850276e-15,0.9272849793606268,0.09960459160515128,0.9698931374560298,8.171591013674253e-06,0.8702812010704325,0.9272970782345077,-0.00026843823595834425,0.000275296374979347,-0.0007466717645428742,0.06022508848279639,-0.008340278947339012,-0.08921396044014726,CTC,1
10.5007,0.15,0.2,0.3,0.15101822329086712,0.19898707826185472,0.30007923858258356,0.0,0.0,0.0,0.9273316264152527,0.09952659159898758,0.9700779318809509,-0.02991262450814247,0.8740494847297668,1.0082088708877563,3.4240641980431974e-05,-3.4240641980431974e-05,-0.00023968449386302382,0.0034240642562508583,-7.771561172376096e-16,2.252166797850276e-15,0.9272849793606268,0.09960459160515128,0.9698931374560298,8.171591013674253e-06,0.8702812010704325,0.9272970782345077,-0.00027988232775521735,0.0002983037678626393,-0.000698193971081251,0.06258084360331298,-0.005652425489002219,-0.08900297191857132,CTC,1
10.6007,0.15,0.2,0.3,0.15101520506556473,0.1989830534611297,0.3000717826192662,0.0,0.0,0.0,0.9273335933685303,0.09952083975076675,0.9700415134429932,-0.02991262450814247,0.8740494847297668,1.007250189781189,3.4240641980431974e-05,-6.848128396086395e-05,-0.0004108877037651837,-9.293161629703064e-16,-7.771561172376096e-16,2.252166797850276e-15,0.9272849793606268,0.09960459160515128,0.9698931374560298,8.171591013674253e-06,0.8702812010704325,0.9272970782345077,-0.0002916840474207459,0.0003076149039537696,-0.0006916605831492329,0.05984159219831156,-0.005652425489002219,-0.0879484227013472,CTC,1
10.7008,0.15,0.2,0.3,0.15100493230299358,0.1989854865087731,0.30006636511785123,0.0,0.0,0.0,0.9273335933685303,0.09952083975076675,0.9700185060501099,-0.02972087822854519,0.8740494847297668,1.0064831972122192,1.268826370578278e-16,4.847312906153343e-15,-0.00017120320990215987,0.0034240642562508583,-7.771561172376096e-16,-0.010272192768752575,0.9272849793606268,0.09960459160515128,0.9698931374560298,8.171591013674253e-06,0.8702812010704325,0.9272970782345077,-0.0002916840474207401,0.0003350074175400557,-0.0004788277081815228,0.06219735104411842,-0.005652425489002219,-0.09717147978886025,CTC,1
10.8008,0.15,0.2,0.3,0.1510032897914295,0.19898329621088115,0.30006195275594055,0.0,0.0,0.0,0.9273335933685303,0.09952083975076675,0.9699974060058594,-0.02972087822854519,0.8740494847297668,1.0064831972122192,1.268826370578278e-16,4.847312906153343e-15,-0.00020544385188259184,-9.293161629703064e-16,-7.771561172376096e-16,2.252166797850276e-15,0.9272849793606268,0.09960459160515128,0.9698931374560298,8.171591013674253e-06,0.8702812010704325,0.9272970782345077,-0.0002916840474207401,0.0003350074175400557,-0.0004360719606183253,0.059458099639116975,-0.005652425489002219,-0.0871047308754805,CTC,1
10.9009,0.15,0.2,0.3,0.1510024685165945,0.19898220103652886,0.3000597465946898,0.0,0.0,0.0,0.9273335933685303,0.09952083975076675,0.9699859023094177,-0.02972087822854519,0.8740494847297668,1.0064831972122192,1.268826370578278e-16,4.847312906153343e-15,-0.00017120320990215987,-9.293161629703064e-16,-7.771561172376096e-16,2.252166797850276e-15,0.9272849793606268,0.09960459160515128,0.9698931374560298,8.171591013674253e-06,0.8702812010704325,0.9272970782345077,-0.0002916840474207401,0.0003350074175400557,-0.00038101648610511544,0.059458099639116975,-0.005652425489002219,-0.0871047308754805,CTC,1
11.0008,0.15,0.2,0.3,0.15087556369392324,0.19908983558386228,0.3000535476506173,0.0,0.0,0.0,0.9273355007171631,0.09951891750097275,0.9699705839157104,-0.026077672839164734,0.873809814453125,1.0007307529449463,3.4240641980431974e-05,-3.4240641980431974e-05,-0.00020544385188259184,0.0410887710750103,-0.0042800805531442165,-0.013696257025003433,0.9272849793606268,0.09960459160515128,0.9698931374560298,8.171591013674253e-06,0.8702812010704325,0.9272970782345077,-0.00030312813921762165,0.00032900015992196735,-0.0003556056901715491,0.08504270572036507,-0.009144992571868557,-0.09419937406598583,CTC,1
11.1007,0.15,0.2,0.3,0.1508542990435918,0.1991075509362749,0.30004860981190307,0.0,0.0,0.0,0.9273355007171631,0.09951700270175934,0.9699532985687256,-0.02569417841732502,0.8737298846244812,1.000538945198059,1.268826370578278e-16,4.847312906153343e-15,-0.00017120320990215987,0.0034240642562508583,-7.771561172376096e-16,-0.0034240642562508583,0.9272849793606268,0.09960459160515128,0.9698931374560298,8.171591013674253e-06,0.8702812010704325,0.9272970782345077,-0.0003031281392176342,0.0003503556135697134,-0.00028320526402869417,0.054143951421678084,-0.005173025331073757,-0.0839216366310324,CTC,1
11.2007,0.15,0.2,0.3,0.15085293467710648,0.19910652568963266,0.30004596503651876,0.0,0.0,0.0,0.9273374080657959,0.09951700270175934,0.9699417948722839,-0.025502430275082588,0.8737298846244812,1.0003472566604614,3.4240641980431974e-05,4.847312906153343e-15,-0.00010272192594129592,0.0034240642562508583,-7.771561172376096e-16,-0.0034240642562508583,0.9272849793606268,0.09960459160515128,0.9698931374560298,8.171591013674253e-06,0.8702812010704325,0.9272970782345077,-0.0003145722310144984,0.0003503556135697134,-0.0002076054043272343,0.053760455137193214,-0.005173025331073757,-0.08371077923967496,CTC,1
11.3007,0.15,0.2,0.3,0.15085015412140695,0.19911919518015395,0.30004354498267466,0.0,0.0,0.0,0.9273393154144287,0.09951700270175934,0.9699341058731079,-0.025502430275082588,0.8735700845718384,1.0003472566604614,1.268826370578278e-16,4.847312906153343e-15,-3.4240641980431974e-05,-9.233685093729235e-16,-7.771561172376096e-16,2.252166797850276e-15,0.9272849793606268,0.09960459160515128,0.9698931374560298,8.171591013674253e-06,0.8702812010704325,0.9272970782345077,-0.0003260163228113769,0.0003503556135697134,-0.00014344963642262123,0.051021203732191815,-0.004933325252109525,-0.08035519626854691,CTC,1
11.4008,0.15,0.2,0.3,0.15084216125664313,0.19912384537874306,0.3000425292544202,0.0,0.0,0.0,0.9273393154144287,0.09951508790254593,0.9699283838272095,-0.025310682132840157,0.8735700845718384,1.0001554489135742,1.268826370578278e-16,-3.4240641980431974e-05,-3.4240641980431974e-05,-9.233685093729235e-16,-7.771561172376096e-16,2.252166797850276e-15,0.9272849793606268,0.09960459160515128,0.9698931374560298,8.171591013674253e-06,0.8702812010704325,0.9272970782345077,-0.0003260163228113769,0.0003443185536292473,-0.00012628349872731862,0.05063770744770695,-0.004933325252109525,-0.08014420774697098,CTC,1
11.5008,0.15,0.2,0.3,0.15072314879850746,0.19922575375690504,0.30003567946463017,0.0,0.0,0.0,0.9273393154144287,0.09951508790254593,0.969907283782959,-0.022050973027944565,0.8733304142951965,0.9949783086776733,1.268826370578278e-16,4.847312906153343e-15,-0.00017120320990215987,0.010272192768752575,-7.771561172376096e-16,-0.0034240642562508583,0.9272849793606268,0.09960459160515128,0.9698931374560298,8.171591013674253e-06,0.8702812010704325,0.9272970782345077,-0.0003260163228113769,0.0003580148104233613,-0.00014516090672888574,0.052336043452918535,-0.00457381983714675,-0.07780493645860807,CTC,1
11.6008,0.15,0.2,0.3,0.15072355689479297,0.19924195525147714,0.3000328360982775,0.0,0.0,0.0,0.9273393154144287,0.09951508790254593,0.9698976874351501,-0.021859226748347282,0.8730907440185547,0.994403064250946,1.268826370578278e-16,4.847312906153343e-15,-0.0001369625679217279,0.0034240642562508583,-0.002853386802598834,-0.010272192768752575,0.9272849793606268,0.09960459160515128,0.9698931374560298,8.171591013674253e-06,0.8702812010704325,0.9272970782345077,-0.0003260163228113769,0.0003580148104233613,-9.582747811411505e-05,0.046474048083722595,-0.006782362544522233,-0.0838833335314597,CTC,1
11.7007,0.15,0.2,0.3,0.15072290382802522,0.19924108437309423,0.3000310818234442,0.0,0.0,0.0,0.9273393154144287,0.09951508790254593,0.9698900580406189,-0.021859226748347282,0.8730907440185547,0.994403064250946,1.268826370578278e-16,4.847312906153343e-15,-0.00010272192594129592,-9.30803023430093e-16,-7.771561172376096e-16,2.252166797850276e-15,0.9272849793606268,0.09960459160515128,0.9698931374560298,8.171591013674253e-06,0.8702812010704325,0.9272970782345077,-0.0003260163228113769,0.0003580148104233613,-5.239490933210605e-05,0.04373479667872119,-0.0042143144221839825,-0.07381658461808002,CTC,1
11.8008,0.15,0.2,0.3,0.15072240892051716,0.1992404244034379,0.30002975241757857,0.0,0.0,0.0,0.9273393154144287,0.09951508790254593,0.9698842763900757,-0.021859226748347282,0.8730907440185547,0.994403064250946,1.268826370578278e-16,4.847312906153343e-15,-6.848128396086395e-05,-9.30803023430093e-16,-7.771561172376096e-16,2.252166797850276e-15,0.9272849793606268,0.09960459160515128,0.9698931374560298,8.171591013674253e-06,0.8702812010704325,0.9272970782345077,-0.0003260163228113769,0.0003580148104233613,-1.4505572514212522e-05,0.04373479667872116,-0.0042143144221839825,-0.07381658461808002,CTC,1
11.9007,0.15,0.2,0.3,0.15066947797185373,0.19927696900510272,0.3000260658341174,0.0,0.0,0.0,0.9273393154144287,0.09951316565275192,0.969872772693634,-0.019941750913858414,0.8730108141899109,0.9892258644104004,1.268826370578278e-16,-3.4240641980431974e-05,-0.0001369625679217279,0.03424064442515373,-0.001426693401299417,-0.09244973212480545,0.9272849793606268,0.09960459160515128,0.9698931374560298,8.171591013674253e-06,0.8702812010704325,0.9272970782345077,-0.0003260163228113769,0.0003520075528052645,-2.108325356577538e-05,0.06729236054986715,-0.005378443740387054,-0.15872240227579132,CTC,1
12.0007,0.15,0.2,0.3,0.15062416576660762,0.19933948853852532,0.30002361656701043,0.0,0.0,0.0,0.9273393154144287,0.09951316565275192,0.9698670506477356,-0.018791263923048973,0.8726113438606262,0.9888423681259155,1.268826370578278e-16,4.847312906153343e-15,-6.848128396086395e-05,0.010272192768752575,-0.002853386802598834,2.252166797850276e-15,0.9272849793606268,0.09960459160515128,0.9698931374560298,8.171591013674253e-06,0.8702812010704325,0.9272970782345077,-0.0003260163228113769,0.0003657038095993809,3.7171654506046556e-05,0.04581662524312736,-0.00606326230762954,-0.06769981888054645,CTC,1
12.1007,0.15,0.2,0.3,0.15061920885949043,0.199348278705122,0.3000221424835724,0.0,0.0,0.0,0.9273393154144287,0.09951316565275192,0.9698612689971924,-0.018791263923048973,0.8726113438606262,0.9886506199836731,1.268826370578278e-16,4.847312906153343e-15,-6.848128396086395e-05,-9.293161629703064e-16,-7.771561172376096e-16,2.252166797850276e-15,0.9272849793606268,0.09960459160515128,0.9698931374560298,8.171591013674253e-06,0.8702812010704325,0.9272970782345077,-0.0003260163228113769,0.0003657038095993809,5.4516606135686e-05,0.03759887102812453,-0.0034952141852912844,-0.06748889592407978,CTC,1
12.2007,0.15,0.2,0.3,0.15062182872240967,0.1993518728041635,0.30002125367012117,0.0,0.0,0.0,0.9273393154144287,0.09951316565275192,0.9698574542999268,-0.018791263923048973,0.8725314736366272,0.9882671236991882,1.268826370578278e-16,4.847312906153343e-15,-3.4240641980431974e-05,-9.293161629703064e-16,-7.771561172376096e-16,2.252166797850276e-15,0.9272849793606268,0.09960459160515128,0.9698931374560298,8.171591013674253e-06,0.8702812010704325,0.9272970782345077,-0.0003260163228113769,0.0003657038095993809,8.650508312083141e-05,0.03759887102812456,-0.003375408849292746,-0.0670670500111464,CTC,1
12.3008,0.15,0.2,0.3,0.15061703729536183,0.19936088048967582,0.3000202202919819,0.0,0.0,0.0,0.9273393154144287,0.09951316565275192,0.9698535799980164,-0.01859951764345169,0.8724515438079834,0.9882671236991882,1.268826370578278e-16,4.847312906153343e-15,-3.4240641980431974e-05,0.0034240642562508583,-0.001426693401299417,2.252166797850276e-15,0.9272849793606268,0.09960459160515128,0.9698931374560298,8.171591013674253e-06,0.8702812010704325,0.9272970782345077,-0.0003260163228113769,0.0003657038095993809,9.812798885203353e-05,0.03995462987393141,-0.0045395381674958185,-0.06706705001114636,CTC,1
12.4008,0.15,0.2,0.3,0.15061671073402427,0.1993604450132069,0.30001934303290606,0.0,0.0,0.0,0.9273393154144287,0.09951316565275192,0.9698497653007507,-0.018216021358966827,0.8724515438079834,0.9855826497077942,1.268826370578278e-16,4.847312906153343e-15,-6.848128396086395e-05,0.006848128512501717,-7.771561172376096e-16,-0.047936901450157166,0.9272849793606268,0.09960459160515128,0.9698931374560298,8.171591013674253e-06,0.8702812010704325,0.9272970782345077,-0.0003260163228113642,0.0003657038095993809,8.902769546062787e-05,0.04192688870996238,-0.003255514106327045,-0.11109229204176921,CTC,1
12.5009,0.15,0.2,0.3,0.15053934771493255,0.1994411932697656,0.3000169555952286,0.0,0.0,0.0,0.9273393154144287,0.09951316565275192,0.9698459506034851,-0.01629854552447796,0.8721320033073425,0.9838569164276123,1.268826370578278e-16,4.847312906153343e-15,-3.4240641980431974e-05,0.0034240642562508583,-7.771561172376096e-16,2.252166797850276e-15,0.9272849793606268,0.09960459160515128,0.9698931374560298,8.171591013674253e-06,0.8702812010704325,0.9272970782345077,-0.0003260163228113769,0.0003657038095993809,0.00012101617244577743,0.03535268563598393,-0.0027762033553657495,-0.06221582201241287,CTC,1
12.6007,0.15,0.2,0.3,0.1505390160434718,0.19944075097883845,0.3000160645606434,0.0,0.0,0.0,0.9273393154144287,0.09951316565275192,0.9698420763015747,-0.01629854552447796,0.8721320033073425,0.9838569164276123,1.268826370578278e-16,4.847312906153343e-15,-3.4240641980431974e-05,-9.298117831235686e-16,-7.771561172376096e-16,2.252166797850276e-15,0.9272849793606268,0.09960459160515128,0.9698931374560298,8.171591013674253e-06,0.8702812010704325,0.9272970782345077,-0.0003260163228113769,0.0003657038095993809,0.00013263907817698479,0.032613434230982515,-0.0027762033553657495,-0.06221582201241287,CTC,1
12.7007,0.15,0.2,0.3,0.15054164452791563,0.1994443433583425,0.3000151780459904,0.0,0.0,0.0,0.9273393154144287,0.09951316565275192,0.9698363542556763,-0.01629854552447796,0.8720520734786987,0.9834734201431274,1.268826370578278e-16,4.847312906153343e-15,-6.848128396086395e-05,-9.298117831235686e-16,-0.001426693401299417,2.252166797850276e-15,0.9272849793606268,0.09960459160515128,0.9698931374560298,8.171591013674253e-06,0.8702812010704325,0.9272970782345077,-0.0003260163228113769,0.0003657038095993809,0.00012926083068402327,0.032613434230982515,-0.003940332673568818,-0.06179397609947951,CTC,1
12.8007,0.15,0.2,0.2,0.1505339205110683,0.19944933551509728,0.30001418702181837,0.0,0.0,0.0,0.9273393154144287,0.09951316565275192,0.9698344469070435,-0.016106797382235527,0.8720520734786987,0.9834734201431274,1.268826370578278e-16,4.847312906153343e-15,1.8080775880002136e-15,0.0034240642562508583,-7.771561172376096e-16,2.252166797850276e-15,0.9273393099322168,0.09954175694630754,0.9698189129557001,-0.016105112826432642,0.8720077665445575,0.9834675479503628,-4.1047103550290315e-06,0.020063499119665627,-0.010535678735776932,0.0038421917765814576,-0.028488788488553338,-0.003720548174886479,CTC,1
12.9008,0.15,0.2,0.2,0.15051140055523066,0.19946518162571636,0.3000129629983356,0.0,0.0,0.0,0.9273393154144287,0.09951316565275192,0.9698305726051331,-0.014764565043151379,0.8720520734786987,0.9798302054405212,1.268826370578278e-16,4.847312906153343e-15,-3.4240641980431974e-05,0.023968450725078583,-7.771561172376096e-16,-0.06505721807479858,0.9273390792308595,0.10074493010666705,0.9691652162877159,-0.016034223682322483,0.8701432509054549,0.9832204354959004,-8.595573699694784e-06,0.03411098286928396,-0.015630346141148027,0.01786861177576096,-0.03210017058965702,-0.06356267880825336,CTC,1
13.0007,0.15,0.2,0.2,0.1504756492589641,0.19949404709268725,0.3000070930131421,0.0,0.0,0.0,0.9273393154144287,0.09952850639820099,0.9697979688644409,-0.01438106968998909,0.8719722032546997,0.9790632128715515,1.268826370578278e-16,0.0002739251358434558,-0.0005478502716869116,0.0034240642562508583,-7.771561172376096e-16,2.252166797850276e-15,0.9273385266465771,0.10362681422252261,0.9675994582521158,-0.01586442742594937,0.8656772952299738,0.9826285427569265,-1.4782235790425269e-05,0.054184992241312485,-0.02339603296455263,0.0011248749969762356,-0.03930494068124226,0.0005690837758575234,CTC,1
13.1008,0.15,0.2,0.2,0.15045098599888151,0.19950725733118166,0.29981291346568756,0.0,0.0,0.0,0.9273393154144287,0.10007499158382416,0.9694259762763977,-0.013997574336826801,0.8717325329780579,0.9790632128715515,1.268826370578278e-16,0.006403000093996525,-0.004793690051883459,0.0034240642562508583,-0.001426693401299417,2.252166797850276e-15,0.9273376742657915,0.10807222232720994,0.9651842211427744,-0.015602510699293437,0.8587884007578712,0.9817155272874756,-2.2537675870674302e-05,0.0800103064720271,-0.03467018660395932,0.0009866874594831633,-0.051000601978297866,-0.00024694474134880014,CTC,1
13.2008,0.15,0.2,0.2,0.1504405538749455,0.19949334466073407,0.2994316290072238,0.0,0.0,0.0,0.9273393154144287,0.10120246559381485,0.9688891172409058,-0.013997574336826801,0.8717325329780579,0.9790632128715515,1.268826370578278e-16,0.013148406520485878,-0.006129074841737747,-9.30803023430093e-16,-7.771561172376096e-16,2.252166797850276e-15,0.9273365469864358,0.11395130462033369,0.9619900537257823,-0.015256124056336584,0.849677791212837,0.9805080581522715,-3.170709400759099e-05,0.10875666358889813,-0.04577377971455506,-0.0009692391643378156,-0.06363148880397958,-0.0013820391354178335,CTC,1
13.3012,0.15,0.2,0.2,0.15043010162210163,0.19947940456181615,0.2988748763654784,0.0,0.0,0.0,0.9273393154144287,0.10280930995941162,0.9681278467178345,-0.013805827125906944,0.8717325329780579,0.9790632128715515,1.268826370578278e-16,0.01677791401743889,-0.008628642186522484,0.0034240642562508583,-7.771561172376096e-16,2.252166797850276e-15,0.9273351603226233,0.12118315059086483,0.958060915535151,-0.014830034622098996,0.8384708508023585,0.9790227530715482,-4.220962404847999e-05,0.13904948916389037,-0.05885269018164643,0.0023152570449924605,-0.08050238512973344,-0.0028167989214378446,CTC,1
13.4007,0.15,0.2,0.2,0.15044715293052252,0.19951838984473913,0.29799150905582744,0.0,0.0,0.0,0.9273393154144287,0.10543817281723022,0.9669697284698486,-0.013805827125906944,0.8706938624382019,0.9790632128715515,1.268826370578278e-16,0.02910454571247101,-0.012634797021746635,-9.30803023430093e-16,-0.011413547210395336,2.252166797850276e-15,0.9273335599128589,0.12952974246204768,0.9535261241393841,-0.014338266044242634,0.8255364274045022,0.9773084970761207,-5.3741035900297e-05,0.17240342058375002,-0.0731785255245554,0.0006210941012125013,-0.10849077253493733,-0.004500430181345886,CTC,1
13.5008,0.15,0.2,0.2,0.15045508196036644,0.19952955200279937,0.29690887194260307,0.0,0.0,0.0,0.9273393154144287,0.10870938003063202,0.965581476688385,-0.013805827125906944,0.8698949217796326,0.9790632128715515,1.268826370578278e-16,0.03519938141107559,-0.015134364366531372,-9.30803023430093e-16,-0.011413547210395336,2.252166797850276e-15,0.9273317452746919,0.13899359635270597,0.9483843125045869,-0.013780670076849315,0.8108706218773563,0.9753647733955698,-6.633619359466574e-05,0.20446805814364805,-0.08747764041630283,0.0017838938639554418,-0.12897494850044133,-0.006430346823913024,CTC,1
13.6008,0.15,0.2,0.2,0.15052650989233335,0.19962717084058573,0.29541764872725074,0.0,0.0,0.0,0.9273393154144287,0.11312724649906158,0.963729202747345,-0.013805827125906944,0.8672584295272827,0.9790632128715515,1.268826370578278e-16,0.04800537973642349,-0.01896931603550911,-9.30803023430093e-16,-0.025680482387542725,2.252166797850276e-15,0.9273297486732972,0.14940644020170807,0.9427269046163504,-0.013167161055431397,0.7947341995869884,0.9732261424102413,-7.97895891239721e-05,0.23769580373210375,-0.10246810126892392,0.0030441804947669523,-0.16156060549251972,-0.008569714487779672,CTC,1
13.7007,0.15,0.2,0.2,0.15060409686926607,0.19973353128764648,0.2937245764140623,0.0,0.0,0.0,0.9273393154144287,0.11815295368432999,0.96156245470047,-0.013805827125906944,0.8640626072883606,0.9790632128715515,1.268826370578278e-16,0.05386053025722504,-0.023420600220561028,-9.30803023430093e-16,-0.022827094420790672,2.252166797850276e-15,0.9273275939933929,0.16064370841590847,0.9366215782752341,-0.012505078196466273,0.7773201955047279,0.9709181878935086,-9.39578454890194e-05,0.2682787490577905,-0.11796409062238916,0.004387283010730457,-0.17962728081444104,-0.010890439390566813,CTC,1
13.8007,0.15,0.2,0.2,0.15068715897341092,0.19986309383455697,0.2915646154236523,0.0,0.0,0.0,0.9273393154144287,0.12441351264715195,0.9588913917541504,-0.013614079914987087,0.8599081039428711,0.9790632128715515,1.268826370578278e-16,0.06409848481416702,-0.026981625705957413,0.0034240642562508583,-0.04280080273747444,2.252166797850276e-15,0.9273253026097938,0.17259392525945003,0.9301288994242719,-0.011800989481824144,0.7588013597049063,0.9684638051721696,-0.00010871381227872989,0.29779941070018257,-0.13231132462497003,0.00815583876260518,-0.2182688736672068,-0.013367141672114216,CTC,1
13.9008,0.15,0.2,0.2,0.15081202422267662,0.2000345606147779,0.28922779488592043,0.0,0.0,0.0,0.9273393154144287,0.13120137155056,0.9558656215667725,-0.013614079914987087,0.854315459728241,0.9790632128715515,1.268826370578278e-16,0.07180263102054596,-0.031741075217723846,-9.30803023430093e-16,-0.06562789529561996,2.252166797850276e-15,0.9273228980798983,0.18513423220333855,0.9233156183980651,-0.011062133550342693,0.7393680817808539,0.9658882274160218,-0.00012391571241149885,0.32582864489264524,-0.14701116123104158,0.006884588163564856,-0.2585042051195209,-0.01597209679830018,CTC,1
14.0008,0.15,0.2,0.2,0.15093128163015962,0.2002147620180006,0.28638608416514416,0.0,0.0,0.0,0.9273393154144287,0.13926053047180176,0.952293336391449,-0.013422331772744656,0.847444474697113,0.9790632128715515,1.268826370578278e-16,0.08118456602096558,-0.03516513854265213,-9.30803023430093e-16,-0.06848128885030746,2.252166797850276e-15,0.927320404470294,0.19813911515080795,0.9162499283291936,-0.010295905502899046,0.7192148665670024,0.9632172332058576,-0.00013941880480680034,0.3505721224133479,-0.15976305282884085,0.00800950207767834,-0.27973711584859295,-0.018677020215305415,CTC,1
14.1011,0.15,0.2,0.2,0.15099948573049282,0.20031074189670545,0.2835910972965796,0.0,0.0,0.0,0.9273393154144287,0.1474308967590332,0.9486232995986938,-0.013422331772744656,0.8423312306404114,0.9790632128715515,1.268826370578278e-16,0.0869712308049202,-0.03937673941254616,-9.30803023430093e-16,-0.05136096477508545,2.252166797850276e-15,0.9273178376172884,0.21152598325745742,0.9089767016945124,-0.009507171467215959,0.6984697022250774,0.960467785375414,-0.00015512864917995134,0.3742310217294429,-0.17305192985594237,0.009548458469418474,-0.2863252714778849,-0.021462554449796306,CTC,1
14.2008,0.15,0.2,0.2,0.15106418222597992,0.20040364524765222,0.28019886135513056,0.0,0.0,0.0,0.9273393154144287,0.15688596665859222,0.9443166851997375,-0.013422331772744656,0.8352205753326416,0.9790632128715515,1.268826370578278e-16,0.09066922217607498,-0.04184206575155258,-9.30803023430093e-16,-0.07989483326673508,2.252166797850276e-15,0.9273152450336426,0.22504704396681288,0.9016305668034412,-0.008710531006202624,0.6775165842696239,0.9576907765383607,-0.00017075855203067946,0.3917223130175479,-0.18333901462937877,0.011089198284867497,-0.3311396146735301,-0.024274970657687047,CTC,1
14.3007,0.15,0.2,0.2,0.1510732682413475,0.20045130561059576,0.2770625630579259,0.0,0.0,0.0,0.9273393154144287,0.16597288846969604,0.940132737159729,-0.013038836419582367,0.8282697200775146,0.9790632128715515,1.268826370578278e-16,0.09546291083097458,-0.04399922490119934,0.006848128512501717,-0.07133467495441437,2.252166797850276e-15,0.9273126269378985,0.23870115752150464,0.8942121428981802,-0.007906051272640612,0.6563572789430339,0.9548864407825665,-0.0001863092701265767,0.4109287124306822,-0.1937618436474575,0.017342713694507267,-0.34292641583192185,-0.027111866220747707,CTC,1
14.4008,0.15,0.2,0.2,0.15110904312890155,0.20050724900888123,0.2731733912882262,0.0,0.0,0.0,0.9273393154144287,0.17686989903450012,0.9350859522819519,-0.013038836419582367,0.8190818428993225,0.979254961013794,1.268826370578278e-16,0.10481061041355133,-0.0502995029091835,-9.30803023430093e-16,-0.1055753156542778,0.0034240642562508583,0.9273100088989302,0.2523549749739318,0.8867938798684024,-0.007101588984976499,0.6351984324758344,0.9520821658414246,-0.00020162612522253348,0.42398368601350356,-0.2038162558541108,0.013391738604446311,-0.3896863351698699,-0.026798650002568106,CTC,1
14.5007,0.15,0.2,0.2,0.1511084389528785,0.2005142389982209,0.26968112373560343,0.0,0.0,0.0,0.9273393154144287,0.186848446726799,0.9303037524223328,-0.013038836419582367,0.8106129765510559,0.979254961013794,1.268826370578278e-16,0.1020713523030281,-0.0500255785882473,-9.30803023430093e-16,-0.10414861887693405,2.252166797850276e-15,0.927307421937751,0.2658467129221253,0.8794636763427399,-0.006306676176731859,0.6142907549844547,0.949311179428841,-0.00021652408710150882,0.43450278480141485,-0.2101928409326668,0.014885963284485096,-0.40486192799895687,-0.03294442080142636,CTC,1
14.6008,0.15,0.2,0.2,0.15107339312068763,0.20047695222671721,0.26545579470299696,0.0,0.0,0.0,0.9273393154144287,0.19875980913639069,0.9247698783874512,-0.013038836419582367,0.8015049695968628,0.979254961013794,1.268826370578278e-16,0.11436374485492706,-0.05403173342347145,-9.30803023430093e-16,-0.09416176378726959,2.252166797850276e-15,0.927304882129474,0.27909253508042403,0.8722670814594203,-0.005526252355146137,0.5937641646476659,0.9465907001721966,-0.00023090494596661728,0.4415861275981746,-0.21621563699453702,0.016336737019173056,-0.41061137191003205,-0.03567368790161432,CTC,1
14.7008,0.15,0.2,0.2,0.1510218413967715,0.20041767890480833,0.2616099776893286,0.0,0.0,0.0,0.9273393154144287,0.20979487895965576,0.9194355010986328,-0.013038836419582367,0.7902398109436035,0.979254961013794,1.268826370578278e-16,0.11604154109954834,-0.05471654608845711,-9.30803023430093e-16,-0.12269563227891922,2.252166797850276e-15,0.9273024190266921,0.29193831627739614,0.8652878330496525,-0.004769398342372453,0.5738575038881393,0.9439523829077705,-0.0002445933526549306,0.4456024879083411,-0.21992928952521562,0.0177261593045392,-0.44667792083222513,-0.03830785517143379,CTC,1
14.8008,0.15,0.2,0.2,0.1508962910046767,0.2002751150780284,0.2571662330737108,0.0,0.0,0.0,0.9273393154144287,0.2219746857881546,0.9134989976882935,-0.01284708920866251,0.7802529335021973,0.979254961013794,1.268826370578278e-16,0.11535672843456268,-0.05471654608845711,0.0034240642562508583,-0.09130837768316269,2.252166797850276e-15,0.9273000533066393,0.30427621885803824,0.8585845204487721,-0.004042467770055772,0.5547378849727227,0.9414183757589497,-0.0002574645022703002,0.4413343768040463,-0.22033383608505866,0.02139717600382246,-0.4293640697412577,-0.04082229488706134,CTC,1
14.901,0.15,0.2,0.2,0.15078208688026767,0.20013297114793835,0.2532521301630781,0.0,0.0,0.0,0.9273393154144287,0.23330314457416534,0.9080552458763123,-0.01284708920866251,0.7685883045196533,0.979254961013794,1.268826370578278e-16,0.11963680386543274,-0.05707915127277374,-9.30803023430093e-16,-0.14124265313148499,2.252166797850276e-15,0.9272978028996706,0.31601273092637966,0.852207949656137,-0.0033509702177710755,0.5365502200372781,0.939007884568165,-0.0002694067087817264,0.43930904780310187,-0.2223843163862836,0.019887609437340352,-0.48112930194092035,-0.04319519084853656,CTC,1
15.0007,0.15,0.2,0.2,0.1506125303404794,0.19991960334057118,0.24867064451477552,0.0,0.0,0.0,0.9273393154144287,0.24568811058998108,0.901735246181488,-0.01284708920866251,0.7554056644439697,0.979254961013794,1.268826370578278e-16,0.11771932989358902,-0.05937327444553375,-9.30803023430093e-16,-0.1440960317850113,2.252166797850276e-15,0.9272957066456676,0.3269452914561428,0.846268174213751,-0.0027068402750321484,0.5196084108656971,0.9367625121188151,-0.0002801988109855637,0.42666049458217564,-0.22020120586414738,0.0210089885325275,-0.48620187373022866,-0.04538277816585394,CTC,1
15.1008,0.15,0.2,0.2,0.15039880441282907,0.19964427599295226,0.24488889317125392,0.0,0.0,0.0,0.9273393154144287,0.25661006569862366,0.8963797688484192,-0.01284708920866251,0.7453389167785645,0.979254961013794,1.268826370578278e-16,0.11535672843456268,-0.05731883645057678,-9.30803023430093e-16,-0.10700200498104095,2.252166797850276e-15,0.9272937715594308,0.33703731627013606,0.8407850706909382,-0.002112233426265115,0.5039691506861572,0.9346897722136663,-0.0002897858187046249,0.4155773745364477,-0.21666151922587162,0.02201652481706926,-0.457844496511035,-0.047374665239666956,CTC,1
15.2007,0.15,0.2,0.2,0.1501606490517655,0.19934058487415013,0.24040594828342468,0.0,0.0,0.0,0.9273393154144287,0.26882246136665344,0.8900501728057861,-0.01284708920866251,0.7318366765975952,0.979254961013794,1.268826370578278e-16,0.11614426225423813,-0.06153043359518051,-9.30803023430093e-16,-0.13410918414592743,2.252166797850276e-15,0.9272920288817744,0.3461258756408788,0.8358471605270715,-0.0015767492447581206,0.48988492603590095,0.9328231280034844,-0.00029798747283717555,0.39585663865056714,-0.2120622074467413,0.022891682884920096,-0.4795974937882301,-0.04913514511341686,CTC,1
15.3007,0.15,0.2,0.2,0.14995307985794926,0.19907560870704877,0.2368036397551955,0.0,0.0,0.0,0.9273393154144287,0.2790502905845642,0.8847962617874146,-0.01284708920866251,0.7193730473518372,0.979254961013794,1.268826370578278e-16,0.10528997331857681,-0.055641043931245804,-9.30803023430093e-16,-0.11698886007070541,2.252166797850276e-15,0.9272904987394514,0.3541060028311151,0.8315114732575943,-0.0011065722120216191,0.4775184002203008,0.9311841379712332,-0.00030467904839207504,0.3742483889070471,-0.20255617725959274,0.023621747572194415,-0.4603359486352763,-0.05063998055950797,CTC,1
15.4008,0.15,0.2,0.2,0.14957530663005372,0.1985973579440088,0.23254070875839739,0.0,0.0,0.0,0.9273393154144287,0.29065483808517456,0.8786526918411255,-0.012655341066420078,0.7068296074867249,0.979254961013794,1.268826370578278e-16,0.10703624784946442,-0.05889390408992767,-9.30803023430093e-16,-0.14124265313148499,2.252166797850276e-15,0.9272892055443618,0.3608503828415826,0.8278471804644071,-0.0007092035353858869,0.4670668688698092,0.929798950574171,-0.0003097148735259928,0.3464979144568108,-0.193586919042772,0.02380829661236657,-0.47512919747472815,-0.051860541961792496,CTC,1
15.5008,0.15,0.2,0.2,0.1493358992059053,0.1982891903076217,0.22939136337906704,0.0,0.0,0.0,0.9273393154144287,0.29941004514694214,0.8739030957221985,-0.012655341066420078,0.696523129940033,0.979254961013794,1.268826370578278e-16,0.08666306734085083,-0.04831354692578316,-9.30803023430093e-16,-0.11270878463983536,2.252166797850276e-15,0.9272881735739544,0.3662324018753647,0.8249230727587802,-0.000392103108398819,0.4587265409859691,0.9286935702538488,-0.0003129514678868437,0.31512220330690527,-0.17801646481417535,0.024203581868103466,-0.44241557760241257,-0.05276846271218965,CTC,1
15.6008,0.15,0.2,0.2,0.14897182168695333,0.19781577385295365,0.22566067487660585,0.0,0.0,0.0,0.9273393154144287,0.30957841873168945,0.8683462738990784,-0.012655341066420078,0.6840595602989197,0.979254961013794,1.268826370578278e-16,0.09066922217607498,-0.05194305628538132,-9.30803023430093e-16,-0.12412232905626297,2.252166797850276e-15,0.9272874253902084,0.3701343927979769,0.8228030799359234,-0.00016220370077994414,0.4526797612384281,0.9278921639509617,-0.000314251766228894,0.2811944789866129,-0.1658731152579479,0.02441010240510988,-0.43878965190810404,-0.053336973254881175,CTC,1
15.7008,0.15,0.2,0.2,0.14879402219233678,0.1975914552669522,0.22286137036627313,0.0,0.0,0.0,0.9273393154144287,0.3173537850379944,0.8639724850654602,-0.012655341066420078,0.6718356609344482,0.979254961013794,1.268826370578278e-16,0.07786322385072708,-0.043930742889642715,-9.30803023430093e-16,-0.10700200498104095,2.252166797850276e-15,0.927286984372137,0.37243442740911925,0.8215534468730459,-2.6689137806398117e-05,0.44911547752246594,0.9274197737607268,-0.0003134745284372467,0.24297198657355623,-0.1474167063331684,0.02441341717775929,-0.405928793046033,-0.05353844669116129,CTC,1
15.8007,0.15,0.2,0.2,0.14857954015995328,0.19731984571516603,0.21978103880837963,0.0,0.0,0.0,0.9273393154144287,0.32557591795921326,0.859282374382019,-0.012655341066420078,0.6588926911354065,0.979254961013794,1.268826370578278e-16,0.0747130811214447,-0.043108969926834106,-9.30803023430093e-16,-0.12412232905626297,2.252166797850276e-15,0.9272868685796317,0.37303831824028116,0.8212253466151921,8.8911972338582e-06,0.4481796488852351,0.9272957442773304,-0.0003146810087819605,0.21973483357284948,-0.14003646525658137,0.025328464527307123,-0.4277796595258938,-0.05715513841010768,CTC,1
15.9007,0.15,0.2,0.2,0.1483112193908547,0.19697030349513714,0.21756334536719163,0.0,0.0,0.0,0.9273393154144287,0.3316696584224701,0.8556161522865295,-0.012655341066420078,0.650184154510498,0.979254961013794,1.268826370578278e-16,0.06197556480765343,-0.03697989508509636,-9.30803023430093e-16,-0.1027219295501709,2.252166797850276e-15,0.9272868685796317,0.37303831824028116,0.8212253466151921,8.8911972338582e-06,0.4481796488852351,0.9272957442773304,-0.0003146810087819605,0.19026486519430563,-0.1253603540650702,0.025328464527307137,-0.3954564950330482,-0.05715513841010768,CTC,1
16.0007,0.15,0.2,0.2,0.14812197393424256,0.19673081531512182,0.21506731418089206,0.0,0.0,0.0,0.9273393154144287,0.33815649151802063,0.851662278175354,-0.012655341066420078,0.6381200551986694,0.979254961013794,1.268826370578278e-16,0.05738731846213341,-0.03472001105546951,-9.30803023430093e-16,-0.11698886007070541,2.252166797850276e-15,0.9272868685796317,0.37303831824028116,0.8212253466151921,8.8911972338582e-06,0.4481796488852351,0.9272957442773304,-0.0003146810087819605,0.16248223427389547,-0.11214280131376746,0.025328464527307123,-0.3902005835337864,-0.05715513841010771,CTC,1
16.1008,0.15,0.2,0.2,0.148043571930543,0.19663644358738383,0.21346717793824868,0.0,0.0,0.0,0.9273393154144287,0.34224069118499756,0.8488723635673523,-0.012655341066420078,0.6285326480865479,0.979254961013794,1.268826370578278e-16,0.04002731293439865,-0.028077326714992523,-9.30803023430093e-16,-0.1027219295501709,2.252166797850276e-15,0.9272868685796317,0.37303831824028116,0.8212253466151921,8.8911972338582e-06,0.4481796488852351,0.9272957442773304,-0.0003146810087819605,0.13920143339489388,-0.09978744688547614,0.025328464527307137,-0.36297923539712296,-0.05715513841010768,CTC,1
16.2008,0.15,0.2,0.2,0.1478827491455835,0.19643292060514822,0.21155377278669663,0.0,0.0,0.0,0.9273393154144287,0.3472031354904175,0.8455800414085388,-0.012655341066420078,0.6187855005264282,0.979254961013794,1.268826370578278e-16,0.0464303120970726,-0.030919300392270088,-9.30803023430093e-16,-0.09701515734195709,2.252166797850276e-15,0.9272868685796317,0.37303831824028116,0.8212253466151921,8.8911972338582e-06,0.4481796488852351,0.9272957442773304,-0.0003146810087819605,0.12191285583828378,-0.09161566461540224,0.025328464527307137,-0.3432224190695511,-0.05715513841010768,CTC,1
16.3008,0.15,0.2,0.2,0.14779536830195283,0.19632430687105495,0.21033007085303235,0.0,0.0,0.0,0.9273393154144287,0.3502998650074005,0.8433653712272644,-0.012655341066420078,0.6106362342834473,0.979254961013794,1.268826370578278e-16,0.030268728733062744,-0.021811289712786674,-9.30803023430093e-16,-0.09558846056461334,2.252166797850276e-15,0.9272868685796317,0.37303831824028116,0.8212253466151921,8.8911972338582e-06,0.4481796488852351,0.9272957442773304,-0.0003146810087819605,0.10306130442474769,-0.07950684766388896,0.025328464527307137,-0.32971449260547026,-0.05715513841010768,CTC,1
16.4008,0.15,0.2,0.2,0.1477306590624349,0.1962490019619148,0.20885679016461017,0.0,0.0,0.0,0.9273393154144287,0.35399675369262695,0.840692400932312,-0.012655341066420078,0.6012884974479675,0.979254961013794,1.268826370578278e-16,0.034617289900779724,-0.02537231706082821,-9.30803023430093e-16,-0.08702830225229263,2.252166797850276e-15,0.9272868685796317,0.37303831824028116,0.8212253466151921,8.8911972338582e-06,0.4481796488852351,0.9272957442773304,-0.0003146810087819605,0.09001317415092872,-0.07362455318785671,0.025328464527307123,-0.307988744871162,-0.05715513841010771,CTC,1
16.5011,0.15,0.2,0.2,0.14768121216427488,0.19617917056867276,0.20789160663356065,0.0,0.0,0.0,0.9273393154144287,0.35632649064064026,0.8388861417770386,-0.01284708920866251,0.5938583016395569,0.979254961013794,1.268826370578278e-16,0.02246186137199402,-0.017702411860227585,-0.0034240642562508583,-0.08417491614818573,2.252166797850276e-15,0.9272868685796317,0.37303831824028116,0.8212253466151921,8.8911972338582e-06,0.4481796488852351,0.9272957442773304,-0.0003146810087819605,0.07583205494736123,-0.06360383260167601,0.02297270940679205,-0.29427540366484983,-0.05715513841010768,CTC,1
16.6007,0.15,0.2,0.2,0.14772115400587787,0.1962337664275499,0.20667554299406488,0.0,0.0,0.0,0.9273393154144287,0.3594021201133728,0.8365142345428467,-0.013038836419582367,0.5831524133682251,0.979254961013794,1.268826370578278e-16,0.03194652125239372,-0.026022888720035553,-9.30803023430093e-16,-0.12412232905626297,2.252166797850276e-15,0.9272868685796317,0.37303831824028116,0.8212253466151921,8.8911972338582e-06,0.4481796488852351,0.9272957442773304,-0.0003146810087819605,0.06732340100859094,-0.06148039701498511,0.026095455233631715,-0.3141692428751217,-0.05715513841010768,CTC,1
16.7007,0.15,0.2,0.2,0.14768787665777444,0.19618610547362536,0.2057969675070035,0.0,0.0,0.0,0.9273393154144287,0.36137712001800537,0.8348920345306396,-0.013230584561824799,0.57644122838974,0.979254961013794,1.268826370578278e-16,0.01619582436978817,-0.013388091698288918,-0.0034240642562508583,-0.06990797817707062,2.252166797850276e-15,0.9272868685796317,0.37303831824028116,0.8212253466151921,8.8911972338582e-06,0.4481796488852351,0.9272957442773304,-0.0003146810087819605,0.05312312263701845,-0.04903291876531604,0.02373970011311662,-0.2553095496161209,-0.05715513841010768,CTC,1
16.8007,0.15,0.2,0.2,0.1478071972595188,0.19635771724484308,0.2049264512549917,0.0,0.0,0.0,0.9273393154144287,0.3635496199131012,0.8331145644187927,-0.013230584561824799,0.5654956102371216,0.979254961013794,1.268826370578278e-16,0.024447819218039513,-0.01992805488407612,-9.30803023430093e-16,-0.14266934990882874,2.252166797850276e-15,0.9272868685796317,0.37303831824028116,0.8212253466151921,8.8911972338582e-06,0.4481796488852351,0.9272957442773304,-0.0003146810087819605,0.047733920995935666,-0.047624486341247586,0.026478951518116578,-0.3043763569457756,-0.05715513841010768,CTC,1
16.9008,0.15,0.2,0.2,0.14777723573278148,0.19631364774742097,0.2042116384600054,0.0,0.0,0.0,0.9273393154144287,0.36508551239967346,0.8317723274230957,-0.013422331772744656,0.5605421662330627,0.979254961013794,1.268826370578278e-16,0.012360871769487858,-0.01051187701523304,-0.0034240642562508583,-0.0527876578271389,2.252166797850276e-15,0.9272868685796317,0.37303831824028116,0.8212253466151921,8.8911972338582e-06,0.4481796488852351,0.9272957442773304,-0.0003146810087819605,0.03675557207022596,-0.03794806863285066,0.024123194534956344,-0.21605266806616646,-0.05715513841010768,CTC,1
17.0007,0.15,0.2,0.2,0.14789181532592816,0.19647620619049416,0.20366266882349338,0.0,0.0,0.0,0.9273393154144287,0.3663644790649414,0.8305317163467407,-0.013422331772744656,0.5516738295555115,0.979254961013794,1.268826370578278e-16,0.01510012336075306,-0.014209866523742676,-9.30803023430093e-16,-0.11270878463983536,2.252166797850276e-15,0.9272868685796317,0.37303831824028116,0.8212253466151921,8.8911972338582e-06,0.4481796488852351,0.9272957442773304,-0.0003146810087819605,0.03273540604566026,-0.036445029108891504,0.026862445939956292,-0.2566791771812664,-0.05715513841010768,CTC,1
17.1008,0.15,0.2,0.2,0.14790837990648203,0.19649485591162236,0.20310011495990787,0.0,0.0,0.0,0.9273393154144287,0.3675149381160736,0.8293448090553284,-0.013614079914987087,0.5463208556175232,0.979254961013794,1.268826370578278e-16,0.009895545430481434,-0.00996402744203806,-0.0034240642562508583,-0.05421435087919235,2.252166797850276e-15,0.9272868685796317,0.37303831824028116,0.8212253466151921,8.8911972338582e-06,0.4481796488852351,0.9272957442773304,-0.0003146810087819605,0.026051738669022786,-0.03033680378563169,0.024506690819441197,-0.19600472588970527,-0.05715513841010768,CTC,1
17.2008,0.15,0.2,0.2,0.14797616779989625,0.19659223028851747,0.20270057065588812,0.0,0.0,0.0,0.9273393154144287,0.3684180974960327,0.8284090757369995,-0.013614079914987087,0.540648341178894,0.979254961013794,1.268826370578278e-16,0.010340673848986626,-0.01051187701523304,-9.30803023430093e-16,-0.06420120596885681,2.252166797850276e-15,0.9272868685796317,0.37303831824028116,0.8212253466151921,8.8911972338582e-06,0.4481796488852351,0.9272957442773304,-0.0003146810087819605,0.022617152516588454,-0.0278583135745621,0.02724594222444114,-0.19648412381245955,-0.05715513841010768,CTC,1
17.3011,0.15,0.2,0.2,0.1480538132037308,0.19670326116453868,0.202294319809455,0.0,0.0,0.0,0.9273393154144287,0.3692196011543274,0.8275174498558044,-0.013805827125906944,0.5344964265823364,0.979254961013794,1.268826370578278e-16,0.006848128512501717,-0.007978069595992565,-0.0034240642562508583,-0.06420120596885681,2.252166797850276e-15,0.9272868685796317,0.37303831824028116,0.8212253466151921,8.8911972338582e-06,0.4481796488852351,0.9272957442773304,-0.0003146810087819605,0.018014119748815782,-0.02366315147943262,0.02489018524128091,-0.18725625191762313,-0.05715513841010768,CTC,1
17.4007,0.15,0.2,0.2,0.1481147391652528,0.19678005911843266,0.20199199853902244,0.0,0.0,0.0,0.9273393154144287,0.36985811591148376,0.8267753720283508,-0.013805827125906944,0.5297826528549194,0.979254961013794,1.268826370578278e-16,0.00695085059851408,-0.00821775384247303,-9.30803023430093e-16,-0.05849443003535271,2.252166797850276e-15,0.9272868685796317,0.37303831824028116,0.8212253466151921,8.8911972338582e-06,0.4481796488852351,0.9272957442773304,-0.0003146810087819605,0.01550114955459522,-0.021580728544960057,0.02762943664628087,-0.17504949298634392,-0.05715513841010768,CTC,1
17.5007,0.15,0.2,0.2,0.14820022303480235,0.19690070225025372,0.2017100028327901,0.0,0.0,0.0,0.9273393154144287,0.3703681528568268,0.8261004090309143,-0.013805827125906944,0.5249090790748596,0.979254961013794,1.268826370578278e-16,0.004177358467131853,-0.005855150055140257,-9.30803023430093e-16,-0.047080881893634796,2.252166797850276e-15,0.9272868685796317,0.37303831824028116,0.8212253466151921,8.8911972338582e-06,0.4481796488852351,0.9272957442773304,-0.0003146810087819605,0.012351604920670273,-0.018138277280250817,0.027629436646280855,-0.15746693898870812,-0.05715513841010768,CTC,1
17.6007,0.15,0.2,0.2,0.14830344850751626,0.19704472540102466,0.20149005955401722,0.0,0.0,0.0,0.9273393154144287,0.3708072602748871,0.8255558609962463,-0.013805827125906944,0.5196359753608704,0.979254961013794,1.268826370578278e-16,0.004759449511766434,-0.006231796927750111,-9.30803023430093e-16,-0.055641043931245804,2.252166797850276e-15,0.9272868685796317,0.37303831824028116,0.8212253466151921,8.8911972338582e-06,0.4481796488852351,0.9272957442773304,-0.0003146810087819605,0.010828011666282888,-0.016730621299812815,0.027629436646280855,-0.1572614292515741,-0.05715513841010768,CTC,1
17.7008,0.15,0.2,0.2,0.14833354241114655,0.19708874752992642,0.20128831878953438,0.0,0.0,0.0,0.9273393154144287,0.37116390466690063,0.8250304460525513,-0.013805827125906944,0.5166000127792358,0.979254961013794,1.268826370578278e-16,0.0028077326714992523,-0.0045197647996246815,-9.30803023430093e-16,-0.03281394764780998,2.252166797850276e-15,0.9272868685796317,0.37303831824028116,0.8212253466151921,8.8911972338582e-06,0.4481796488852351,0.9272957442773304,-0.0003146810087819605,0.008620747362121817,-0.014127157191852363,0.027629436646280855,-0.1321630987240301,-0.05715513841010768,CTC,1
17.8007,0.15,0.2,0.2,0.14844690144728215,0.19724601342891923,0.20112336895812596,0.0,0.0,0.0,0.9273393154144287,0.3714572787284851,0.8245913982391357,-0.013805827125906944,0.5118861794471741,0.979254961013794,1.268826370578278e-16,0.0031843797769397497,-0.004690967965871096,-9.30803023430093e-16,-0.055641043931245804,2.252166797850276e-15,0.9272868685796317,0.37303831824028116,0.8212253466151921,8.8911972338582e-06,0.4481796488852351,0.9272957442773304,-0.0003146810087819605,0.007597909957960126,-0.012912735651353615,0.027629436646280855,-0.1456367353810297,-0.05715513841010768,CTC,1
17.9008,0.15,0.2,0.2,0.14847256172036777,0.19727349227716304,0.2009680202130385,0.0,0.0,0.0,0.9273393154144287,0.37172573804855347,0.8241791129112244,-0.013997574336826801,0.5094893574714661,0.979254961013794,1.268826370578278e-16,0.002328363712877035,-0.003389823716133833,-9.30803023430093e-16,-0.022827094420790672,2.252166797850276e-15,0.9272868685796317,0.37303831824028116,0.8212253466151921,8.8911972338582e-06,0.4481796488852351,0.9272957442773304,-0.0003146810087819605,0.006181666252061601,-0.010895193117777141,0.028012931068120583,-0.11250894785805804,-0.05715513841010768,CTC,1
18.0008,0.15,0.2,0.2,0.1485789581712668,0.19742086983443613,0.2008487144607097,0.0,0.0,0.0,0.9273393154144287,0.37190598249435425,0.8238224387168884,-0.013997574336826801,0.5050951242446899,0.979254961013794,1.268826370578278e-16,0.0020886792335659266,-0.004040395841002464,-9.30803023430093e-16,-0.05849443003535271,2.252166797850276e-15,0.9272868685796317,0.37303831824028116,0.8212253466151921,8.8911972338582e-06,0.4481796488852351,0.9272957442773304,-0.0003146810087819605,0.005364814677134039,-0.010215513809690505,0.028012931068120566,-0.1380182000709997,-0.05715513841010768,CTC,1
18.1008,0.15,0.2,0.2,0.14859256570252236,0.19744125894951736,0.20073858954498341,0.0,0.0,0.0,0.9273393154144287,0.37209388613700867,0.823494553565979,-0.013997574336826801,0.5035771131515503,0.979254961013794,1.268826370578278e-16,0.0017805134411901236,-0.0030131766106933355,-9.30803023430093e-16,-0.018547015264630318,2.252166797850276e-15,0.9272868685796317,0.37303831824028116,0.8212253466151921,8.8911972338582e-06,0.4481796488852351,0.9272957442773304,-0.0003146810087819605,0.004489933789566046,-0.008615526818776757,0.028012931068120583,-0.0997885101376401,-0.05715513841010768,CTC,1
18.2007,0.15,0.2,0.2,0.1486712479592957,0.19755026674032816,0.2006460488675979,0.0,0.0,0.0,0.9273393154144287,0.37223193049430847,0.8232376575469971,-0.013997574336826801,0.49974218010902405,0.979254961013794,1.268826370578278e-16,0.001232663169503212,-0.002739251358434558,-9.30803023430093e-16,-0.049934271723032,2.252166797850276e-15,0.9272868685796317,0.37303831824028116,0.8212253466151921,8.8911972338582e-06,0.4481796488852351,0.9272957442773304,-0.0003146810087819605,0.0037186162516920484,-0.007680483610475672,0.028012931068120583,-0.12228464138641224,-0.05715513841010768,CTC,1
18.3007,0.15,0.2,0.2,0.14870073666744738,0.19759194191281754,0.2005661068009213,0.0,0.0,0.0,0.9273393154144287,0.372350811958313,0.8229979276657104,-0.013997574336826801,0.4983839690685272,0.979254961013794,1.268826370578278e-16,0.0011641818564385176,-0.0020544384606182575,-9.30803023430093e-16,-0.014266934245824814,2.252166797850276e-15,0.9272868685796317,0.37303831824028116,0.8212253466151921,8.8911972338582e-06,0.4481796488852351,0.9272957442773304,-0.0003146810087819605,0.0032156978704481133,-0.006550406227926049,0.028012931068120583,-0.08814672109618053,-0.05715513841010768,CTC,1
18.4008,0.15,0.2,0.2,0.14877724008747872,0.19769764548057978,0.20049938206084786,0.0,0.0,0.0,0.9273393154144287,0.3724466860294342,0.8227985501289368,-0.013997574336826801,0.49502837657928467,0.979254961013794,1.268826370578278e-16,0.0010272192303091288,-0.0020544384606182575,-9.30803023430093e-16,-0.049934271723032,2.252166797850276e-15,0.9272868685796317,0.37303831824028116,0.8212253466151921,8.8911972338582e-06,0.4481796488852351,0.9272957442773304,-0.0003146810087819605,0.002777416535511489,-0.005952273617605003,0.028012931068120583,-0.11521393609180317,-0.05715513841010768,CTC,1
18.5007,0.15,0.2,0.2,0.14882099711332164,0.1977585587213474,0.2004362368873519,0.0,0.0,0.0,0.9273393154144287,0.3725406527519226,0.8226068019866943,-0.013997574336826801,0.4935103952884674,0.979254961013794,1.268826370578278e-16,0.0008902567205950618,-0.0017120321281254292,-9.30803023430093e-16,-0.005706773605197668,2.252166797850276e-15,0.9272868685796317,0.37303831824028116,0.8212253466151921,8.8911972338582e-06,0.4481796488852351,0.9272957442773304,-0.0003146810087819605,0.002346764641672253,-0.005171585391382008,0.028012931068120583,-0.07313221584952638,-0.05715513841010768,CTC,1
18.6008,0.15,0.2,0.2,0.1488839228043341,0.1978454470171289,0.20038636347021493,0.0,0.0,0.0,0.9273393154144287,0.3726096749305725,0.8224591612815857,-0.013997574336826801,0.49071407318115234,0.979254961013794,1.268826370578278e-16,0.0006848128396086395,-0.001369625679217279,-9.30803023430093e-16,-0.04137410968542099,2.252166797850276e-15,0.9272868685796317,0.37303831824028116,0.8212253466151921,8.8911972338582e-06,0.4481796488852351,0.9272957442773304,-0.0003146810087819605,0.0019884983746780646,-0.004523219406711201,0.028012931068120583,-0.10103833516075478,-0.05715513841010768,CTC,1
18.7008,0.15,0.2,0.2,0.14896581558275554,0.19795835164504094,0.2003349713652982,0.0,0.0,0.0,0.9273393154144287,0.372672975063324,0.8223019242286682,-0.013997574336826801,0.48823732137680054,0.979254961013794,1.268826370578278e-16,0.0007190534961409867,-0.0017805134411901236,-9.30803023430093e-16,-0.028533868491649628,2.252166797850276e-15,0.9272868685796317,0.37303831824028116,0.8212253466151921,8.8911972338582e-06,0.4481796488852351,0.9272957442773304,-0.0003146810087819605,0.001748994106285144,-0.004298040905142454,0.028012931068120566,-0.08576699037983283,-0.05715513841010768,CTC,1
18.8008,0.15,0.2,0.2,0.14897589668720415,0.1979728236523587,0.20029694031309989,0.0,0.0,0.0,0.9273393154144287,0.3727228045463562,0.822167694568634,-0.013997574336826801,0.48711878061294556,0.979254961013794,1.268826370578278e-16,0.0005136096151545644,-0.0013353850226849318,-9.30803023430093e-16,-0.017120322212576866,2.252166797850276e-15,0.9272868685796317,0.37303831824028116,0.8212253466151921,8.8911972338582e-06,0.4481796488852351,0.9272957442773304,-0.0003146810087819605,0.0014674986217616797,-0.0036282748739367918,0.028012931068120583,-0.07381698758288488,-0.05715513841010768,CTC,1
18.9009,0.15,0.2,0.2,0.1490489096380996,0.19807337897026206,0.20025688217654952,0.0,0.0,0.0,0.9273393154144287,0.37277650833129883,0.8220526576042175,-0.013997574336826801,0.48520132899284363,0.979254961013794,1.268826370578278e-16,0.0005820909282192588,-0.001061459886841476,-9.30803023430093e-16,-0.01997370831668377,2.252166797850276e-15,0.9272868685796317,0.37303831824028116,0.8212253466151921,8.8911972338582e-06,0.4481796488852351,0.9272957442773304,-0.0003146810087819605,0.001280076007217054,-0.003118808899181202,0.028012931068120583,-0.0735088576464282,-0.05715513841010768,CTC,1
19.0008,0.15,0.2,0.2,0.14909420223232261,0.19813594165232787,0.20022435662462923,0.0,0.0,0.0,0.9273393154144287,0.3728110194206238,0.8219356536865234,-0.013997574336826801,0.48344361782073975,0.979254961013794,1.268826370578278e-16,0.000308165792375803,-0.001232663169503212,-9.30803023430093e-16,-0.024253789335489273,2.252166797850276e-15,0.9272868685796317,0.37303831824028116,0.8212253466151921,8.8911972338582e-06,0.4481796488852351,0.9272957442773304,-0.0003146810087819605,0.001032461595579853,-0.0028705191156959673,0.028012931068120583,-0.07472436380519733,-0.05715513841010771,CTC,1
19.1007,0.15,0.2,0.2,0.1491179019049873,0.19816878316864336,0.20020094682148054,0.0,0.0,0.0,0.9273393154144287,0.3728378713130951,0.8218628168106079,-0.013997574336826801,0.48248490691185,0.979254961013794,1.268826370578278e-16,0.0002739251358434558,-0.0006505721830762923,-9.30803023430093e-16,-0.015693627297878265,2.252166797850276e-15,0.9272868685796317,0.37303831824028116,0.8212253466151921,8.8911972338582e-06,0.4481796488852351,0.9272957442773304,-0.0003146810087819605,0.0009113577630816567,-0.0023027538960932476,0.028012931068120583,-0.06558215160801276,-0.05715513841010768,CTC,1
19.2007,0.15,0.2,0.2,0.14914704802415613,0.19820909461757757,0.20017957439783196,0.0,0.0,0.0,0.9273393154144287,0.37285512685775757,0.8217765092849731,-0.013997574336826801,0.4808070957660675,0.979254961013794,1.268826370578278e-16,0.0001369625679217279,-0.0008217754075303674,-9.30803023430093e-16,-0.027107175439596176,2.252166797850276e-15,0.9272868685796317,0.37303831824028116,0.8212253466151921,8.8911972338582e-06,0.4481796488852351,0.9272957442773304,-0.0003146810087819605,0.0007875505572630738,-0.0021465532538613805,0.028012931068120583,-0.07333762821688518,-0.05715513841010771,CTC,1
19.3008,0.15,0.2,0.2,0.14921127350063243,0.19829732206992837,0.2001603965379737,0.0,0.0,0.0,0.9273393154144287,0.37287047505378723,0.8217151761054993,-0.013997574336826801,0.4795287847518921,0.979254961013794,1.268826370578278e-16,0.00010272192594129592,-0.00047936898772604764,-9.30803023430093e-16,-0.0042800805531442165,2.252166797850276e-15,0.9272868685796317,0.37303831824028116,0.8212253466151921,8.8911972338582e-06,0.4481796488852351,0.9272957442773304,-0.0003146810087819605,0.0007124615163522435,-0.0017571098635571763,0.028012931068120566,-0.05087577629781529,-0.05715513841010771,CTC,1
19.4008,0.15,0.2,0.2,0.14921667156738025,0.19830493383639075,0.2001492015453823,0.0,0.0,0.0,0.9273393154144287,0.3728800415992737,0.8216710686683655,-0.013997574336826801,0.47872984409332275,0.979254961013794,1.268826370578278e-16,0.00010272192594129592,-0.00047936898772604764,-9.30803023430093e-16,-0.014266934245824814,2.252166797850276e-15,0.9272868685796317,0.37303831824028116,0.8212253466151921,8.8911972338582e-06,0.4481796488852351,0.9272957442773304,-0.0003146810087819605,0.0006741953344064385,-0.0016247875521558021,0.028012931068120566,-0.058665533633373824,-0.05715513841010768,CTC,1
19.5008,0.15,0.2,0.2,0.14930708937250958,0.19842891997121148,0.2001345666404576,0.0,0.0,0.0,0.9273393154144287,0.3728857934474945,0.8216250538825989,-0.013997574336826801,0.4765726625919342,0.979254961013794,1.268826370578278e-16,6.848128396086395e-05,-0.00037664707633666694,-9.30803023430093e-16,-0.002853386802598834,2.252166797850276e-15,0.9272868685796317,0.37303831824028116,0.8212253466151921,8.8911972338582e-06,0.4481796488852351,0.9272957442773304,-0.0003146810087819605,0.0006374916847309689,-0.0014251100480223678,0.028012931068120583,-0.04515756868238762,-0.05715513841010768,CTC,1
