Jose05M/robotics_control_challenge/PD_CTC_Controller_csv/CTC_sin_perturbaciones.csv
time,x_d,y_d,z_d,x,y,z,vx_cmd,vy_cmd,vz_cmd,q1,q2,q3,q4,q5,q6,qd1,qd2,qd3,qd4,qd5,qd6,qref1,qref2,qref3,qref4,qref5,qref6,cmd1,cmd2,cmd3,cmd4,cmd5,cmd6,mode,perturbation
2.8008,0.15,0.2,0.3,0.280749157932291,0.128586977013457,0.311261638523423,0,0,0,0.442779719829559,0.340706706047058,1.30270063877106,-0.0855194255709648,0.877085447311401,1.24827682971954,6.50273493414672E-16,4.55984474693181E-15,1.80807758800021E-15,-9.37741917334E-16,-7.7715611723761E-16,2.25216679785028E-15,0.442939827406572,0.340627032453023,1.30259066059931,-0.0854911624797395,0.877083198808712,1.24817076009642,0.0426790829793998,-0.019068742676919,-0.0248244011663847,0.00599478651045006,-0.000461615866477823,-0.0211983724817985,CTC,0
2.9009,0.15,0.2,0.3,0.280749157932291,0.128586977013457,0.311261638523423,0,0,0,0.442779719829559,0.340706706047058,1.30270063877106,-0.0855194255709648,0.877085447311401,1.24827682971954,6.50273493414672E-16,4.55984474693181E-15,1.80807758800021E-15,-9.37741917334E-16,-7.7715611723761E-16,2.25216679785028E-15,0.445500421356587,0.339352815912683,1.30083178418337,-0.0850391520143334,0.877047238596895,1.24647439293928,0.0864704264969269,-0.0322242195043654,-0.0370231498663583,0.00759793410062227,-0.000528224587332928,-0.0220410553121133,CTC,0
3.0007,0.15,0.2,0.3,0.28074225192008,0.128602054120421,0.311261638523423,0,0,0,0.442925453186035,0.340700954198837,1.30270063877106,-0.0855194255709648,0.877085447311401,1.24827682971954,0.00260228873230517,-0.000102721925941296,1.80807758800021E-15,-9.37741917334E-16,-7.7715611723761E-16,2.25216679785028E-15,0.450995250514292,0.336618449458742,1.29705737652493,-0.0840691738243567,0.876970070867742,1.24283412513455,0.144759506603796,-0.0505728367569975,-0.0546574847952909,0.0101590649242288,-0.000653588238379584,-0.024996547644939,CTC,0
3.1007,0.15,0.2,0.3,0.280321749482194,0.129199093786591,0.311275382990402,0,0,0,0.445483356714249,0.339941650629044,1.30181467533112,-0.0855194255709648,0.877085447311401,1.24827682971954,0.0287621393799782,-0.0104091549292207,-0.011949984356761,-9.37741917334E-16,-7.7715611723761E-16,2.25216679785028E-15,0.459224871624212,0.332523181117222,1.29140443554135,-0.082616434756537,0.876854496542385,1.23738208578778,0.202866413864722,-0.0747994496202069,-0.0818564936407598,0.0136105644074269,-0.00083355343155208,-0.0299151787722419,CTC,0
3.2007,0.15,0.2,0.3,0.279713222252557,0.12998400911307,0.311311437245367,0,0,0,0.448783338069916,0.338839083909988,1.30053579807282,-0.0855194255709648,0.877085447311401,1.24827682971954,0.0370826162397861,-0.0115048559382558,-0.0133538506925106,-9.37741917334E-16,-7.7715611723761E-16,2.25216679785028E-15,0.4699736938886,0.327174294341024,1.28402105092474,-0.0807189921127068,0.876703543313192,1.23026110158522,0.269492105320019,-0.0983428922997015,-0.106151001717857,0.0178756603258733,-0.00106356550453941,-0.036640699379108,CTC,0
3.3007,0.15,0.2,0.3,0.278677480235159,0.131357907371306,0.311392881383561,0,0,0,0.454457134008408,0.336954206228256,1.29849934577942,-0.0855194255709648,0.877085447311401,1.24827682971954,0.0600923262536526,-0.0208183098584414,-0.02174280770123,-9.37741917334E-16,-7.7715611723761E-16,2.25216679785028E-15,0.483023552861696,0.320680353295622,1.27505708021046,-0.0784153575095411,0.876520275016066,1.22161570422843,0.333527280139835,-0.125981326119998,-0.13651381008528,0.0228771002419952,-0.00133902555743814,-0.0450145456073388,CTC,0
3.4008,0.15,0.2,0.3,0.27734797660912,0.133029114405951,0.311511472679945,0,0,0,0.461503863334656,0.33441549539566,1.2957535982132,-0.0855194255709648,0.877085447311401,1.24827682971954,0.077144168317318,-0.0268446635454893,-0.0304056908935308,-9.37741917334E-16,-7.7715611723761E-16,2.25216679785028E-15,0.498168795283979,0.313143696262669,1.26465378697841,-0.0757418340186563,0.876307579783573,1.21158213688679,0.399753392778773,-0.15322011943186,-0.168641501324117,0.0285424495300427,-0.00165559903525881,-0.0548861349498829,CTC,0
3.5007,0.15,0.2,0.3,0.275560633678693,0.135220719666907,0.311615698366392,0,0,0,0.470631062984467,0.331196039915085,1.29216980934143,-0.0855194255709648,0.877165377140045,1.24827682971954,0.0906349793076515,-0.032836776226759,-0.0367059670388699,-9.37741917334E-16,0.00142669340129942,2.25216679785028E-15,0.51516182360854,0.304687534065816,1.25298124641209,-0.0727421289535104,0.876068934801241,1.20032443038867,0.462407254220124,-0.180751106973611,-0.200048552047818,0.0347837525289634,-0.000843949264180573,-0.0660773730577799,CTC,0
3.6008,0.15,0.2,0.3,0.273474765720375,0.137674384938815,0.311813262568833,0,0,0,0.481177181005478,0.327184677124023,1.28782474994659,-0.0855194255709648,0.877165377140045,1.24827682971954,0.112891398370266,-0.0408148467540741,-0.0481081046164036,-9.37741917334E-16,-7.7715611723761E-16,2.25216679785028E-15,0.533835228965121,0.295395173607934,1.24015445195421,-0.0694457942707337,0.87580669110893,1.18795349138889,0.52449716519491,-0.208616251651138,-0.23510840799161,0.0415425812014504,-0.00251281661212866,-0.078462894340105,CTC,0
3.7009,0.15,0.2,0.3,0.270813412784277,0.140691278247129,0.311995142503503,0,0,0,0.49421027302742,0.322143644094467,1.28233313560486,-0.0855194255709648,0.877165377140045,1.24827682971954,0.130593806505203,-0.0510527975857258,-0.0562573745846748,-9.37741917334E-16,-7.7715611723761E-16,2.25216679785028E-15,0.553963204606498,0.285378982057675,1.22632851065025,-0.0658926906490972,0.875524019868728,1.17461891453513,0.578242528443036,-0.235519744639251,-0.267182983786767,0.0487388435910617,-0.00292526431199459,-0.0918790379873608,CTC,0
3.8007,0.15,0.2,0.3,0.267863535474324,0.143894692258651,0.312159431937288,0,0,0,0.508512735366821,0.31657338142395,1.27603232860565,-0.0855194255709648,0.877165377140045,1.24827682971954,0.154904663562775,-0.0604689754545689,-0.0679676756262779,-9.37741917334E-16,-7.7715611723761E-16,2.25216679785028E-15,0.575244094596922,0.274789071065041,1.21171063048456,-0.0621360680933153,0.87522515744593,1.16052054378242,0.629103005476402,-0.261621208901454,-0.300744754255789,0.0562659914095465,-0.00335902079650807,-0.106111123583837,CTC,0
3.9008,0.15,0.2,0.3,0.264325769873521,0.147546313378786,0.312342875248566,0,0,0,0.524678945541382,0.310013681650162,1.26857531070709,-0.0855194255709648,0.877165377140045,1.24827682971954,0.162266403436661,-0.0656050741672516,-0.0748158022761345,-9.37741917334E-16,-7.7715611723761E-16,2.25216679785028E-15,0.597581547688069,0.263673387456705,1.19636699529637,-0.0581929350683957,0.874911456968508,1.14572221084184,0.672988849951725,-0.283518585466938,-0.329510168890892,0.0640902127341452,-0.0038119788276627,-0.121081736137795,CTC,0
4.0007,0.15,0.2,0.3,0.260480416434011,0.151318428590673,0.312549462595738,0,0,0,0.542381107807159,0.302746444940567,1.26030325889587,-0.0855194255709648,0.877165377140045,1.24827682971954,0.19020676612854,-0.0773496106266975,-0.0883408561348915,-9.37741917334E-16,-7.7715611723761E-16,2.25216679785028E-15,0.620700182069284,0.252168968211152,1.18048676532802,-0.0541119035225144,0.874586785815842,1.13040635333074,0.710189600464064,-0.30614049290307,-0.360854384141218,0.0721142593222778,-0.00427837894740422,-0.136593800649073,CTC,0
4.1007,0.15,0.2,0.3,0.256115504662698,0.155383592977845,0.312751859016066,0,0,0,0.561070740222931,0.294821530580521,1.25117993354797,-0.0855194255709648,0.877165377140045,1.24827682971954,0.184043452143669,-0.0784110724925995,-0.088375099003315,-9.37741917334E-16,-7.7715611723761E-16,2.25216679785028E-15,0.644392539363968,0.240379049882113,1.16421244409745,-0.0499295951767214,0.874254057471019,1.11471041028999,0.742755395490497,-0.322357852803442,-0.38214129911403,0.0802649168745779,-0.00475384652265605,-0.152495672345147,CTC,0
4.2007,0.15,0.2,0.3,0.251571282638165,0.15936985919682,0.31287198160319,0,0,0,0.581006705760956,0.286365449428558,1.24105751514435,-0.0855194255709648,0.877165377140045,1.24808514118195,0.214962750673294,-0.0908061861991882,-0.108816765248775,-9.37741917334E-16,-7.7715611723761E-16,-0.00342406425625086,0.668467998735776,0.228398490235926,1.14767496938707,-0.0456796594946309,0.87391594895577,1.09876066606321,0.767989715131862,-0.341103644994967,-0.412872781976822,0.0884745896214573,-0.00523433878097218,-0.171791742256983,CTC,0
4.3008,0.15,0.2,0.3,0.246543273665159,0.163519950507728,0.312991376618133,0,0,0,0.601765334606171,0.277309209108353,1.23036575317383,-0.0855194255709648,0.877165377140045,1.24655115604401,0.202910050749779,-0.0878272503614426,-0.106419913470745,-9.37741917334E-16,-7.7715611723761E-16,-0.0102721927687526,0.692696268361889,0.216341888328698,1.13103252904853,-0.0414027488858183,0.873575694419239,1.08270968661454,0.787049103741587,-0.350959582868008,-0.427915491747156,0.0966620338669371,-0.00571501650584278,-0.193049355000044,CTC,0
4.4008,0.15,0.2,0.3,0.241400525254414,0.167516454313628,0.313077873004516,0,0,0,0.623358011245728,0.267773598432541,1.2189644575119,-0.0855194255709648,0.877165377140045,1.24463367462158,0.232562437653542,-0.101934395730495,-0.124670177698135,-9.37741917334E-16,-7.7715611723761E-16,-0.0205443855375051,0.716840503807611,0.204327103962516,1.11444781193394,-0.0371406724638114,0.87323662003348,1.06671437894613,0.798447143892077,-0.364922693928129,-0.45245376378174,0.104744002896729,-0.00619091850049869,-0.217151860555869,CTC,0
4.501,0.15,0.2,0.3,0.235805082560807,0.171572791936184,0.313082085483212,0,0,0,0.645464599132538,0.257852584123611,1.20689010620117,-0.0855194255709648,0.877165377140045,1.24137389659882,0.210237547755241,-0.0935796797275543,-0.120492823421955,-9.37741917334E-16,-7.7715611723761E-16,-0.0410887710750103,0.740755956524108,0.192426167689164,1.09802024607202,-0.0329189820576792,0.872900758603606,1.05087063748288,0.803219197629959,-0.367255207188611,-0.460446609989468,0.112667890890428,-0.00665889089581875,-0.249645883634576,CTC,0
4.6007,0.15,0.2,0.3,0.230216695009554,0.175339506770167,0.312956144665983,0,0,0,0.667918264865875,0.247735977172852,1.19431722164154,-0.0855194255709648,0.877165377140045,1.23868954181671,0.236842527985573,-0.105563901364803,-0.136209279298782,-9.37741917334E-16,-7.7715611723761E-16,-0.0342406444251537,0.764047798813787,0.180835555792145,1.08202103929157,-0.0288073748762832,0.872573654971134,1.03544003151381,0.800053093039868,-0.375070700742473,-0.47701891324622,0.120298586821361,-0.00711090185185291,-0.255453154585028,CTC,0
4.7007,0.15,0.2,0.3,0.224303828977858,0.179063992494684,0.312862105437305,0,0,0,0.69031822681427,0.237419962882996,1.18147194385529,-0.0855194255709648,0.877165377140045,1.23370409011841,0.208730950951576,-0.0941275283694267,-0.125526189804077,-9.37741917334E-16,-7.7715611723761E-16,-0.037664707750082,0.786698478696315,0.169564002582362,1.06646224807827,-0.0248089492940456,0.872255555630798,1.02043418904535,0.791186458216905,-0.37079313642513,-0.475012506515674,0.127625165248936,-0.00754626680490438,-0.268295583539605,CTC,0
4.8007,0.15,0.2,0.3,0.218840107492913,0.182250143434423,0.312681919710349,0,0,0,0.712127566337585,0.227274596691132,1.16869390010834,-0.0855194255709648,0.877165377140045,1.22929382324219,0.235952273011208,-0.107310175895691,-0.140968725085258,-9.37741917334E-16,-7.7715611723761E-16,-0.0410887710750103,0.8084107670815,0.158759416799109,1.05154803960859,-0.0209761738639705,0.871950634778606,1.00605002129288,0.778085169733076,-0.374536731421645,-0.486359603915736,0.134544734084083,-0.00795885879609291,-0.281058998733289,CTC,0
4.9007,0.15,0.2,0.3,0.212782471980282,0.185568192784549,0.312470323507162,0,0,0,0.734176635742188,0.216856941580772,1.15545570850372,-0.0849441885948181,0.877165377140045,1.2239248752594,0.208593994379044,-0.0975858345627785,-0.129087224602699,0.0102721927687526,-7.7715611723761E-16,-0.0445128343999386,0.828990410625107,0.148518463836851,1.03741184684087,-0.0173433392804238,0.871661620450139,0.992416219099134,0.754588838472879,-0.36512844318917,-0.477003588733385,0.148055243361531,-0.00834454114172927,-0.291913046336594,CTC,0
5.0007,0.15,0.2,0.3,0.207142971955527,0.188428282283424,0.31219371255621,0,0,0,0.755529642105103,0.206648305058479,1.14230561256409,-0.0836019515991211,0.877165377140045,1.21721374988556,0.228590533137321,-0.109946705400944,-0.139941513538361,0.0171203222125769,-7.7715611723761E-16,-0.0821775421500206,0.848206780120965,0.138955910642212,1.02421208937601,-0.0139511575097899,0.87139175153265,0.979685571941258,0.724937451785123,-0.362034305575176,-0.478152928437799,0.156735270734446,-0.00869848736628435,-0.33382474956172,CTC,0
5.1008,0.15,0.2,0.3,0.201278559233129,0.191148579723258,0.311886990145265,0,0,0,0.776295900344849,0.196491435170174,1.12915754318237,-0.0832184553146362,0.877165377140045,1.21203660964966,0.197773948311806,-0.0965586155653,-0.125115305185318,0.00684812851250172,-7.7715611723761E-16,-0.0547850281000137,0.865853744311446,0.130174333360835,1.0120903591316,-0.0108360160026037,0.871143922871566,0.967994639657452,0.687228941276122,-0.345078312562797,-0.460071831090695,0.153006026935947,-0.00901632801392228,-0.312494918963985,CTC,0
5.2007,0.15,0.2,0.3,0.195665893730662,0.193557391019812,0.311552343722735,0,0,0,0.797071754932404,0.186286628246307,1.11572563648224,-0.0816844776272774,0.877165377140045,1.20321619510651,0.225303426384926,-0.110323347151279,-0.144872158765793,0.0171203222125769,-7.7715611723761E-16,-0.102721929550171,0.881693422282851,0.122292107573068,1.00121005691899,-0.00803990683750402,0.870921475194942,0.957501015906523,0.636485974462561,-0.334557812899473,-0.457579552073348,0.162698257636509,-0.0092931286088021,-0.35963640617152,CTC,0
5.3014,0.15,0.2,0.3,0.189938643765554,0.195778580158344,0.311163692440769,0,0,0,0.816467046737671,0.17637711763382,1.10256206989288,-0.0797670036554337,0.877165377140045,1.19727206230164,0.17873615026474,-0.0910458713769913,-0.123266316950321,0.00684812851250172,-7.7715611723761E-16,-0.0719053521752358,0.895628078001156,0.115357869210093,0.991638317789096,-0.00558008292966967,0.870725781078262,0.948269449805838,0.580256453550096,-0.307507740928309,-0.426499229629652,0.154430453470871,-0.00952630214657359,-0.331333301927708,CTC,0
5.4007,0.15,0.2,0.3,0.184981858319513,0.197491935354337,0.310738006508705,0,0,0,0.83449512720108,0.167040914297104,1.08999300003052,-0.0786165148019791,0.877165377140045,1.188068151474,0.196061924099922,-0.101694710552692,-0.139633342623711,0.0136962570250034,-7.7715611723761E-16,-0.116418182849884,0.907159463035599,0.109619559337175,0.983717389451333,-0.00354449789824997,0.870563837772735,0.940630025816475,0.516003517502558,-0.289404263738409,-0.414549800209699,0.160484926574227,-0.0097066988200983,-0.371511847932083,CTC,0
5.5007,0.15,0.2,0.3,0.17989435627797,0.199022570389696,0.310195349047748,0,0,0,0.851152241230011,0.158107399940491,1.07766175270081,-0.0768907889723778,0.877165377140045,1.18154871463776,0.150110974907875,-0.0826569125056267,-0.116007298231125,0.0205443855375051,-7.7715611723761E-16,-0.0616331584751606,0.916343975277555,0.105049112932121,0.97740853209651,-0.00192319606982486,0.870434853243325,0.934545380915432,0.443569656666926,-0.25566807693525,-0.373836569630972,0.164476112228193,-0.00983419946300041,-0.315580484589858,CTC,0
5.6007,0.15,0.2,0.3,0.175682195181253,0.200116945896838,0.309666566936646,0,0,0,0.86592447757721,0.149992644786835,1.06617605686188,-0.0755485519766808,0.877165377140045,1.17119431495667,0.158328726887703,-0.0877245292067528,-0.127546399831772,0.0205443855375051,-7.7715611723761E-16,-0.126690372824669,0.9228735309005,0.101799840326533,0.972923369038275,-0.000770562136590741,0.870343154126693,0.930219617469254,0.364378018518282,-0.228926477143352,-0.350701217963077,0.162743139113071,-0.00990278473644633,-0.370913702935279,CTC,0
5.7008,0.15,0.2,0.3,0.171519761453867,0.200988228024449,0.309043249718622,0,0,0,0.878921151161194,0.142384096980095,1.05520808696747,-0.073631078004837,0.877165377140045,1.16448318958282,0.111521773040295,-0.0662898868322372,-0.102311037480831,0.0171203222125769,-7.7715611723761E-16,-0.0650572180747986,0.926541416554838,0.0999746073297885,0.970403892034225,-0.000123086303234279,0.87029164344299,0.927789680946079,0.27647547751199,-0.187256934158636,-0.300553253983405,0.156032260016401,-0.00990797031619389,-0.303981655090505,CTC,0
5.8007,0.15,0.2,0.3,0.1682790145025,0.201521131619161,0.308437437367745,0,0,0,0.889666676521301,0.135960549116135,1.04542517662048,-0.0713301077485085,0.877165377140045,1.15470409393311,0.114945836365223,-0.0679334327578545,-0.107481375336647,0.0239684507250786,-7.7715611723761E-16,-0.130114436149597,0.927284979360627,0.0996045916051513,0.96989313745603,8.17159101367425E-06,0.870281201070432,0.927297078234508,0.225709817035953,-0.172597203147075,-0.291084942695349,0.161851319259107,-0.0103262641044197,-0.377659864695063,CTC,0
5.9008,0.15,0.2,0.3,0.165355539851644,0.201801972550542,0.307811929150467,0,0,0,0.897990465164185,0.130273312330246,1.03657412528992,-0.0699878707528114,0.877165377140045,1.14818465709686,0.0689948946237564,-0.0479026585817337,-0.0796437337994576,0.0205443855375051,-7.7715611723761E-16,-0.0650572180747986,0.927284979360627,0.0996045916051513,0.96989313745603,8.17159101367425E-06,0.870281201070432,0.927297078234508,0.175767085178653,-0.141835946333072,-0.247829203781336,0.156427593117654,-0.0103262641044197,-0.306732410461893,CTC,0
6.0007,0.15,0.2,0.3,0.163296412371259,0.201802940249583,0.307207726044763,0,0,0,0.904243350028992,0.12560810148716,1.02874505519867,-0.0684538930654526,0.877165377140045,1.13763844966888,0.0713574960827827,-0.0519430562853813,-0.0869369879364967,0.0205443855375051,-7.7715611723761E-16,-0.140386641025543,0.927284979360627,0.0996045916051513,0.96989313745603,8.17159101367425E-06,0.870281201070432,0.927297078234508,0.138249775989811,-0.124791262042186,-0.228717945989817,0.153359637742937,-0.0103262641044197,-0.368954416782847,CTC,0
6.101,0.15,0.2,0.3,0.161137233093017,0.201775749310665,0.306602854692501,0,0,0,0.909813582897186,0.121117368340492,1.02132248878479,-0.0665364190936089,0.877165377140045,1.13035213947296,0.0479026585817337,-0.0406094007194042,-0.0666665285825729,0.0136962570250034,-7.7715611723761E-16,-0.0684812888503075,0.927284979360627,0.0996045916051513,0.96989313745603,8.17159101367425E-06,0.870281201070432,0.927297078234508,0.104828378780643,-0.102294867229126,-0.194287971135825,0.144046186989248,-0.0103262641044197,-0.2904722304356,CTC,0
6.2008,0.15,0.2,0.3,0.159763728265474,0.201610096922509,0.306050601333487,0,0,0,0.913358986377716,0.117907516658306,1.01539361476898,-0.0651941820979118,0.877165377140045,1.12191522121429,0.0376989468932152,-0.0343776047229767,-0.0640642419457436,0.0136962570250034,-7.7715611723761E-16,-0.123266316950321,0.927284979360627,0.0996045916051513,0.96989313745603,8.17159101367425E-06,0.870281201070432,0.927297078234508,0.0835559578974645,-0.08696274210181,-0.174939977106303,0.141361712997854,-0.0103262641044197,-0.33488094788908,CTC,0
6.3007,0.15,0.2,0.3,0.158314394782319,0.201412328259066,0.305525204961038,0,0,0,0.91676253080368,0.11465547978878,1.00954914093018,-0.0634684562683106,0.877165377140045,1.11501228809357,0.0273925140500069,-0.0283512528985739,-0.0528675504028797,0.0171203222125769,-7.7715611723761E-16,-0.0616331584751606,0.927284979360627,0.0996045916051513,0.96989313745603,8.17159101367425E-06,0.870281201070432,0.927297078234508,0.0631346913416784,-0.0715440538939453,-0.150688540664166,0.14064951348871,-0.0103262641044197,-0.266887226150623,CTC,0
6.4007,0.15,0.2,0.3,0.157404909355889,0.201158266776468,0.305028796641599,0,0,0,0.91887366771698,0.112375594675541,1.00486481189728,-0.0625097155570984,0.877165377140045,1.10772585868835,0.0230097118765116,-0.0250983908772469,-0.0511555187404156,0.0171203222125769,-7.7715611723761E-16,-0.106145992875099,0.927284979360627,0.0996045916051513,0.96989313745603,8.17159101367425E-06,0.870281201070432,0.927297078234508,0.050467869861881,-0.0611233686324573,-0.135608334567993,0.138732032066286,-0.0103262641044197,-0.302494731516829,CTC,0
6.5007,0.15,0.2,0.3,0.156422890050067,0.200909102082581,0.304562538634506,0,0,0,0.920956075191498,0.110053531825542,1.00046229362488,-0.0611674822866917,0.877165377140045,1.10216522216797,0.0177366528660059,-0.0207155887037516,-0.0393767394125462,0.00684812851250172,-7.7715611723761E-16,-0.0445128343999386,0.927284979360627,0.0996045916051513,0.96989313745603,8.17159101367425E-06,0.870281201070432,0.927297078234508,0.0379734250147741,-0.0500819963630653,-0.115333512154072,0.127829810565412,-0.0103262641044197,-0.235977536038747,CTC,0
6.6008,0.15,0.2,0.3,0.15577059007507,0.200679169520499,0.304152083798145,0,0,0,0.922282934188843,0.108425594866276,0.996845901012421,-0.0598252490162849,0.877165377140045,1.09526228904724,0.0132511286064982,-0.0170518402010202,-0.0388631299138069,0.0171203222125769,-7.7715611723761E-16,-0.0924497321248055,0.927284979360627,0.0996045916051513,0.96989313745603,8.17159101367425E-06,0.870281201070432,0.927297078234508,0.0300122710307043,-0.0421047491249061,-0.104176168617457,0.133363098984659,-0.0103262641044197,-0.275362469376316,CTC,0
6.7007,0.15,0.2,0.3,0.155117853051848,0.200409970361383,0.30370937379259,0,0,0,0.923496723175049,0.106870524585247,0.993365705013275,-0.0596335045993328,0.877165377140045,1.09104382991791,0.00992978643625975,-0.0135935349389911,-0.0310562625527382,-9.42698330624859E-16,-7.7715611723761E-16,-0.0342406444251537,0.927284979360627,0.0996045916051513,0.96989313745603,8.17159101367425E-06,0.870281201070432,0.927297078234508,0.0227295371134679,-0.0345011458959795,-0.089051460203379,0.119283352380692,-0.0103262641044197,-0.213677258388391,CTC,0
6.8007,0.15,0.2,0.3,0.154655465161578,0.200212441699335,0.303379183660413,0,0,0,0.924280941486359,0.105725787580013,0.99068695306778,-0.0584830157458782,0.877165377140045,1.08529138565063,0.00818351376801729,-0.0116760591045022,-0.0292757488787174,0.00684812851250172,-7.7715611723761E-16,-0.0856016054749489,0.927284979360627,0.0996045916051513,0.96989313745603,8.17159101367425E-06,0.870281201070432,0.927297078234508,0.018024227245609,-0.0291552075412488,-0.0799468961624797,0.122460877483785,-0.0103262641044197,-0.25768331152319,CTC,0
6.901,0.15,0.2,0.3,0.154227208013795,0.199959350619749,0.30300464337934,0,0,0,0.924978911876678,0.104671180248261,0.98801976442337,-0.0584830157458782,0.877165377140045,1.08203172683716,0.00520457746461034,-0.00914225168526173,-0.0235575623810291,-9.42698330624859E-16,-7.7715611723761E-16,-0.0308165792375803,0.927284979360627,0.0996045916051513,0.96989313745603,8.17159101367425E-06,0.870281201070432,0.927297078234508,0.0138364049036901,-0.0239232552465415,-0.0685144183306392,0.116982374673783,-0.0103262641044197,-0.200408361115744,CTC,0
7.0007,0.15,0.2,0.3,0.153903606307927,0.199787169904189,0.302725379041503,0,0,0,0.925418019294739,0.10385625064373,0.985908627510071,-0.0573325306177139,0.877165377140045,1.07723796367645,0.00451976479962468,-0.00835471693426371,-0.022564584389329,0.0171203222125769,-7.7715611723761E-16,-0.0616331584751606,0.927284979360627,0.0996045916051513,0.96989313745603,8.17159101367425E-06,0.870281201070432,0.927297078234508,0.0112017603953283,-0.020348522928021,-0.0615852207957204,0.128377662187517,-0.0103262641044197,-0.225335469291797,CTC,0
7.1007,0.15,0.2,0.3,0.1535915884796,0.199585626259316,0.302428029537933,0,0,0,0.925824522972107,0.103118024766445,0.98385500907898,-0.0571407862007618,0.877165377140045,1.07436180114746,0.00332134240306914,-0.00619755638763309,-0.0184214655309916,-9.46663397730075E-16,-7.7715611723761E-16,-0.0239684507250786,0.927284979360627,0.0996045916051513,0.96989313745603,8.17159101367425E-06,0.870281201070432,0.927297078234508,0.00876273833111928,-0.0165327552002287,-0.0529384941874441,0.11429791558355,-0.0103262641044197,-0.185260276914826,CTC,0
7.2007,0.15,0.2,0.3,0.153384733974701,0.199427066958201,0.302197373496533,0,0,0,0.926064193248749,0.102567709982395,0.982246220111847,-0.0565655417740345,0.877165377140045,1.07014334201813,0.00263652950525284,-0.0060605937615037,-0.0173600055277348,0.0102721927687526,-7.7715611723761E-16,-0.0513609647750855,0.927284979360627,0.0996045916051513,0.96989313745603,8.17159101367425E-06,0.870281201070432,0.927297078234508,0.00732471667126822,-0.014276711013577,-0.0474752512840923,0.121365180945098,-0.0103262641044197,-0.207464635641565,CTC,0
7.3007,0.15,0.2,0.3,0.153133526497748,0.199277776040943,0.301924214010687,0,0,0,0.926307737827301,0.102105595171452,0.980608701705933,-0.0559902973473072,0.877165377140045,1.06765067577362,0.00212291977368295,-0.00421159900724888,-0.0146549949422479,0.00342406425625086,-7.7715611723761E-16,-0.0136962570250034,0.927284979360627,0.0996045916051513,0.96989313745603,8.17159101367425E-06,0.870281201070432,0.927297078234508,0.00586344919995474,-0.0116886538681007,-0.0409396897150572,0.114736189281642,-0.0103262641044197,-0.167811289177528,CTC,0
7.4008,0.15,0.2,0.3,0.152982316332929,0.199163514998736,0.301739835658817,0,0,0,0.926474571228027,0.101758532226086,0.979402601718903,-0.0557985529303551,0.877085447311401,1.06515789031982,0.00160931015852839,-0.00380071136169136,-0.0127717601135373,-9.47654638036599E-16,-0.00142669340129942,-0.037664707750082,0.927284979360627,0.0996045916051513,0.96989313745603,8.17159101367425E-06,0.870281201070432,0.927297078234508,0.00486244879559684,-0.0101360470284141,-0.0361914488567408,0.111613449042737,-0.0114903934226228,-0.188558306888929,CTC,0
7.5008,0.15,0.2,0.3,0.152825504598228,0.199028593045726,0.301538232654808,0,0,0,0.92661452293396,0.101388461887836,0.978163957595825,-0.0556068047881126,0.877085447311401,1.06228172779083,0.00143810699228197,-0.00304741715081036,-0.0115390969440341,0.00342406425625086,-7.7715611723761E-16,-0.0171203222125769,0.927284979360627,0.0996045916051513,0.96989313745603,8.17159101367425E-06,0.870281201070432,0.927297078234508,0.00402273856000113,-0.00835444799106483,-0.0317359185858067,0.113969204163253,-0.010206369361454,-0.165261030280283,CTC,0
7.6008,0.15,0.2,0.3,0.152705297609879,0.198947220893445,0.301390726605297,0,0,0,0.926729559898376,0.101162195205688,0.977278053760529,-0.0552233085036278,0.877085447311401,1.05998075008392,0.00126690382603556,-0.00246532633900642,-0.00962162017822266,0.00342406425625086,-7.7715611723761E-16,-0.0410887710750103,0.927284979360627,0.0996045916051513,0.96989313745603,8.17159101367425E-06,0.870281201070432,0.927297078234508,0.0033325167735021,-0.00721654493775134,-0.0279277210204299,0.113202211594284,-0.010206369361454,-0.186219034687867,CTC,0
7.7009,0.15,0.2,0.3,0.152589571600583,0.198838702091832,0.301236658382174,0,0,0,0.926829278469086,0.10088224709034,0.976334691047668,-0.0552233085036278,0.877085447311401,1.05672097206116,0.000890256720595062,-0.00280773267149925,-0.008936807513237,-9.47654638036599E-16,-7.7715611723761E-16,-0.0342406444251537,0.927284979360627,0.0996045916051513,0.96989313745603,8.17159101367425E-06,0.870281201070432,0.927297078234508,0.00273420534924674,-0.00623371500935321,-0.0246867452828582,0.110462960189282,-0.010206369361454,-0.175922114745965,CTC,0
7.8007,0.15,0.2,0.3,0.152512916770209,0.198761413368049,0.301128847507603,0,0,0,0.92689448595047,0.100684747099876,0.975657820701599,-0.0552233085036278,0.877085447311401,1.05461180210114,0.000719053496140987,-0.00208867923356593,-0.00729325693100691,-9.47654638036599E-16,-7.7715611723761E-16,-0.0239684507250786,0.927284979360627,0.0996045916051513,0.96989313745603,8.17159101367425E-06,0.870281201070432,0.927297078234508,0.00234296046094106,-0.00515609367232686,-0.0216700038953122,0.110462960189282,-0.010206369361454,-0.163535277963867,CTC,0
7.9007,0.15,0.2,0.3,0.152420936693997,0.19868378486425,0.301005188601893,0,0,0,0.92695963382721,0.100492998957634,0.974927246570587,-0.0550315603613853,0.877085447311401,1.05231082439423,0.000479368987726048,-0.00184899475425482,-0.00671116588637233,-9.47654638036599E-16,-7.7715611723761E-16,-0.0273925140500069,0.927284979360627,0.0996045916051513,0.96989313745603,8.17159101367425E-06,0.870281201070432,0.927297078234508,0.00195207320050406,-0.00429322731163269,-0.0191290268754955,0.110079463904797,-0.010206369361454,-0.164359784544697,CTC,0
8.0007,0.15,0.2,0.3,0.152353767674689,0.198627211429234,0.300924773557027,0,0,0,0.927003741264343,0.10033193230629,0.974382698535919,-0.0548398122191429,0.877085447311401,1.0503933429718,0.000445128360297531,-0.00140386633574963,-0.00592363113537431,0.00342406425625086,-7.7715611723761E-16,-0.0171203222125769,0.927284979360627,0.0996045916051513,0.96989313745603,8.17159101367425E-06,0.870281201070432,0.927297078234508,0.00168742857770131,-0.00347090933885341,-0.0170228619208928,0.112435219025314,-0.010206369361454,-0.152183806979349,CTC,0
8.1008,0.15,0.2,0.3,0.152291181520732,0.19855899354954,0.300822470428487,0,0,0,0.927036345005035,0.100188121199608,0.973818957805634,-0.0548398122191429,0.877085447311401,1.04847586154938,0.00034240641980432,-0.00143810699228197,-0.00458824587985873,-9.47654638036599E-16,-7.7715611723761E-16,-0.0171203222125769,0.927284979360627,0.0996045916051513,0.96989313745603,8.17159101367425E-06,0.870281201070432,0.927297078234508,0.00149180613354849,-0.00290936117473906,-0.0145304085767265,0.109695967620312,-0.010206369361454,-0.150074577414682,CTC,0
8.2007,0.15,0.2,0.3,0.152244265945629,0.198511649724255,0.300749432379236,0,0,0,0.927074730396271,0.1000941619277,0.973404765129089,-0.0548398122191429,0.877085447311401,1.04675018787384,0.000376647076336667,-0.00102721923030913,-0.00407463638111949,-9.47654638036599E-16,-7.7715611723761E-16,-0.0171203222125769,0.927284979360627,0.0996045916051513,0.96989313745603,8.17159101367425E-06,0.870281201070432,0.927297078234508,0.00126149378613638,-0.00236916898231869,-0.0129796648478504,0.109695967620312,-0.010206369361454,-0.148176336371591,CTC,0
8.3008,0.15,0.2,0.3,0.152195318282881,0.198459999730703,0.300672196722508,0,0,0,0.927105367183685,0.0999906212091446,0.972965657711029,-0.0548398122191429,0.877085447311401,1.04483270645142,0.000205443851882592,-0.000821775407530367,-0.00362950819544494,-9.47654638036599E-16,-7.7715611723761E-16,-0.0136962570250034,0.927284979360627,0.0996045916051513,0.96989313745603,8.17159101367425E-06,0.870281201070432,0.927297078234508,0.00107767306164908,-0.00187282857898538,-0.0113952656822648,0.109695967620312,-0.010206369361454,-0.142711522923103,CTC,0
8.4007,0.15,0.2,0.3,0.152155004406498,0.198431183629337,0.300612799958237,0,0,0,0.927126467227936,0.0999407693743706,0.972639679908752,-0.0546480640769005,0.877085447311401,1.04387390613556,0.000205443851882592,-0.000513609615154564,-0.00352678610943258,-9.47654638036599E-16,-7.7715611723761E-16,-0.0136962570250034,0.927284979360627,0.0996045916051513,0.96989313745603,8.17159101367425E-06,0.870281201070432,0.927297078234508,0.000951072796146147,-0.001550154922939,-0.0103556990238275,0.109312471335828,-0.010206369361454,-0.14165684257566,CTC,0
8.501,0.15,0.2,0.3,0.152118969948069,0.198391147404661,0.300555420671319,0,0,0,0.927145659923553,0.099856398999691,0.972304105758667,-0.0546480640769005,0.877085447311401,1.04253172874451,0.000205443851882592,-0.000821775407530367,-0.00308165792375803,-9.47654638036599E-16,-7.7715611723761E-16,2.25216679785028E-15,0.927284979360627,0.0996045916051513,0.96989313745603,8.17159101367425E-06,0.870281201070432,0.927297078234508,0.0008359166224401,-0.00133593974117105,-0.00908189966216645,0.109312471335828,-0.010206369361454,-0.126758115560997,CTC,0
8.6007,0.15,0.2,0.3,0.152092679738672,0.198363277814937,0.300508193019184,0,0,0,0.927164852619171,0.0998142138123512,0.972056806087494,-0.0546480640769005,0.877085447311401,1.04157292842865,0.00017120320990216,-0.00034240641980432,-0.00256804819218814,-9.47654638036599E-16,-7.7715611723761E-16,-0.0171203222125769,0.927284979360627,0.0996045916051513,0.96989313745603,8.17159101367425E-06,0.870281201070432,0.927297078234508,0.000720760448734027,-0.00097545139672151,-0.00803183480970522,0.109312471335828,-0.010206369361454,-0.142481350981882,CTC,0
8.7008,0.15,0.2,0.3,0.152063298799321,0.19832972205588,0.300451306693249,0,0,0,0.92717444896698,0.0997739434242249,0.971776843070984,-0.0546480640769005,0.877085447311401,1.03716278076172,6.84812839608639E-05,-0.00034240641980432,-0.00253380765207112,-9.47654638036599E-16,-7.7715611723761E-16,-0.0719053521752358,0.927284979360627,0.0996045916051513,0.96989313745603,8.17159101367425E-06,0.870281201070432,0.927297078234508,0.000663182361881012,-0.000814369844216016,-0.00717140143610498,0.109312471335828,-0.010206369361454,-0.191319517911663,CTC,0
8.8007,0.15,0.2,0.3,0.151806013817101,0.198510301941582,0.300403281463283,0,0,0,0.927214682102203,0.0997375100851059,0.971577405929565,-0.0481286458671093,0.876606106758118,1.03351950645447,0.000239684493863024,-0.000376647076336667,-0.00160931015852839,0.0308165792375803,-0.00285338680259883,-0.0205443855375051,0.927284979360627,0.0996045916051513,0.96989313745603,8.17159101367425E-06,0.870281201070432,0.927297078234508,0.000421783550540684,-0.000682332750353129,-0.00601839151572396,0.12092689830631,-0.0120554066538667,-0.136978168868711,CTC,0
8.9007,0.15,0.2,0.3,0.151765505470785,0.198508927024708,0.300364936704649,0,0,0,0.927228093147278,0.0997068360447884,0.971389472484589,-0.0477451533079147,0.876526236534119,1.03351950645447,0.000102721925941296,-0.000205443851882592,-0.00160931015852839,0.00342406425625086,-0.00142669340129942,2.25216679785028E-15,0.927284979360627,0.0996045916051513,0.96989313745603,8.17159101367425E-06,0.870281201070432,0.927297078234508,0.000341317280093893,-0.000491155299301348,-0.00545459118079355,0.0982459012028575,-0.0106515772566987,-0.116844671041954,CTC,0
9.0008,0.15,0.2,0.3,0.151740153402799,0.198511085650837,0.300333727821007,0,0,0,0.92723959684372,0.0996876582503319,0.971239924430847,-0.0473616570234299,0.876366436481476,1.03045153617859,6.84812839608639E-05,-0.000239684493863024,-0.00143810699228197,0.00342406425625086,-0.00142669340129942,-0.0308165792375803,0.927284979360627,0.0996045916051513,0.96989313745603,8.17159101367425E-06,0.870281201070432,0.927297078234508,0.000272295101443996,-0.000428140378267598,-0.00490322511982134,0.0974789086338878,-0.0104118771777345,-0.143670151391318,CTC,0
9.1008,0.15,0.2,0.3,0.151728091383614,0.198497663599849,0.300305104814295,0,0,0,0.927245378494263,0.0996627286076546,0.971076965332031,-0.0473616570234299,0.876286506652832,1.0300680398941,6.84812839608639E-05,-0.000239684493863024,-0.00174627278465778,-9.23864129526186E-16,-7.7715611723761E-16,2.25216679785028E-15,0.927284979360627,0.0996045916051513,0.96989313745603,8.17159101367425E-06,0.870281201070432,0.927297078234508,0.000237605198184714,-0.000328421807558367,-0.00459924729879905,0.0947396572288863,-0.00900795837360001,-0.113048057825554,CTC,0
9.2007,0.15,0.2,0.3,0.151713342734888,0.198479588030038,0.30027139077565,0,0,0,0.927249193191528,0.0996512249112129,0.970929324626923,-0.0473616570234299,0.876206636428833,1.02968466281891,3.4240641980432E-05,-0.000136962567921728,-0.00123266316950321,-9.23864129526186E-16,-0.00142669340129942,-0.00684812851250172,0.927284979360627,0.0996045916051513,0.96989313745603,8.17159101367425E-06,0.870281201070432,0.927297078234508,0.000214717014590974,-0.000241318251415241,-0.0038481594143804,0.0947396572288863,-0.0101721770987702,-0.119337508985093,CTC,0
9.3013,0.15,0.2,0.3,0.151696609260629,0.198473652473007,0.300243486391525,0,0,0,0.927251100540161,0.0996416360139847,0.970798909664154,-0.0471699088811874,0.876206636428833,1.02815067768097,3.4240641980432E-05,-0.000136962567921728,-0.00116418185643852,0.00342406425625086,-7.7715611723761E-16,-0.0205443855375051,0.927284979360627,0.0996045916051513,0.96989313745603,8.17159101367425E-06,0.870281201070432,0.927297078234508,0.000203272922794097,-0.000202962662502278,-0.00341582573823592,0.0970954123494029,-0.00888815303760147,-0.131072457217863,CTC,0
9.4009,0.15,0.2,0.3,0.151480330213004,0.198638183629235,0.300217111455474,0,0,0,0.927268385887146,0.099616713821888,0.970695376396179,-0.0416092276573181,0.875807166099548,1.02220642566681,0.000136962567921728,-0.000136962567921728,-0.000856016064062715,0.0205443855375051,-0.00428008055314422,-0.00684812851250172,0.927284979360627,0.0996045916051513,0.96989313745603,8.17159101367425E-06,0.870281201070432,0.927297078234508,9.95608408849207E-05,-0.000103273894115437,-0.00292032645888586,0.0996703069266677,-0.0121410200415036,-0.111111448117783,CTC,0
9.5007,0.15,0.2,0.3,0.151450672266119,0.19865305091815,0.30019757427975,0,0,0,0.927287578582764,0.0996013730764389,0.970597565174103,-0.0410339869558811,0.875567495822907,1.02163124084473,0.000136962567921728,-0.000136962567921728,-0.00102721923030913,0.00684812851250172,-0.00285338680259883,2.25216679785028E-15,0.927284979360627,0.0996045916051513,0.96989313745603,8.17159101367425E-06,0.870281201070432,0.927297078234508,-1.55953328211285E-05,-4.19109123191713E-05,-0.00272961469240448,0.087562819903791,-0.0104974902510499,-0.103767578871239,CTC,0
9.6007,0.15,0.2,0.3,0.151438370957217,0.198652986741507,0.300180227909168,0,0,0,0.927289485931397,0.0995936989784241,0.970518946647644,-0.0408422388136387,0.875487565994263,1.02163124084473,1.26882637057828E-16,-6.84812839608639E-05,-0.000719053496140987,-9.30803023430093E-16,-0.00142669340129942,2.25216679785028E-15,0.927284979360627,0.0996045916051513,0.96989313745603,8.17159101367425E-06,0.870281201070432,0.927297078234508,-2.70394246180155E-05,1.61779933244972E-05,-0.00230885967252735,0.081700820809304,-0.00909357144691477,-0.103767578871239,CTC,0
9.7007,0.15,0.2,0.3,0.15143424348786,0.198649289076058,0.300165334382876,0,0,0,0.927293300628662,0.0995879471302033,0.970446109771729,-0.0408422388136387,0.875487565994263,1.02163124084473,3.4240641980432E-05,-6.84812839608639E-05,-0.000753294152673334,-9.30803023430093E-16,-7.7715611723761E-16,2.25216679785028E-15,0.927284979360627,0.0996045916051513,0.96989313745603,8.17159101367425E-06,0.870281201070432,0.927297078234508,-4.99276082117631E-05,3.91853862078039E-05,-0.00211089343870019,0.081700820809304,-0.00780954738574599,-0.103767578871239,CTC,0
9.8007,0.15,0.2,0.3,0.151243400950798,0.198814746986442,0.300145426565094,0,0,0,0.927304804325104,0.0995726138353348,0.970380902290344,-0.0352815575897694,0.874928295612335,1.0149199962616,0.000102721925941296,-0.000136962567921728,-0.000479368987726048,0.0308165792375803,-0.00428008055314422,-0.0239684507250786,0.927284979360627,0.0996045916051513,0.96989313745603,8.17159101367425E-06,0.870281201070432,0.927297078234508,-0.000118949786861667,7.31260520973287E-05,-0.00175091589557898,0.0952327217516303,-0.0108227143106839,-0.119874291540375,CTC,0
9.9008,0.15,0.2,0.3,0.151217732231753,0.19882907660397,0.300135187253664,0,0,0,0.92731249332428,0.0995611026883125,0.970325291156769,-0.0348980613052845,0.874768495559692,1.014728307724,0.000102721925941296,-0.000102721925941296,-0.000719053496140987,0.00342406425625086,-0.00142669340129942,-0.00342406425625086,0.927284979360627,0.0996045916051513,0.96989313745603,8.17159101367425E-06,0.870281201070432,0.927297078234508,-0.000165083781917825,0.000132866896978483,-0.00172789319990164,0.0725517171975971,-0.00801496579505931,-0.0995299354095663,CTC,0
10.0008,0.15,0.2,0.3,0.151199034872437,0.198837352484316,0.300122475875616,0,0,0,0.927318215370178,0.0995534360408783,0.970265865325928,-0.0347063168883324,0.874768495559692,1.014728307724,3.4240641980432E-05,-6.84812839608639E-05,-0.000513609615154564,-9.28820542817044E-16,-7.7715611723761E-16,2.25216679785028E-15,0.927284979360627,0.0996045916051513,0.96989313745603,8.17159101367425E-06,0.870281201070432,0.927297078234508,-0.000199416057308441,0.000177229743507601,-0.00142634937878658,0.0694289769586913,-0.00673094173389053,-0.0961743524384383,CTC,0
10.1011,0.15,0.2,0.3,0.151197642565262,0.19883726918762,0.300115558551993,0,0,0,0.927320122718811,0.0995457693934441,0.970227479934692,-0.0347063168883324,0.874688625335693,1.014728307724,1.26882637057828E-16,-0.000102721925941296,-0.000445128360297531,-9.28820542817044E-16,-0.00142669340129942,2.25216679785028E-15,0.927284979360627,0.0996045916051513,0.96989313745603,8.17159101367425E-06,0.870281201070432,0.927297078234508,-0.000210860149105315,0.000194200076452368,-0.0012701044521663,0.0694289769586914,-0.00789516045906076,-0.0961743524384383,CTC,0
10.2007,0.15,0.2,0.3,0.151193347613355,0.19883236091316,0.300106377193888,0,0,0,0.927322089672089,0.0995419323444366,0.970185339450836,-0.0347063168883324,0.874688625335693,1.01453649997711,1.26882637057828E-16,-3.4240641980432E-05,-0.000376647076336667,-9.28820542817044E-16,-7.7715611723761E-16,2.25216679785028E-15,0.927284979360627,0.0996045916051513,0.96989313745603,8.17159101367425E-06,0.870281201070432,0.927297078234508,-0.000222661868770844,0.000236940786066381,-0.00110259423022119,0.0694289769586913,-0.006611136397892,-0.0959633639168623,CTC,0
10.3008,0.15,0.2,0.3,0.151059229550823,0.19893118898019,0.300090773139888,0,0,0,0.927325904369354,0.0995361804962158,0.970127820968628,-0.0308713633567095,0.874448955059052,1.00859236717224,3.4240641980432E-05,-0.000102721925941296,-0.000616331584751606,0.0684812888503075,-0.00428008055314422,-0.102721929550171,0.927284979360627,0.0996045916051513,0.96989313745603,8.17159101367425E-06,0.870281201070432,0.927297078234508,-0.000245550052364597,0.00023255566536534,-0.00107384948864541,0.116544100975692,-0.0101037034807583,-0.190092308790674,CTC,0
10.4007,0.15,0.2,0.3,0.151022555011025,0.198976426157192,0.300083792303103,0,0,0,0.92732971906662,0.0995323434472084,0.970100939273834,-0.0301043726503849,0.874129354953766,1.00840067863464,1.26882637057828E-16,-3.4240641980432E-05,-0.000205443851882592,-9.29316162970306E-16,-0.00285338680259883,2.25216679785028E-15,0.927284979360627,0.0996045916051513,0.96989313745603,8.17159101367425E-06,0.870281201070432,0.927297078234508,-0.000268438235958344,0.000275296374979347,-0.000746671764542874,0.0602250884827964,-0.00834027894733901,-0.0892139604401473,CTC,0
10.5007,0.15,0.2,0.3,0.151018223290867,0.198987078261855,0.300079238582584,0,0,0,0.927331626415253,0.0995265915989876,0.970077931880951,-0.0299126245081425,0.874049484729767,1.00820887088776,3.4240641980432E-05,-3.4240641980432E-05,-0.000239684493863024,0.00342406425625086,-7.7715611723761E-16,2.25216679785028E-15,0.927284979360627,0.0996045916051513,0.96989313745603,8.17159101367425E-06,0.870281201070432,0.927297078234508,-0.000279882327755217,0.000298303767862639,-0.000698193971081251,0.062580843603313,-0.00565242548900222,-0.0890029719185713,CTC,0
10.6007,0.15,0.2,0.3,0.151015205065565,0.19898305346113,0.300071782619266,0,0,0,0.92733359336853,0.0995208397507668,0.970041513442993,-0.0299126245081425,0.874049484729767,1.00725018978119,3.4240641980432E-05,-6.84812839608639E-05,-0.000410887703765184,-9.29316162970306E-16,-7.7715611723761E-16,2.25216679785028E-15,0.927284979360627,0.0996045916051513,0.96989313745603,8.17159101367425E-06,0.870281201070432,0.927297078234508,-0.000291684047420746,0.00030761490395377,-0.000691660583149233,0.0598415921983116,-0.00565242548900222,-0.0879484227013472,CTC,0
10.7008,0.15,0.2,0.3,0.151004932302994,0.198985486508773,0.300066365117851,0,0,0,0.92733359336853,0.0995208397507668,0.97001850605011,-0.0297208782285452,0.874049484729767,1.00648319721222,1.26882637057828E-16,4.84731290615334E-15,-0.00017120320990216,0.00342406425625086,-7.7715611723761E-16,-0.0102721927687526,0.927284979360627,0.0996045916051513,0.96989313745603,8.17159101367425E-06,0.870281201070432,0.927297078234508,-0.00029168404742074,0.000335007417540056,-0.000478827708181523,0.0621973510441184,-0.00565242548900222,-0.0971714797888602,CTC,0
10.8008,0.15,0.2,0.3,0.151003289791429,0.198983296210881,0.300061952755941,0,0,0,0.92733359336853,0.0995208397507668,0.969997406005859,-0.0297208782285452,0.874049484729767,1.00648319721222,1.26882637057828E-16,4.84731290615334E-15,-0.000205443851882592,-9.29316162970306E-16,-7.7715611723761E-16,2.25216679785028E-15,0.927284979360627,0.0996045916051513,0.96989313745603,8.17159101367425E-06,0.870281201070432,0.927297078234508,-0.00029168404742074,0.000335007417540056,-0.000436071960618325,0.059458099639117,-0.00565242548900222,-0.0871047308754805,CTC,0
10.9009,0.15,0.2,0.3,0.151002468516595,0.198982201036529,0.30005974659469,0,0,0,0.92733359336853,0.0995208397507668,0.969985902309418,-0.0297208782285452,0.874049484729767,1.00648319721222,1.26882637057828E-16,4.84731290615334E-15,-0.00017120320990216,-9.29316162970306E-16,-7.7715611723761E-16,2.25216679785028E-15,0.927284979360627,0.0996045916051513,0.96989313745603,8.17159101367425E-06,0.870281201070432,0.927297078234508,-0.00029168404742074,0.000335007417540056,-0.000381016486105115,0.059458099639117,-0.00565242548900222,-0.0871047308754805,CTC,0
11.0008,0.15,0.2,0.3,0.150875563693923,0.199089835583862,0.300053547650617,0,0,0,0.927335500717163,0.0995189175009728,0.96997058391571,-0.0260776728391647,0.873809814453125,1.00073075294495,3.4240641980432E-05,-3.4240641980432E-05,-0.000205443851882592,0.0410887710750103,-0.00428008055314422,-0.0136962570250034,0.927284979360627,0.0996045916051513,0.96989313745603,8.17159101367425E-06,0.870281201070432,0.927297078234508,-0.000303128139217622,0.000329000159921967,-0.000355605690171549,0.0850427057203651,-0.00914499257186856,-0.0941993740659858,CTC,0
11.1007,0.15,0.2,0.3,0.150854299043592,0.199107550936275,0.300048609811903,0,0,0,0.927335500717163,0.0995170027017593,0.969953298568726,-0.025694178417325,0.873729884624481,1.00053894519806,1.26882637057828E-16,4.84731290615334E-15,-0.00017120320990216,0.00342406425625086,-7.7715611723761E-16,-0.00342406425625086,0.927284979360627,0.0996045916051513,0.96989313745603,8.17159101367425E-06,0.870281201070432,0.927297078234508,-0.000303128139217634,0.000350355613569713,-0.000283205264028694,0.0541439514216781,-0.00517302533107376,-0.0839216366310324,CTC,0
11.2007,0.15,0.2,0.3,0.150852934677106,0.199106525689633,0.300045965036519,0,0,0,0.927337408065796,0.0995170027017593,0.969941794872284,-0.0255024302750826,0.873729884624481,1.00034725666046,3.4240641980432E-05,4.84731290615334E-15,-0.000102721925941296,0.00342406425625086,-7.7715611723761E-16,-0.00342406425625086,0.927284979360627,0.0996045916051513,0.96989313745603,8.17159101367425E-06,0.870281201070432,0.927297078234508,-0.000314572231014498,0.000350355613569713,-0.000207605404327234,0.0537604551371932,-0.00517302533107376,-0.083710779239675,CTC,0
11.3007,0.15,0.2,0.3,0.150850154121407,0.199119195180154,0.300043544982675,0,0,0,0.927339315414429,0.0995170027017593,0.969934105873108,-0.0255024302750826,0.873570084571838,1.00034725666046,1.26882637057828E-16,4.84731290615334E-15,-3.4240641980432E-05,-9.23368509372924E-16,-7.7715611723761E-16,2.25216679785028E-15,0.927284979360627,0.0996045916051513,0.96989313745603,8.17159101367425E-06,0.870281201070432,0.927297078234508,-0.000326016322811377,0.000350355613569713,-0.000143449636422621,0.0510212037321918,-0.00493332525210952,-0.0803551962685469,CTC,0
11.4008,0.15,0.2,0.3,0.150842161256643,0.199123845378743,0.30004252925442,0,0,0,0.927339315414429,0.0995150879025459,0.96992838382721,-0.0253106821328402,0.873570084571838,1.00015544891357,1.26882637057828E-16,-3.4240641980432E-05,-3.4240641980432E-05,-9.23368509372924E-16,-7.7715611723761E-16,2.25216679785028E-15,0.927284979360627,0.0996045916051513,0.96989313745603,8.17159101367425E-06,0.870281201070432,0.927297078234508,-0.000326016322811377,0.000344318553629247,-0.000126283498727319,0.050637707447707,-0.00493332525210952,-0.080144207746971,CTC,0
11.5008,0.15,0.2,0.3,0.150723148798507,0.199225753756905,0.30003567946463,0,0,0,0.927339315414429,0.0995150879025459,0.969907283782959,-0.0220509730279446,0.873330414295197,0.994978308677673,1.26882637057828E-16,4.84731290615334E-15,-0.00017120320990216,0.0102721927687526,-7.7715611723761E-16,-0.00342406425625086,0.927284979360627,0.0996045916051513,0.96989313745603,8.17159101367425E-06,0.870281201070432,0.927297078234508,-0.000326016322811377,0.000358014810423361,-0.000145160906728886,0.0523360434529185,-0.00457381983714675,-0.0778049364586081,CTC,0
11.6008,0.15,0.2,0.3,0.150723556894793,0.199241955251477,0.300032836098277,0,0,0,0.927339315414429,0.0995150879025459,0.96989768743515,-0.0218592267483473,0.873090744018555,0.994403064250946,1.26882637057828E-16,4.84731290615334E-15,-0.000136962567921728,0.00342406425625086,-0.00285338680259883,-0.0102721927687526,0.927284979360627,0.0996045916051513,0.96989313745603,8.17159101367425E-06,0.870281201070432,0.927297078234508,-0.000326016322811377,0.000358014810423361,-9.5827478114115E-05,0.0464740480837226,-0.00678236254452223,-0.0838833335314597,CTC,0
11.7007,0.15,0.2,0.3,0.150722903828025,0.199241084373094,0.300031081823444,0,0,0,0.927339315414429,0.0995150879025459,0.969890058040619,-0.0218592267483473,0.873090744018555,0.994403064250946,1.26882637057828E-16,4.84731290615334E-15,-0.000102721925941296,-9.30803023430093E-16,-7.7715611723761E-16,2.25216679785028E-15,0.927284979360627,0.0996045916051513,0.96989313745603,8.17159101367425E-06,0.870281201070432,0.927297078234508,-0.000326016322811377,0.000358014810423361,-5.2394909332106E-05,0.0437347966787212,-0.00421431442218398,-0.07381658461808,CTC,0
11.8008,0.15,0.2,0.3,0.150722408920517,0.199240424403438,0.300029752417579,0,0,0,0.927339315414429,0.0995150879025459,0.969884276390076,-0.0218592267483473,0.873090744018555,0.994403064250946,1.26882637057828E-16,4.84731290615334E-15,-6.84812839608639E-05,-9.30803023430093E-16,-7.7715611723761E-16,2.25216679785028E-15,0.927284979360627,0.0996045916051513,0.96989313745603,8.17159101367425E-06,0.870281201070432,0.927297078234508,-0.000326016322811377,0.000358014810423361,-1.45055725142125E-05,0.0437347966787212,-0.00421431442218398,-0.07381658461808,CTC,0
11.9007,0.15,0.2,0.3,0.150669477971854,0.199276969005103,0.300026065834117,0,0,0,0.927339315414429,0.0995131656527519,0.969872772693634,-0.0199417509138584,0.873010814189911,0.9892258644104,1.26882637057828E-16,-3.4240641980432E-05,-0.000136962567921728,0.0342406444251537,-0.00142669340129942,-0.0924497321248055,0.927284979360627,0.0996045916051513,0.96989313745603,8.17159101367425E-06,0.870281201070432,0.927297078234508,-0.000326016322811377,0.000352007552805264,-2.10832535657754E-05,0.0672923605498672,-0.00537844374038705,-0.158722402275791,CTC,0
12.0007,0.15,0.2,0.3,0.150624165766608,0.199339488538525,0.30002361656701,0,0,0,0.927339315414429,0.0995131656527519,0.969867050647736,-0.018791263923049,0.872611343860626,0.988842368125916,1.26882637057828E-16,4.84731290615334E-15,-6.84812839608639E-05,0.0102721927687526,-0.00285338680259883,2.25216679785028E-15,0.927284979360627,0.0996045916051513,0.96989313745603,8.17159101367425E-06,0.870281201070432,0.927297078234508,-0.000326016322811377,0.000365703809599381,3.71716545060466E-05,0.0458166252431274,-0.00606326230762954,-0.0676998188805464,CTC,0
12.1007,0.15,0.2,0.3,0.15061920885949,0.199348278705122,0.300022142483572,0,0,0,0.927339315414429,0.0995131656527519,0.969861268997192,-0.018791263923049,0.872611343860626,0.988650619983673,1.26882637057828E-16,4.84731290615334E-15,-6.84812839608639E-05,-9.29316162970306E-16,-7.7715611723761E-16,2.25216679785028E-15,0.927284979360627,0.0996045916051513,0.96989313745603,8.17159101367425E-06,0.870281201070432,0.927297078234508,-0.000326016322811377,0.000365703809599381,5.4516606135686E-05,0.0375988710281245,-0.00349521418529128,-0.0674888959240798,CTC,0
12.2007,0.15,0.2,0.3,0.15062182872241,0.199351872804164,0.300021253670121,0,0,0,0.927339315414429,0.0995131656527519,0.969857454299927,-0.018791263923049,0.872531473636627,0.988267123699188,1.26882637057828E-16,4.84731290615334E-15,-3.4240641980432E-05,-9.29316162970306E-16,-7.7715611723761E-16,2.25216679785028E-15,0.927284979360627,0.0996045916051513,0.96989313745603,8.17159101367425E-06,0.870281201070432,0.927297078234508,-0.000326016322811377,0.000365703809599381,8.65050831208314E-05,0.0375988710281246,-0.00337540884929275,-0.0670670500111464,CTC,0
12.3008,0.15,0.2,0.3,0.150617037295362,0.199360880489676,0.300020220291982,0,0,0,0.927339315414429,0.0995131656527519,0.969853579998016,-0.0185995176434517,0.872451543807983,0.988267123699188,1.26882637057828E-16,4.84731290615334E-15,-3.4240641980432E-05,0.00342406425625086,-0.00142669340129942,2.25216679785028E-15,0.927284979360627,0.0996045916051513,0.96989313745603,8.17159101367425E-06,0.870281201070432,0.927297078234508,-0.000326016322811377,0.000365703809599381,9.81279888520335E-05,0.0399546298739314,-0.00453953816749582,-0.0670670500111464,CTC,0
12.4008,0.15,0.2,0.3,0.150616710734024,0.199360445013207,0.300019343032906,0,0,0,0.927339315414429,0.0995131656527519,0.969849765300751,-0.0182160213589668,0.872451543807983,0.985582649707794,1.26882637057828E-16,4.84731290615334E-15,-6.84812839608639E-05,0.00684812851250172,-7.7715611723761E-16,-0.0479369014501572,0.927284979360627,0.0996045916051513,0.96989313745603,8.17159101367425E-06,0.870281201070432,0.927297078234508,-0.000326016322811364,0.000365703809599381,8.90276954606279E-05,0.0419268887099624,-0.00325551410632704,-0.111092292041769,CTC,0
12.5009,0.15,0.2,0.3,0.150539347714933,0.199441193269766,0.300016955595229,0,0,0,0.927339315414429,0.0995131656527519,0.969845950603485,-0.016298545524478,0.872132003307343,0.983856916427612,1.26882637057828E-16,4.84731290615334E-15,-3.4240641980432E-05,0.00342406425625086,-7.7715611723761E-16,2.25216679785028E-15,0.927284979360627,0.0996045916051513,0.96989313745603,8.17159101367425E-06,0.870281201070432,0.927297078234508,-0.000326016322811377,0.000365703809599381,0.000121016172445777,0.0353526856359839,-0.00277620335536575,-0.0622158220124129,CTC,0
12.6007,0.15,0.2,0.3,0.150539016043472,0.199440750978838,0.300016064560643,0,0,0,0.927339315414429,0.0995131656527519,0.969842076301575,-0.016298545524478,0.872132003307343,0.983856916427612,1.26882637057828E-16,4.84731290615334E-15,-3.4240641980432E-05,-9.29811783123569E-16,-7.7715611723761E-16,2.25216679785028E-15,0.927284979360627,0.0996045916051513,0.96989313745603,8.17159101367425E-06,0.870281201070432,0.927297078234508,-0.000326016322811377,0.000365703809599381,0.000132639078176985,0.0326134342309825,-0.00277620335536575,-0.0622158220124129,CTC,0
12.7007,0.15,0.2,0.3,0.150541644527916,0.199444343358343,0.30001517804599,0,0,0,0.927339315414429,0.0995131656527519,0.969836354255676,-0.016298545524478,0.872052073478699,0.983473420143127,1.26882637057828E-16,4.84731290615334E-15,-6.84812839608639E-05,-9.29811783123569E-16,-0.00142669340129942,2.25216679785028E-15,0.927284979360627,0.0996045916051513,0.96989313745603,8.17159101367425E-06,0.870281201070432,0.927297078234508,-0.000326016322811377,0.000365703809599381,0.000129260830684023,0.0326134342309825,-0.00394033267356882,-0.0617939760994795,CTC,0
12.8007,0.15,0.2,0.2,0.150533920511068,0.199449335515097,0.300014187021818,0,0,0,0.927339315414429,0.0995131656527519,0.969834446907043,-0.0161067973822355,0.872052073478699,0.983473420143127,1.26882637057828E-16,4.84731290615334E-15,1.80807758800021E-15,0.00342406425625086,-7.7715611723761E-16,2.25216679785028E-15,0.927339309932217,0.0995417569463075,0.9698189129557,-0.0161051128264326,0.872007766544557,0.983467547950363,-4.10471035502903E-06,0.0200634991196656,-0.0105356787357769,0.00384219177658146,-0.0284887884885533,-0.00372054817488648,CTC,0
12.9008,0.15,0.2,0.2,0.150511400555231,0.199465181625716,0.300012962998336,0,0,0,0.927339315414429,0.0995131656527519,0.969830572605133,-0.0147645650431514,0.872052073478699,0.979830205440521,1.26882637057828E-16,4.84731290615334E-15,-3.4240641980432E-05,0.0239684507250786,-7.7715611723761E-16,-0.0650572180747986,0.92733907923086,0.100744930106667,0.969165216287716,-0.0160342236823225,0.870143250905455,0.9832204354959,-8.59557369969478E-06,0.034110982869284,-0.015630346141148,0.017868611775761,-0.032100170589657,-0.0635626788082534,CTC,0
13.0007,0.15,0.2,0.2,0.150475649258964,0.199494047092687,0.300007093013142,0,0,0,0.927339315414429,0.099528506398201,0.969797968864441,-0.0143810696899891,0.8719722032547,0.979063212871552,1.26882637057828E-16,0.000273925135843456,-0.000547850271686912,0.00342406425625086,-7.7715611723761E-16,2.25216679785028E-15,0.927338526646577,0.103626814222523,0.967599458252116,-0.0158644274259494,0.865677295229974,0.982628542756926,-1.47822357904253E-05,0.0541849922413125,-0.0233960329645526,0.00112487499697624,-0.0393049406812423,0.000569083775857523,CTC,0
13.1008,0.15,0.2,0.2,0.150450985998882,0.199507257331182,0.299812913465688,0,0,0,0.927339315414429,0.100074991583824,0.969425976276398,-0.0139975743368268,0.871732532978058,0.979063212871552,1.26882637057828E-16,0.00640300009399653,-0.00479369005188346,0.00342406425625086,-0.00142669340129942,2.25216679785028E-15,0.927337674265791,0.10807222232721,0.965184221142774,-0.0156025106992934,0.858788400757871,0.981715527287476,-2.25376758706743E-05,0.0800103064720271,-0.0346701866039593,0.000986687459483163,-0.0510006019782979,-0.0002469447413488,CTC,0
13.2008,0.15,0.2,0.2,0.150440553874946,0.199493344660734,0.299431629007224,0,0,0,0.927339315414429,0.101202465593815,0.968889117240906,-0.0139975743368268,0.871732532978058,0.979063212871552,1.26882637057828E-16,0.0131484065204859,-0.00612907484173775,-9.30803023430093E-16,-7.7715611723761E-16,2.25216679785028E-15,0.927336546986436,0.113951304620334,0.961990053725782,-0.0152561240563366,0.849677791212837,0.980508058152271,-3.1707094007591E-05,0.108756663588898,-0.0457737797145551,-0.000969239164337816,-0.0636314888039796,-0.00138203913541783,CTC,0
13.3012,0.15,0.2,0.2,0.150430101622102,0.199479404561816,0.298874876365478,0,0,0,0.927339315414429,0.102809309959412,0.968127846717835,-0.0138058271259069,0.871732532978058,0.979063212871552,1.26882637057828E-16,0.0167779140174389,-0.00862864218652248,0.00342406425625086,-7.7715611723761E-16,2.25216679785028E-15,0.927335160322623,0.121183150590865,0.958060915535151,-0.014830034622099,0.838470850802358,0.979022753071548,-4.220962404848E-05,0.13904948916389,-0.0588526901816464,0.00231525704499246,-0.0805023851297334,-0.00281679892143784,CTC,0
13.4007,0.15,0.2,0.2,0.150447152930523,0.199518389844739,0.297991509055827,0,0,0,0.927339315414429,0.10543817281723,0.966969728469849,-0.0138058271259069,0.870693862438202,0.979063212871552,1.26882637057828E-16,0.029104545712471,-0.0126347970217466,-9.30803023430093E-16,-0.0114135472103953,2.25216679785028E-15,0.927333559912859,0.129529742462048,0.953526124139384,-0.0143382660442426,0.825536427404502,0.977308497076121,-5.3741035900297E-05,0.17240342058375,-0.0731785255245554,0.000621094101212501,-0.108490772534937,-0.00450043018134589,CTC,0
13.5008,0.15,0.2,0.2,0.150455081960366,0.199529552002799,0.296908871942603,0,0,0,0.927339315414429,0.108709380030632,0.965581476688385,-0.0138058271259069,0.869894921779633,0.979063212871552,1.26882637057828E-16,0.0351993814110756,-0.0151343643665314,-9.30803023430093E-16,-0.0114135472103953,2.25216679785028E-15,0.927331745274692,0.138993596352706,0.948384312504587,-0.0137806700768493,0.810870621877356,0.97536477339557,-6.63361935946657E-05,0.204468058143648,-0.0874776404163028,0.00178389386395544,-0.128974948500441,-0.00643034682391302,CTC,0
13.6008,0.15,0.2,0.2,0.150526509892333,0.199627170840586,0.295417648727251,0,0,0,0.927339315414429,0.113127246499062,0.963729202747345,-0.0138058271259069,0.867258429527283,0.979063212871552,1.26882637057828E-16,0.0480053797364235,-0.0189693160355091,-9.30803023430093E-16,-0.0256804823875427,2.25216679785028E-15,0.927329748673297,0.149406440201708,0.94272690461635,-0.0131671610554314,0.794734199586988,0.973226142410241,-7.97895891239721E-05,0.237695803732104,-0.102468101268924,0.00304418049476695,-0.16156060549252,-0.00856971448777967,CTC,0
13.7007,0.15,0.2,0.2,0.150604096869266,0.199733531287646,0.293724576414062,0,0,0,0.927339315414429,0.11815295368433,0.96156245470047,-0.0138058271259069,0.864062607288361,0.979063212871552,1.26882637057828E-16,0.053860530257225,-0.023420600220561,-9.30803023430093E-16,-0.0228270944207907,2.25216679785028E-15,0.927327593993393,0.160643708415908,0.936621578275234,-0.0125050781964663,0.777320195504728,0.970918187893509,-9.39578454890194E-05,0.26827874905779,-0.117964090622389,0.00438728301073046,-0.179627280814441,-0.0108904393905668,CTC,0
13.8007,0.15,0.2,0.2,0.150687158973411,0.199863093834557,0.291564615423652,0,0,0,0.927339315414429,0.124413512647152,0.95889139175415,-0.0136140799149871,0.859908103942871,0.979063212871552,1.26882637057828E-16,0.064098484814167,-0.0269816257059574,0.00342406425625086,-0.0428008027374744,2.25216679785028E-15,0.927325302609794,0.17259392525945,0.930128899424272,-0.0118009894818241,0.758801359704906,0.96846380517217,-0.00010871381227873,0.297799410700183,-0.13231132462497,0.00815583876260518,-0.218268873667207,-0.0133671416721142,CTC,0
13.9008,0.15,0.2,0.2,0.150812024222677,0.200034560614778,0.28922779488592,0,0,0,0.927339315414429,0.13120137155056,0.955865621566772,-0.0136140799149871,0.854315459728241,0.979063212871552,1.26882637057828E-16,0.071802631020546,-0.0317410752177238,-9.30803023430093E-16,-0.06562789529562,2.25216679785028E-15,0.927322898079898,0.185134232203339,0.923315618398065,-0.0110621335503427,0.739368081780854,0.965888227416022,-0.000123915712411499,0.325828644892645,-0.147011161231042,0.00688458816356486,-0.258504205119521,-0.0159720967983002,CTC,0
14.0008,0.15,0.2,0.2,0.15093128163016,0.200214762018001,0.286386084165144,0,0,0,0.927339315414429,0.139260530471802,0.952293336391449,-0.0134223317727447,0.847444474697113,0.979063212871552,1.26882637057828E-16,0.0811845660209656,-0.0351651385426521,-9.30803023430093E-16,-0.0684812888503075,2.25216679785028E-15,0.927320404470294,0.198139115150808,0.916249928329194,-0.010295905502899,0.719214866567002,0.963217233205858,-0.0001394188048068,0.350572122413348,-0.159763052828841,0.00800950207767834,-0.279737115848593,-0.0186770202153054,CTC,0
14.1011,0.15,0.2,0.2,0.150999485730493,0.200310741896705,0.28359109729658,0,0,0,0.927339315414429,0.147430896759033,0.948623299598694,-0.0134223317727447,0.842331230640411,0.979063212871552,1.26882637057828E-16,0.0869712308049202,-0.0393767394125462,-9.30803023430093E-16,-0.0513609647750855,2.25216679785028E-15,0.927317837617288,0.211525983257457,0.908976701694512,-0.00950717146721596,0.698469702225077,0.960467785375414,-0.000155128649179951,0.374231021729443,-0.173051929855942,0.00954845846941847,-0.286325271477885,-0.0214625544497963,CTC,0
14.2008,0.15,0.2,0.2,0.15106418222598,0.200403645247652,0.280198861355131,0,0,0,0.927339315414429,0.156885966658592,0.944316685199738,-0.0134223317727447,0.835220575332642,0.979063212871552,1.26882637057828E-16,0.090669222176075,-0.0418420657515526,-9.30803023430093E-16,-0.0798948332667351,2.25216679785028E-15,0.927315245033643,0.225047043966813,0.901630566803441,-0.00871053100620262,0.677516584269624,0.957690776538361,-0.000170758552030679,0.391722313017548,-0.183339014629379,0.0110891982848675,-0.33113961467353,-0.024274970657687,CTC,0
14.3007,0.15,0.2,0.2,0.151073268241348,0.200451305610596,0.277062563057926,0,0,0,0.927339315414429,0.165972888469696,0.940132737159729,-0.0130388364195824,0.828269720077515,0.979063212871552,1.26882637057828E-16,0.0954629108309746,-0.0439992249011993,0.00684812851250172,-0.0713346749544144,2.25216679785028E-15,0.927312626937898,0.238701157521505,0.89421214289818,-0.00790605127264061,0.656357278943034,0.954886440782567,-0.000186309270126577,0.410928712430682,-0.193761843647457,0.0173427136945073,-0.342926415831922,-0.0271118662207477,CTC,0
14.4008,0.15,0.2,0.2,0.151109043128902,0.200507249008881,0.273173391288226,0,0,0,0.927339315414429,0.1768698990345,0.935085952281952,-0.0130388364195824,0.819081842899323,0.979254961013794,1.26882637057828E-16,0.104810610413551,-0.0502995029091835,-9.30803023430093E-16,-0.105575315654278,0.00342406425625086,0.92731000889893,0.252354974973932,0.886793879868402,-0.0071015889849765,0.635198432475834,0.952082165841425,-0.000201626125222533,0.423983686013504,-0.203816255854111,0.0133917386044463,-0.38968633516987,-0.0267986500025681,CTC,0
14.5007,0.15,0.2,0.2,0.151108438952879,0.200514238998221,0.269681123735603,0,0,0,0.927339315414429,0.186848446726799,0.930303752422333,-0.0130388364195824,0.810612976551056,0.979254961013794,1.26882637057828E-16,0.102071352303028,-0.0500255785882473,-9.30803023430093E-16,-0.104148618876934,2.25216679785028E-15,0.927307421937751,0.265846712922125,0.87946367634274,-0.00630667617673186,0.614290754984455,0.949311179428841,-0.000216524087101509,0.434502784801415,-0.210192840932667,0.0148859632844851,-0.404861927998957,-0.0329444208014264,CTC,0
14.6008,0.15,0.2,0.2,0.151073393120688,0.200476952226717,0.265455794702997,0,0,0,0.927339315414429,0.198759809136391,0.924769878387451,-0.0130388364195824,0.801504969596863,0.979254961013794,1.26882637057828E-16,0.114363744854927,-0.0540317334234715,-9.30803023430093E-16,-0.0941617637872696,2.25216679785028E-15,0.927304882129474,0.279092535080424,0.87226708145942,-0.00552625235514614,0.593764164647666,0.946590700172197,-0.000230904945966617,0.441586127598175,-0.216215636994537,0.0163367370191731,-0.410611371910032,-0.0356736879016143,CTC,0
14.7008,0.15,0.2,0.2,0.151021841396771,0.200417678904808,0.261609977689329,0,0,0,0.927339315414429,0.209794878959656,0.919435501098633,-0.0130388364195824,0.790239810943604,0.979254961013794,1.26882637057828E-16,0.116041541099548,-0.0547165460884571,-9.30803023430093E-16,-0.122695632278919,2.25216679785028E-15,0.927302419026692,0.291938316277396,0.865287833049652,-0.00476939834237245,0.573857503888139,0.94395238290777,-0.000244593352654931,0.445602487908341,-0.219929289525216,0.0177261593045392,-0.446677920832225,-0.0383078551714338,CTC,0
14.8008,0.15,0.2,0.2,0.150896291004677,0.200275115078028,0.257166233073711,0,0,0,0.927339315414429,0.221974685788155,0.913498997688293,-0.0128470892086625,0.780252933502197,0.979254961013794,1.26882637057828E-16,0.115356728434563,-0.0547165460884571,0.00342406425625086,-0.0913083776831627,2.25216679785028E-15,0.927300053306639,0.304276218858038,0.858584520448772,-0.00404246777005577,0.554737884972723,0.94141837575895,-0.0002574645022703,0.441334376804046,-0.220333836085059,0.0213971760038225,-0.429364069741258,-0.0408222948870613,CTC,0
14.901,0.15,0.2,0.2,0.150782086880268,0.200132971147938,0.253252130163078,0,0,0,0.927339315414429,0.233303144574165,0.908055245876312,-0.0128470892086625,0.768588304519653,0.979254961013794,1.26882637057828E-16,0.119636803865433,-0.0570791512727737,-9.30803023430093E-16,-0.141242653131485,2.25216679785028E-15,0.927297802899671,0.31601273092638,0.852207949656137,-0.00335097021777108,0.536550220037278,0.939007884568165,-0.000269406708781726,0.439309047803102,-0.222384316386284,0.0198876094373404,-0.48112930194092,-0.0431951908485366,CTC,0
15.0007,0.15,0.2,0.2,0.150612530340479,0.199919603340571,0.248670644514775,0,0,0,0.927339315414429,0.245688110589981,0.901735246181488,-0.0128470892086625,0.75540566444397,0.979254961013794,1.26882637057828E-16,0.117719329893589,-0.0593732744455338,-9.30803023430093E-16,-0.144096031785011,2.25216679785028E-15,0.927295706645668,0.326945291456143,0.846268174213751,-0.00270684027503215,0.519608410865697,0.936762512118815,-0.000280198810985564,0.426660494582176,-0.220201205864147,0.0210089885325275,-0.486201873730229,-0.0453827781658539,CTC,0
15.1008,0.15,0.2,0.2,0.150398804412829,0.199644275992952,0.244888893171254,0,0,0,0.927339315414429,0.256610065698624,0.896379768848419,-0.0128470892086625,0.745338916778564,0.979254961013794,1.26882637057828E-16,0.115356728434563,-0.0573188364505768,-9.30803023430093E-16,-0.107002004981041,2.25216679785028E-15,0.927293771559431,0.337037316270136,0.840785070690938,-0.00211223342626511,0.503969150686157,0.934689772213666,-0.000289785818704625,0.415577374536448,-0.216661519225872,0.0220165248170693,-0.457844496511035,-0.047374665239667,CTC,0
15.2007,0.15,0.2,0.2,0.150160649051765,0.19934058487415,0.240405948283425,0,0,0,0.927339315414429,0.268822461366653,0.890050172805786,-0.0128470892086625,0.731836676597595,0.979254961013794,1.26882637057828E-16,0.116144262254238,-0.0615304335951805,-9.30803023430093E-16,-0.134109184145927,2.25216679785028E-15,0.927292028881774,0.346125875640879,0.835847160527072,-0.00157674924475812,0.489884926035901,0.932823128003484,-0.000297987472837176,0.395856638650567,-0.212062207446741,0.0228916828849201,-0.47959749378823,-0.0491351451134169,CTC,0
15.3007,0.15,0.2,0.2,0.149953079857949,0.199075608707049,0.236803639755195,0,0,0,0.927339315414429,0.279050290584564,0.884796261787415,-0.0128470892086625,0.719373047351837,0.979254961013794,1.26882637057828E-16,0.105289973318577,-0.0556410439312458,-9.30803023430093E-16,-0.116988860070705,2.25216679785028E-15,0.927290498739451,0.354106002831115,0.831511473257594,-0.00110657221202162,0.477518400220301,0.931184137971233,-0.000304679048392075,0.374248388907047,-0.202556177259593,0.0236217475721944,-0.460335948635276,-0.050639980559508,CTC,0
15.4008,0.15,0.2,0.2,0.149575306630054,0.198597357944009,0.232540708758397,0,0,0,0.927339315414429,0.290654838085175,0.878652691841126,-0.0126553410664201,0.706829607486725,0.979254961013794,1.26882637057828E-16,0.107036247849464,-0.0588939040899277,-9.30803023430093E-16,-0.141242653131485,2.25216679785028E-15,0.927289205544362,0.360850382841583,0.827847180464407,-0.000709203535385887,0.467066868869809,0.929798950574171,-0.000309714873525993,0.346497914456811,-0.193586919042772,0.0238082966123666,-0.475129197474728,-0.0518605419617925,CTC,0
15.5008,0.15,0.2,0.2,0.149335899205905,0.198289190307622,0.229391363379067,0,0,0,0.927339315414429,0.299410045146942,0.873903095722199,-0.0126553410664201,0.696523129940033,0.979254961013794,1.26882637057828E-16,0.0866630673408508,-0.0483135469257832,-9.30803023430093E-16,-0.112708784639835,2.25216679785028E-15,0.927288173573954,0.366232401875365,0.82492307275878,-0.000392103108398819,0.458726540985969,0.928693570253849,-0.000312951467886844,0.315122203306905,-0.178016464814175,0.0242035818681035,-0.442415577602413,-0.0527684627121896,CTC,0
15.6008,0.15,0.2,0.2,0.148971821686953,0.197815773852954,0.225660674876606,0,0,0,0.927339315414429,0.309578418731689,0.868346273899078,-0.0126553410664201,0.68405956029892,0.979254961013794,1.26882637057828E-16,0.090669222176075,-0.0519430562853813,-9.30803023430093E-16,-0.124122329056263,2.25216679785028E-15,0.927287425390208,0.370134392797977,0.822803079935923,-0.000162203700779944,0.452679761238428,0.927892163950962,-0.000314251766228894,0.281194478986613,-0.165873115257948,0.0244101024051099,-0.438789651908104,-0.0533369732548812,CTC,0
15.7008,0.15,0.2,0.2,0.148794022192337,0.197591455266952,0.222861370366273,0,0,0,0.927339315414429,0.317353785037994,0.86397248506546,-0.0126553410664201,0.671835660934448,0.979254961013794,1.26882637057828E-16,0.0778632238507271,-0.0439307428896427,-9.30803023430093E-16,-0.107002004981041,2.25216679785028E-15,0.927286984372137,0.372434427409119,0.821553446873046,-2.66891378063981E-05,0.449115477522466,0.927419773760727,-0.000313474528437247,0.242971986573556,-0.147416706333168,0.0244134171777593,-0.405928793046033,-0.0535384466911613,CTC,0
15.8007,0.15,0.2,0.2,0.148579540159953,0.197319845715166,0.21978103880838,0,0,0,0.927339315414429,0.325575917959213,0.859282374382019,-0.0126553410664201,0.658892691135407,0.979254961013794,1.26882637057828E-16,0.0747130811214447,-0.0431089699268341,-9.30803023430093E-16,-0.124122329056263,2.25216679785028E-15,0.927286868579632,0.373038318240281,0.821225346615192,8.8911972338582E-06,0.448179648885235,0.92729574427733,-0.00031468100878196,0.219734833572849,-0.140036465256581,0.0253284645273071,-0.427779659525894,-0.0571551384101077,CTC,0
15.9007,0.15,0.2,0.2,0.148311219390855,0.196970303495137,0.217563345367192,0,0,0,0.927339315414429,0.33166965842247,0.85561615228653,-0.0126553410664201,0.650184154510498,0.979254961013794,1.26882637057828E-16,0.0619755648076534,-0.0369798950850964,-9.30803023430093E-16,-0.102721929550171,2.25216679785028E-15,0.927286868579632,0.373038318240281,0.821225346615192,8.8911972338582E-06,0.448179648885235,0.92729574427733,-0.00031468100878196,0.190264865194306,-0.12536035406507,0.0253284645273071,-0.395456495033048,-0.0571551384101077,CTC,0
16.0007,0.15,0.2,0.2,0.148121973934243,0.196730815315122,0.215067314180892,0,0,0,0.927339315414429,0.338156491518021,0.851662278175354,-0.0126553410664201,0.638120055198669,0.979254961013794,1.26882637057828E-16,0.0573873184621334,-0.0347200110554695,-9.30803023430093E-16,-0.116988860070705,2.25216679785028E-15,0.927286868579632,0.373038318240281,0.821225346615192,8.8911972338582E-06,0.448179648885235,0.92729574427733,-0.00031468100878196,0.162482234273895,-0.112142801313767,0.0253284645273071,-0.390200583533786,-0.0571551384101077,CTC,0
16.1008,0.15,0.2,0.2,0.148043571930543,0.196636443587384,0.213467177938249,0,0,0,0.927339315414429,0.342240691184998,0.848872363567352,-0.0126553410664201,0.628532648086548,0.979254961013794,1.26882637057828E-16,0.0400273129343987,-0.0280773267149925,-9.30803023430093E-16,-0.102721929550171,2.25216679785028E-15,0.927286868579632,0.373038318240281,0.821225346615192,8.8911972338582E-06,0.448179648885235,0.92729574427733,-0.00031468100878196,0.139201433394894,-0.0997874468854761,0.0253284645273071,-0.362979235397123,-0.0571551384101077,CTC,0
16.2008,0.15,0.2,0.2,0.147882749145583,0.196432920605148,0.211553772786697,0,0,0,0.927339315414429,0.347203135490417,0.845580041408539,-0.0126553410664201,0.618785500526428,0.979254961013794,1.26882637057828E-16,0.0464303120970726,-0.0309193003922701,-9.30803023430093E-16,-0.0970151573419571,2.25216679785028E-15,0.927286868579632,0.373038318240281,0.821225346615192,8.8911972338582E-06,0.448179648885235,0.92729574427733,-0.00031468100878196,0.121912855838284,-0.0916156646154022,0.0253284645273071,-0.343222419069551,-0.0571551384101077,CTC,0
16.3008,0.15,0.2,0.2,0.147795368301953,0.196324306871055,0.210330070853032,0,0,0,0.927339315414429,0.350299865007401,0.843365371227264,-0.0126553410664201,0.610636234283447,0.979254961013794,1.26882637057828E-16,0.0302687287330627,-0.0218112897127867,-9.30803023430093E-16,-0.0955884605646133,2.25216679785028E-15,0.927286868579632,0.373038318240281,0.821225346615192,8.8911972338582E-06,0.448179648885235,0.92729574427733,-0.00031468100878196,0.103061304424748,-0.079506847663889,0.0253284645273071,-0.32971449260547,-0.0571551384101077,CTC,0
16.4008,0.15,0.2,0.2,0.147730659062435,0.196249001961915,0.20885679016461,0,0,0,0.927339315414429,0.353996753692627,0.840692400932312,-0.0126553410664201,0.601288497447968,0.979254961013794,1.26882637057828E-16,0.0346172899007797,-0.0253723170608282,-9.30803023430093E-16,-0.0870283022522926,2.25216679785028E-15,0.927286868579632,0.373038318240281,0.821225346615192,8.8911972338582E-06,0.448179648885235,0.92729574427733,-0.00031468100878196,0.0900131741509287,-0.0736245531878567,0.0253284645273071,-0.307988744871162,-0.0571551384101077,CTC,0
16.5011,0.15,0.2,0.2,0.147681212164275,0.196179170568673,0.207891606633561,0,0,0,0.927339315414429,0.35632649064064,0.838886141777039,-0.0128470892086625,0.593858301639557,0.979254961013794,1.26882637057828E-16,0.022461861371994,-0.0177024118602276,-0.00342406425625086,-0.0841749161481857,2.25216679785028E-15,0.927286868579632,0.373038318240281,0.821225346615192,8.8911972338582E-06,0.448179648885235,0.92729574427733,-0.00031468100878196,0.0758320549473612,-0.063603832601676,0.022972709406792,-0.29427540366485,-0.0571551384101077,CTC,0
16.6007,0.15,0.2,0.2,0.147721154005878,0.19623376642755,0.206675542994065,0,0,0,0.927339315414429,0.359402120113373,0.836514234542847,-0.0130388364195824,0.583152413368225,0.979254961013794,1.26882637057828E-16,0.0319465212523937,-0.0260228887200356,-9.30803023430093E-16,-0.124122329056263,2.25216679785028E-15,0.927286868579632,0.373038318240281,0.821225346615192,8.8911972338582E-06,0.448179648885235,0.92729574427733,-0.00031468100878196,0.0673234010085909,-0.0614803970149851,0.0260954552336317,-0.314169242875122,-0.0571551384101077,CTC,0
16.7007,0.15,0.2,0.2,0.147687876657774,0.196186105473625,0.205796967507003,0,0,0,0.927339315414429,0.361377120018005,0.83489203453064,-0.0132305845618248,0.57644122838974,0.979254961013794,1.26882637057828E-16,0.0161958243697882,-0.0133880916982889,-0.00342406425625086,-0.0699079781770706,2.25216679785028E-15,0.927286868579632,0.373038318240281,0.821225346615192,8.8911972338582E-06,0.448179648885235,0.92729574427733,-0.00031468100878196,0.0531231226370185,-0.049032918765316,0.0237397001131166,-0.255309549616121,-0.0571551384101077,CTC,0
16.8007,0.15,0.2,0.2,0.147807197259519,0.196357717244843,0.204926451254992,0,0,0,0.927339315414429,0.363549619913101,0.833114564418793,-0.0132305845618248,0.565495610237122,0.979254961013794,1.26882637057828E-16,0.0244478192180395,-0.0199280548840761,-9.30803023430093E-16,-0.142669349908829,2.25216679785028E-15,0.927286868579632,0.373038318240281,0.821225346615192,8.8911972338582E-06,0.448179648885235,0.92729574427733,-0.00031468100878196,0.0477339209959357,-0.0476244863412476,0.0264789515181166,-0.304376356945776,-0.0571551384101077,CTC,0
16.9008,0.15,0.2,0.2,0.147777235732781,0.196313647747421,0.204211638460005,0,0,0,0.927339315414429,0.365085512399673,0.831772327423096,-0.0134223317727447,0.560542166233063,0.979254961013794,1.26882637057828E-16,0.0123608717694879,-0.010511877015233,-0.00342406425625086,-0.0527876578271389,2.25216679785028E-15,0.927286868579632,0.373038318240281,0.821225346615192,8.8911972338582E-06,0.448179648885235,0.92729574427733,-0.00031468100878196,0.036755572070226,-0.0379480686328507,0.0241231945349563,-0.216052668066166,-0.0571551384101077,CTC,0
17.0007,0.15,0.2,0.2,0.147891815325928,0.196476206190494,0.203662668823493,0,0,0,0.927339315414429,0.366364479064941,0.830531716346741,-0.0134223317727447,0.551673829555512,0.979254961013794,1.26882637057828E-16,0.0151001233607531,-0.0142098665237427,-9.30803023430093E-16,-0.112708784639835,2.25216679785028E-15,0.927286868579632,0.373038318240281,0.821225346615192,8.8911972338582E-06,0.448179648885235,0.92729574427733,-0.00031468100878196,0.0327354060456603,-0.0364450291088915,0.0268624459399563,-0.256679177181266,-0.0571551384101077,CTC,0
17.1008,0.15,0.2,0.2,0.147908379906482,0.196494855911622,0.203100114959908,0,0,0,0.927339315414429,0.367514938116074,0.829344809055328,-0.0136140799149871,0.546320855617523,0.979254961013794,1.26882637057828E-16,0.00989554543048143,-0.00996402744203806,-0.00342406425625086,-0.0542143508791924,2.25216679785028E-15,0.927286868579632,0.373038318240281,0.821225346615192,8.8911972338582E-06,0.448179648885235,0.92729574427733,-0.00031468100878196,0.0260517386690228,-0.0303368037856317,0.0245066908194412,-0.196004725889705,-0.0571551384101077,CTC,0
17.2008,0.15,0.2,0.2,0.147976167799896,0.196592230288517,0.202700570655888,0,0,0,0.927339315414429,0.368418097496033,0.828409075737,-0.0136140799149871,0.540648341178894,0.979254961013794,1.26882637057828E-16,0.0103406738489866,-0.010511877015233,-9.30803023430093E-16,-0.0642012059688568,2.25216679785028E-15,0.927286868579632,0.373038318240281,0.821225346615192,8.8911972338582E-06,0.448179648885235,0.92729574427733,-0.00031468100878196,0.0226171525165885,-0.0278583135745621,0.0272459422244411,-0.19648412381246,-0.0571551384101077,CTC,0
17.3011,0.15,0.2,0.2,0.148053813203731,0.196703261164539,0.202294319809455,0,0,0,0.927339315414429,0.369219601154327,0.827517449855804,-0.0138058271259069,0.534496426582336,0.979254961013794,1.26882637057828E-16,0.00684812851250172,-0.00797806959599257,-0.00342406425625086,-0.0642012059688568,2.25216679785028E-15,0.927286868579632,0.373038318240281,0.821225346615192,8.8911972338582E-06,0.448179648885235,0.92729574427733,-0.00031468100878196,0.0180141197488158,-0.0236631514794326,0.0248901852412809,-0.187256251917623,-0.0571551384101077,CTC,0
17.4007,0.15,0.2,0.2,0.148114739165253,0.196780059118433,0.201991998539022,0,0,0,0.927339315414429,0.369858115911484,0.826775372028351,-0.0138058271259069,0.529782652854919,0.979254961013794,1.26882637057828E-16,0.00695085059851408,-0.00821775384247303,-9.30803023430093E-16,-0.0584944300353527,2.25216679785028E-15,0.927286868579632,0.373038318240281,0.821225346615192,8.8911972338582E-06,0.448179648885235,0.92729574427733,-0.00031468100878196,0.0155011495545952,-0.0215807285449601,0.0276294366462809,-0.175049492986344,-0.0571551384101077,CTC,0
17.5007,0.15,0.2,0.2,0.148200223034802,0.196900702250254,0.20171000283279,0,0,0,0.927339315414429,0.370368152856827,0.826100409030914,-0.0138058271259069,0.52490907907486,0.979254961013794,1.26882637057828E-16,0.00417735846713185,-0.00585515005514026,-9.30803023430093E-16,-0.0470808818936348,2.25216679785028E-15,0.927286868579632,0.373038318240281,0.821225346615192,8.8911972338582E-06,0.448179648885235,0.92729574427733,-0.00031468100878196,0.0123516049206703,-0.0181382772802508,0.0276294366462809,-0.157466938988708,-0.0571551384101077,CTC,0
17.6007,0.15,0.2,0.2,0.148303448507516,0.197044725401025,0.201490059554017,0,0,0,0.927339315414429,0.370807260274887,0.825555860996246,-0.0138058271259069,0.51963597536087,0.979254961013794,1.26882637057828E-16,0.00475944951176643,-0.00623179692775011,-9.30803023430093E-16,-0.0556410439312458,2.25216679785028E-15,0.927286868579632,0.373038318240281,0.821225346615192,8.8911972338582E-06,0.448179648885235,0.92729574427733,-0.00031468100878196,0.0108280116662829,-0.0167306212998128,0.0276294366462809,-0.157261429251574,-0.0571551384101077,CTC,0
17.7008,0.15,0.2,0.2,0.148333542411147,0.197088747529926,0.201288318789534,0,0,0,0.927339315414429,0.371163904666901,0.825030446052551,-0.0138058271259069,0.516600012779236,0.979254961013794,1.26882637057828E-16,0.00280773267149925,-0.00451976479962468,-9.30803023430093E-16,-0.03281394764781,2.25216679785028E-15,0.927286868579632,0.373038318240281,0.821225346615192,8.8911972338582E-06,0.448179648885235,0.92729574427733,-0.00031468100878196,0.00862074736212182,-0.0141271571918524,0.0276294366462809,-0.13216309872403,-0.0571551384101077,CTC,0
17.8007,0.15,0.2,0.2,0.148446901447282,0.197246013428919,0.201123368958126,0,0,0,0.927339315414429,0.371457278728485,0.824591398239136,-0.0138058271259069,0.511886179447174,0.979254961013794,1.26882637057828E-16,0.00318437977693975,-0.0046909679658711,-9.30803023430093E-16,-0.0556410439312458,2.25216679785028E-15,0.927286868579632,0.373038318240281,0.821225346615192,8.8911972338582E-06,0.448179648885235,0.92729574427733,-0.00031468100878196,0.00759790995796013,-0.0129127356513536,0.0276294366462809,-0.14563673538103,-0.0571551384101077,CTC,0
17.9008,0.15,0.2,0.2,0.148472561720368,0.197273492277163,0.200968020213038,0,0,0,0.927339315414429,0.371725738048553,0.824179112911224,-0.0139975743368268,0.509489357471466,0.979254961013794,1.26882637057828E-16,0.00232836371287704,-0.00338982371613383,-9.30803023430093E-16,-0.0228270944207907,2.25216679785028E-15,0.927286868579632,0.373038318240281,0.821225346615192,8.8911972338582E-06,0.448179648885235,0.92729574427733,-0.00031468100878196,0.0061816662520616,-0.0108951931177771,0.0280129310681206,-0.112508947858058,-0.0571551384101077,CTC,0
18.0008,0.15,0.2,0.2,0.148578958171267,0.197420869834436,0.20084871446071,0,0,0,0.927339315414429,0.371905982494354,0.823822438716888,-0.0139975743368268,0.50509512424469,0.979254961013794,1.26882637057828E-16,0.00208867923356593,-0.00404039584100246,-9.30803023430093E-16,-0.0584944300353527,2.25216679785028E-15,0.927286868579632,0.373038318240281,0.821225346615192,8.8911972338582E-06,0.448179648885235,0.92729574427733,-0.00031468100878196,0.00536481467713404,-0.0102155138096905,0.0280129310681206,-0.138018200071,-0.0571551384101077,CTC,0
18.1008,0.15,0.2,0.2,0.148592565702522,0.197441258949517,0.200738589544983,0,0,0,0.927339315414429,0.372093886137009,0.823494553565979,-0.0139975743368268,0.50357711315155,0.979254961013794,1.26882637057828E-16,0.00178051344119012,-0.00301317661069334,-9.30803023430093E-16,-0.0185470152646303,2.25216679785028E-15,0.927286868579632,0.373038318240281,0.821225346615192,8.8911972338582E-06,0.448179648885235,0.92729574427733,-0.00031468100878196,0.00448993378956605,-0.00861552681877676,0.0280129310681206,-0.0997885101376401,-0.0571551384101077,CTC,0
18.2007,0.15,0.2,0.2,0.148671247959296,0.197550266740328,0.200646048867598,0,0,0,0.927339315414429,0.372231930494308,0.823237657546997,-0.0139975743368268,0.499742180109024,0.979254961013794,1.26882637057828E-16,0.00123266316950321,-0.00273925135843456,-9.30803023430093E-16,-0.049934271723032,2.25216679785028E-15,0.927286868579632,0.373038318240281,0.821225346615192,8.8911972338582E-06,0.448179648885235,0.92729574427733,-0.00031468100878196,0.00371861625169205,-0.00768048361047567,0.0280129310681206,-0.122284641386412,-0.0571551384101077,CTC,0
18.3007,0.15,0.2,0.2,0.148700736667447,0.197591941912818,0.200566106800921,0,0,0,0.927339315414429,0.372350811958313,0.82299792766571,-0.0139975743368268,0.498383969068527,0.979254961013794,1.26882637057828E-16,0.00116418185643852,-0.00205443846061826,-9.30803023430093E-16,-0.0142669342458248,2.25216679785028E-15,0.927286868579632,0.373038318240281,0.821225346615192,8.8911972338582E-06,0.448179648885235,0.92729574427733,-0.00031468100878196,0.00321569787044811,-0.00655040622792605,0.0280129310681206,-0.0881467210961805,-0.0571551384101077,CTC,0
18.4008,0.15,0.2,0.2,0.148777240087479,0.19769764548058,0.200499382060848,0,0,0,0.927339315414429,0.372446686029434,0.822798550128937,-0.0139975743368268,0.495028376579285,0.979254961013794,1.26882637057828E-16,0.00102721923030913,-0.00205443846061826,-9.30803023430093E-16,-0.049934271723032,2.25216679785028E-15,0.927286868579632,0.373038318240281,0.821225346615192,8.8911972338582E-06,0.448179648885235,0.92729574427733,-0.00031468100878196,0.00277741653551149,-0.005952273617605,0.0280129310681206,-0.115213936091803,-0.0571551384101077,CTC,0
18.5007,0.15,0.2,0.2,0.148820997113322,0.197758558721347,0.200436236887352,0,0,0,0.927339315414429,0.372540652751923,0.822606801986694,-0.0139975743368268,0.493510395288467,0.979254961013794,1.26882637057828E-16,0.000890256720595062,-0.00171203212812543,-9.30803023430093E-16,-0.00570677360519767,2.25216679785028E-15,0.927286868579632,0.373038318240281,0.821225346615192,8.8911972338582E-06,0.448179648885235,0.92729574427733,-0.00031468100878196,0.00234676464167225,-0.00517158539138201,0.0280129310681206,-0.0731322158495264,-0.0571551384101077,CTC,0
18.6008,0.15,0.2,0.2,0.148883922804334,0.197845447017129,0.200386363470215,0,0,0,0.927339315414429,0.372609674930572,0.822459161281586,-0.0139975743368268,0.490714073181152,0.979254961013794,1.26882637057828E-16,0.00068481283960864,-0.00136962567921728,-9.30803023430093E-16,-0.041374109685421,2.25216679785028E-15,0.927286868579632,0.373038318240281,0.821225346615192,8.8911972338582E-06,0.448179648885235,0.92729574427733,-0.00031468100878196,0.00198849837467806,-0.0045232194067112,0.0280129310681206,-0.101038335160755,-0.0571551384101077,CTC,0
18.7008,0.15,0.2,0.2,0.148965815582756,0.197958351645041,0.200334971365298,0,0,0,0.927339315414429,0.372672975063324,0.822301924228668,-0.0139975743368268,0.488237321376801,0.979254961013794,1.26882637057828E-16,0.000719053496140987,-0.00178051344119012,-9.30803023430093E-16,-0.0285338684916496,2.25216679785028E-15,0.927286868579632,0.373038318240281,0.821225346615192,8.8911972338582E-06,0.448179648885235,0.92729574427733,-0.00031468100878196,0.00174899410628514,-0.00429804090514245,0.0280129310681206,-0.0857669903798328,-0.0571551384101077,CTC,0
18.8008,0.15,0.2,0.2,0.148975896687204,0.197972823652359,0.2002969403131,0,0,0,0.927339315414429,0.372722804546356,0.822167694568634,-0.0139975743368268,0.487118780612946,0.979254961013794,1.26882637057828E-16,0.000513609615154564,-0.00133538502268493,-9.30803023430093E-16,-0.0171203222125769,2.25216679785028E-15,0.927286868579632,0.373038318240281,0.821225346615192,8.8911972338582E-06,0.448179648885235,0.92729574427733,-0.00031468100878196,0.00146749862176168,-0.00362827487393679,0.0280129310681206,-0.0738169875828849,-0.0571551384101077,CTC,0
18.9009,0.15,0.2,0.2,0.1490489096381,0.198073378970262,0.200256882176549,0,0,0,0.927339315414429,0.372776508331299,0.822052657604218,-0.0139975743368268,0.485201328992844,0.979254961013794,1.26882637057828E-16,0.000582090928219259,-0.00106145988684148,-9.30803023430093E-16,-0.0199737083166838,2.25216679785028E-15,0.927286868579632,0.373038318240281,0.821225346615192,8.8911972338582E-06,0.448179648885235,0.92729574427733,-0.00031468100878196,0.00128007600721705,-0.0031188088991812,0.0280129310681206,-0.0735088576464282,-0.0571551384101077,CTC,0
19.0008,0.15,0.2,0.2,0.149094202232323,0.198135941652328,0.200224356624629,0,0,0,0.927339315414429,0.372811019420624,0.821935653686523,-0.0139975743368268,0.48344361782074,0.979254961013794,1.26882637057828E-16,0.000308165792375803,-0.00123266316950321,-9.30803023430093E-16,-0.0242537893354893,2.25216679785028E-15,0.927286868579632,0.373038318240281,0.821225346615192,8.8911972338582E-06,0.448179648885235,0.92729574427733,-0.00031468100878196,0.00103246159557985,-0.00287051911569597,0.0280129310681206,-0.0747243638051973,-0.0571551384101077,CTC,0
19.1007,0.15,0.2,0.2,0.149117901904987,0.198168783168643,0.200200946821481,0,0,0,0.927339315414429,0.372837871313095,0.821862816810608,-0.0139975743368268,0.48248490691185,0.979254961013794,1.26882637057828E-16,0.000273925135843456,-0.000650572183076292,-9.30803023430093E-16,-0.0156936272978783,2.25216679785028E-15,0.927286868579632,0.373038318240281,0.821225346615192,8.8911972338582E-06,0.448179648885235,0.92729574427733,-0.00031468100878196,0.000911357763081657,-0.00230275389609325,0.0280129310681206,-0.0655821516080128,-0.0571551384101077,CTC,0
19.2007,0.15,0.2,0.2,0.149147048024156,0.198209094617578,0.200179574397832,0,0,0,0.927339315414429,0.372855126857758,0.821776509284973,-0.0139975743368268,0.480807095766068,0.979254961013794,1.26882637057828E-16,0.000136962567921728,-0.000821775407530367,-9.30803023430093E-16,-0.0271071754395962,2.25216679785028E-15,0.927286868579632,0.373038318240281,0.821225346615192,8.8911972338582E-06,0.448179648885235,0.92729574427733,-0.00031468100878196,0.000787550557263074,-0.00214655325386138,0.0280129310681206,-0.0733376282168852,-0.0571551384101077,CTC,0
19.3008,0.15,0.2,0.2,0.149211273500632,0.198297322069928,0.200160396537974,0,0,0,0.927339315414429,0.372870475053787,0.821715176105499,-0.0139975743368268,0.479528784751892,0.979254961013794,1.26882637057828E-16,0.000102721925941296,-0.000479368987726048,-9.30803023430093E-16,-0.00428008055314422,2.25216679785028E-15,0.927286868579632,0.373038318240281,0.821225346615192,8.8911972338582E-06,0.448179648885235,0.92729574427733,-0.00031468100878196,0.000712461516352243,-0.00175710986355718,0.0280129310681206,-0.0508757762978153,-0.0571551384101077,CTC,0
19.4008,0.15,0.2,0.2,0.14921667156738,0.198304933836391,0.200149201545382,0,0,0,0.927339315414429,0.372880041599274,0.821671068668366,-0.0139975743368268,0.478729844093323,0.979254961013794,1.26882637057828E-16,0.000102721925941296,-0.000479368987726048,-9.30803023430093E-16,-0.0142669342458248,2.25216679785028E-15,0.927286868579632,0.373038318240281,0.821225346615192,8.8911972338582E-06,0.448179648885235,0.92729574427733,-0.00031468100878196,0.000674195334406438,-0.0016247875521558,0.0280129310681206,-0.0586655336333738,-0.0571551384101077,CTC,0
19.5008,0.15,0.2,0.2,0.14930708937251,0.198428919971211,0.200134566640458,0,0,0,0.927339315414429,0.372885793447494,0.821625053882599,-0.0139975743368268,0.476572662591934,0.979254961013794,1.26882637057828E-16,6.84812839608639E-05,-0.000376647076336667,-9.30803023430093E-16,-0.00285338680259883,2.25216679785028E-15,0.927286868579632,0.373038318240281,0.821225346615192,8.8911972338582E-06,0.448179648885235,0.92729574427733,-0.00031468100878196,0.000637491684730969,-0.00142511004802237,0.0280129310681206,-0.0451575686823876,-0.0571551384101077,CTC,0
19.6008,0.15,0.2,0.2,0.149306035780837,0.198427618475599,0.20012686658743,0,0,0,0.927339315414429,0.372897297143936,0.821598172187805,-0.0139975743368268,0.476492792367935,0.979254961013794,1.26882637057828E-16,6.84812839608639E-05,-0.000308165792375803,-9.30803023430093E-16,-7.29575153156343E-16,2.25216679785028E-15,0.927286868579632,0.373038318240281,0.821225346615192,8.8911972338582E-06,0.448179648885235,0.92729574427733,-0.00031468100878196,0.000591476898964363,-0.00130337619326475,0.0280129310681206,-0.0424697152240508,-0.0571551384101077,CTC,0
19.7007,0.15,0.2,0.2,0.149304548215711,0.198425738313447,0.200119434595628,0,0,0,0.927339315414429,0.372904986143112,0.821569442749023,-0.0139975743368268,0.476412892341614,0.979254961013794,1.26882637057828E-16,0.000102721925941296,-0.000239684493863024,-9.30803023430093E-16,-0.00142669340129942,2.25216679785028E-15,0.927286868579632,0.373038318240281,0.821225346615192,8.8911972338582E-06,0.448179648885235,0.92729574427733,-0.00031468100878196,0.00057441715905244,-0.00117609909781186,0.0280129310681206,-0.0436338892457375,-0.0571551384101077,CTC,0
19.8007,0.15,0.2,0.2,0.149422176724169,0.198624034783416,0.2000964953085,0,0,0,0.927339315414429,0.372931808233261,0.821504235267639,-0.0132305845618248,0.472498029470444,0.975611805915833,1.26882637057828E-16,0.000273925135843456,-0.000582090928219259,0.0136962570250034,-7.29575153156343E-16,-0.00342406425625086,0.927286868579632,0.373038318240281,0.821225346615192,8.8911972338582E-06,0.448179648885235,0.92729574427733,-0.00031468100878196,0.000535610082417605,-0.00118592051427279,0.0374359571381201,-0.0364775708778136,-0.0565032507734781,CTC,0
19.9007,0.15,0.2,0.2,0.149417109964846,0.19861727822385,0.200087565300511,0,0,0,0.927339315414429,0.372943311929703,0.821475446224213,-0.0132305845618248,0.472498029470444,0.975611805915833,1.26882637057828E-16,0.00017120320990216,-0.000205443851882592,-9.30803023430093E-16,-7.29575153156343E-16,2.25216679785028E-15,0.927286868579632,0.373038318240281,0.821225346615192,8.8911972338582E-06,0.448179648885235,0.92729574427733,-0.00031468100878196,0.000448506526274486,-0.000873565138191234,0.0264789515181166,-0.0364775708778136,-0.0531476678023501,CTC,0
20.0007,0.15,0.2,0.2,0.149414697917315,0.198614061744773,0.200082016291174,0,0,0,0.927339315414429,0.372951000928879,0.821458220481873,-0.0132305845618248,0.472498029470444,0.97542005777359,1.26882637057828E-16,6.84812839608639E-05,-0.000205443851882592,-9.30803023430093E-16,-7.29575153156343E-16,-0.00342406425625086,0.927286868579632,0.373038318240281,0.821225346615192,8.8911972338582E-06,0.448179648885235,0.92729574427733,-0.00031468100878196,0.000376661759193861,-0.000821887911170984,0.0264789515181166,-0.0364775708778136,-0.0562923278170115,CTC,0
20.1008,0.15,0.2,0.2,0.149401511773346,0.198614658455842,0.20007513511832,0,0,0,0.927339315414429,0.372958660125732,0.821427524089813,-0.0128470892086625,0.472498029470444,0.97542005777359,1.26882637057828E-16,6.84812839608639E-05,-0.000239684493863024,-9.30803023430093E-16,-7.29575153156343E-16,2.25216679785028E-15,0.927286868579632,0.373038318240281,0.821225346615192,8.8911972338582E-06,0.448179648885235,0.92729574427733,-0.00031468100878196,0.000346024971779305,-0.000750343120181254,0.025711960811792,-0.0364775708778136,-0.0529367448458834,CTC,0
20.2008,0.15,0.2,0.2,0.149395161379459,0.198615280481025,0.200071794734962,0,0,0,0.927339315414429,0.372960597276688,0.821414113044739,-0.0126553410664201,0.472498029470444,0.975228309631348,1.26882637057828E-16,3.4240641980432E-05,-0.000136962567921728,0.00342406425625086,-7.29575153156343E-16,2.25216679785028E-15,0.927286868579632,0.373038318240281,0.821225346615192,8.8911972338582E-06,0.448179648885235,0.92729574427733,-0.00031468100878196,0.000324580111166334,-0.000648476829393088,0.0280677159323086,-0.0364775708778136,-0.0527258218894168,CTC,0
20.3008,0.15,0.2,0.2,0.149456403266673,0.198726636129335,0.200057777454219,0,0,0,0.927339315414429,0.372983604669571,0.821377694606781,-0.0120800985023379,0.470340877771378,0.972160339355469,1.26882637057828E-16,0.000273925135843456,-0.000376647076336667,0.00342406425625086,-0.00428008055314422,-0.0136962570250034,0.927286868579632,0.373038318240281,0.821225346615192,8.8911972338582E-06,0.448179648885235,0.92729574427733,-0.00031468100878196,0.000328424337178336,-0.000683032220568763,0.0269172308041443,-0.0370939158270435,-0.0627733864704556,CTC,0
20.4008,0.15,0.2,0.2,0.14945609698006,0.198735544240267,0.200046781308522,0,0,0,0.927339315414429,0.373000860214233,0.821346998214722,-0.0118883512914181,0.470021307468414,0.971776843070984,1.26882637057828E-16,0.00017120320990216,-0.000273925135843456,-9.30803023430093E-16,-0.00285338680259883,2.25216679785028E-15,0.927286868579632,0.373038318240281,0.821225346615192,8.8911972338582E-06,0.448179648885235,0.92729574427733,-0.00031468100878196,0.000218313388151926,-0.000529309880094844,0.0237944849773031,-0.0353305359971078,-0.0489292086730166,CTC,0
20.501,0.15,0.2,0.2,0.1494471953854,0.198741854783574,0.200041016142988,0,0,0,0.927339315414429,0.37301042675972,0.821325898170471,-0.0115048559382558,0.470021307468414,0.971776843070984,1.26882637057828E-16,6.84812839608639E-05,-0.000205443851882592,0.00342406425625086,-7.29575153156343E-16,2.25216679785028E-15,0.927286868579632,0.373038318240281,0.821225346615192,8.8911972338582E-06,0.448179648885235,0.92729574427733,-0.00031468100878196,0.000138958435829602,-0.000424920976966866,0.02576674567598,-0.0327624878747695,-0.0489292086730166,CTC,0
20.6007,0.15,0.2,0.2,0.149448091901956,0.198743135660596,0.200036636359082,0,0,0,0.927339315414429,0.373016178607941,0.82131439447403,-0.0115048559382558,0.469941407442093,0.971776843070984,1.26882637057828E-16,3.4240641980432E-05,-0.000102721925941296,-9.30803023430093E-16,-7.29575153156343E-16,2.25216679785028E-15,0.927286868579632,0.373038318240281,0.821225346615192,8.8911972338582E-06,0.448179648885235,0.92729574427733,-0.00031468100878196,0.000102254786154125,-0.000328776732077127,0.0230274942709785,-0.0326426378352874,-0.0489292086730166,CTC,0
20.7007,0.15,0.2,0.2,0.149441503981179,0.198743395544151,0.20003296206534,0,0,0,0.927339315414429,0.373020023107529,0.821300983428955,-0.0113131087273359,0.469941407442093,0.971776843070984,1.26882637057828E-16,3.4240641980432E-05,-0.000102721925941296,-9.30803023430093E-16,-7.29575153156343E-16,2.25216679785028E-15,0.927286868579632,0.373038318240281,0.821225346615192,8.8911972338582E-06,0.448179648885235,0.92729574427733,-0.00031468100878196,8.68767878020798E-05,-0.000288543596853752,0.0226439998491388,-0.0326426378352874,-0.0489292086730166,CTC,0
20.8007,0.15,0.2,0.2,0.149491402654956,0.19884799457892,0.200024563661552,0,0,0,0.927339315414429,0.37302577495575,0.821274161338806,-0.0105461180210114,0.467944025993347,0.968708872795105,1.26882637057828E-16,0.000102721925941296,-0.00034240641980432,0.0136962570250034,-0.0356673374772072,-0.0547850281000137,0.927286868579632,0.373038318240281,0.821225346615192,8.8911972338582E-06,0.448179648885235,0.92729574427733,-0.00031468100878196,9.12619085031197E-05,-0.000351888022724779,0.0320670240564932,-0.0617471693916546,-0.0992437689075655,CTC,0
20.9008,0.15,0.2,0.2,0.149491680097967,0.198866688230692,0.200018842687029,0,0,0,0.927339315414429,0.373033434152603,0.821253061294556,-0.00997087545692921,0.467704355716705,0.968517124652863,1.26882637057828E-16,6.84812839608639E-05,-0.000205443851882592,0.00342406425625086,-0.00285338680259883,-0.00342406425625086,0.927286868579632,0.373038318240281,0.821225346615192,8.8911972338582E-06,0.448179648885235,0.92729574427733,-0.00031468100878196,4.69288642964038E-05,-0.000206410349220286,0.0226987847133268,-0.0318551083695443,-0.0486991013842112,CTC,0
