Jose05M/robotics_control_challenge/PD_CTC_Controller_csv/PD_GAUSS.csv
time,x_d,y_d,z_d,x,y,z,vx_cmd,vy_cmd,vz_cmd,q1,q2,q3,q4,q5,q6,qd1,qd2,qd3,qd4,qd5,qd6,qref1,qref2,qref3,qref4,qref5,qref6,cmd1,cmd2,cmd3,cmd4,cmd5,cmd6,mode,perturbation
1.1254,0.15,0.2,0.3,0.22813557139892432,0.2194102268947533,0.3008128614774985,-0.22,-0.16498692860540307,-0.0036578766487434244,0.7705223560333252,0.4202033579349518,1.3644356727600098,-0.02876213937997818,0.9530654549598694,0.7846311926841736,-1.5860329632228476e-17,2.854859115425444e-15,-2.1252840152086606e-15,1.7367060624689742e-15,-2.3790492628545366e-16,-1.0467817391834671e-15,0.0,0.0,0.0,0.0,0.0,0.0,0.0,0.0,0.0,0.0,0.0,0.0,PD,1
1.2254,0.15,0.2,0.3,0.22813557139892432,0.2194102268947533,0.3008128614774985,-0.22,-0.06793579413163656,-0.0028450151712448857,0.7705223560333252,0.4202033579349518,1.3644356727600098,-0.02876213937997818,0.9530654549598694,0.7846311926841736,-1.5860329632228476e-17,2.854859115425444e-15,-2.1252840152086606e-15,1.7367060624689742e-15,-2.3790492628545366e-16,-1.0467817391834671e-15,0.0,0.0,0.0,0.0,0.0,0.0,0.0,0.0,0.0,0.0,0.0,0.0,PD,1
1.3254,0.15,0.2,0.3,0.2260548436236124,0.21775408849671068,0.3006455922200786,-0.22,-0.05385861774827422,-0.002092303512855137,0.7716920375823975,0.4005856513977051,1.337625503540039,-0.02895388752222061,0.9481119513511658,0.7846311926841736,0.02054438553750515,-0.30809730291366577,-0.4170852601528168,-0.0034240642562508583,-0.08845499157905579,-1.0467817391834671e-15,0.0,0.0,0.0,0.0,0.0,0.0,0.0,0.0,0.0,0.0,0.0,0.0,PD,1
1.4254,0.15,0.2,0.3,0.21837461234122185,0.2120932186987658,0.3008133051844421,-0.2009099867823238,-0.014021916455955796,-0.0030142811099109212,0.7770072817802429,0.3559199869632721,1.2794396877288818,-0.03067961521446705,0.932772159576416,0.7875074148178101,0.062044043093919754,-0.44153308868408203,-0.5753113031387329,-0.0410887710750103,-0.12269563227891922,0.05136096477508545,0.0,0.0,0.0,0.0,0.0,0.0,0.0,0.0,0.0,0.0,0.0,0.0,PD,1
1.5258,0.15,0.2,0.3,0.2122461728568045,0.21046758447069064,0.3006190712321506,-0.187219407576729,-0.028508374507041412,-0.0019725153602355994,0.788698136806488,0.3311691880226135,1.2467390298843384,-0.02895388752222061,0.9264605045318604,0.7986287474632263,0.13203191757202148,-0.23191186785697937,-0.30323514342308044,1.7401755094209278e-15,-0.06277450919151306,0.11984224617481232,0.0,0.0,0.0,0.0,0.0,0.0,0.0,0.0,0.0,0.0,0.0,0.0,PD,1
1.6254,0.15,0.2,0.3,0.20611751470646925,0.20942073673240114,0.30074981473606194,-0.1657680107209661,-0.027738339871956424,-0.002755095080128167,0.8003755807876587,0.3073042929172516,1.2165464162826538,-0.028378644958138466,0.9202286601066589,0.8084079027175903,0.10453668236732483,-0.22602248191833496,-0.2877925932407379,-0.0034240642562508583,-0.055641043931245804,0.10957005620002747,0.0,0.0,0.0,0.0,0.0,0.0,0.0,0.0,0.0,0.0,0.0,0.0,PD,1
1.7254,0.15,0.2,0.3,0.20040728200561617,0.20867476967218665,0.30064131956614215,-0.1478743235153912,-0.026631858551580803,-0.002136123311577781,0.8132284283638,0.28633859753608704,1.1901581287384033,-0.028570393100380898,0.9155148863792419,0.8199127316474915,0.1330249011516571,-0.20558081567287445,-0.2639611065387726,0.0034240642562508583,-0.04422749578952789,0.11984224617481232,0.0,0.0,0.0,0.0,0.0,0.0,0.0,0.0,0.0,0.0,0.0,0.0,PD,1
1.8254,0.15,0.2,0.3,0.19531821939227567,0.20790890372872703,0.30063817509790525,-0.1331684548062624,-0.02385183333324646,-0.002230468374431499,0.8233546018600464,0.2678963243961334,1.1672941446304321,-0.028570393100380898,0.9122391939163208,0.826815664768219,0.0904637798666954,-0.1736685335636139,-0.21499699354171753,1.7396797833885472e-15,-0.018547015264630318,0.07190535217523575,0.0,0.0,0.0,0.0,0.0,0.0,0.0,0.0,0.0,0.0,0.0,0.0,PD,1
1.9254,0.15,0.2,0.3,0.1908326123297856,0.20704923387359125,0.30057191511064507,-0.12048610784179925,-0.020373969281890475,-0.0019354428999976137,0.8330838680267334,0.2506793141365051,1.1460542678833008,-0.028570393100380898,0.9086439609527588,0.8364030122756958,0.0991266593337059,-0.17110049724578857,-0.21054571866989136,1.7396797833885472e-15,-0.03424064442515373,0.1027219295501709,0.0,0.0,0.0,0.0,0.0,0.0,0.0,0.0,0.0,0.0,0.0,0.0,PD,1
2.0255,0.15,0.2,0.3,0.18675302660486498,0.20626255374680214,0.30054498457258194,-0.10823766449242433,-0.01798553747986184,-0.0018805154659737033,0.8416780233383179,0.23582078516483307,1.128216028213501,-0.028570393100380898,0.9068063497543335,0.8417719602584839,0.08118456602096558,-0.1401127129793167,-0.16654647886753082,1.7396797833885472e-15,-0.01997370831668377,0.06848128885030746,0.0,0.0,0.0,0.0,0.0,0.0,0.0,0.0,0.0,0.0,0.0,0.0,PD,1
2.1255,0.15,0.2,0.3,0.183182292815487,0.2055997967279115,0.30048835334532037,-0.09828435590731469,-0.01628550345323712,0.0,0.8498138785362244,0.22217793762683868,1.111510992050171,-0.028570393100380898,0.904968798160553,0.8482913970947266,0.08635490387678146,-0.14024966955184937,-0.1694227010011673,1.7396797833885472e-15,-0.024253789335489273,0.05820909142494202,0.0,0.0,0.0,0.0,0.0,0.0,0.0,0.0,0.0,0.0,0.0,0.0,PD,1
2.2254,0.15,0.2,0.3,0.17979649689616747,0.2049991928981048,0.3004896721391994,-0.0873587595399885,-0.014494155994333291,0.0,0.8571942448616028,0.21037012338638306,1.0974864959716797,-0.028570393100380898,0.9037703275680542,0.8528932929039001,0.06851552426815033,-0.1116587370634079,-0.13199767470359802,1.7396797833885472e-15,-0.009986854158341885,0.0410887710750103,0.0,0.0,0.0,0.0,0.0,0.0,0.0,0.0,0.0,0.0,0.0,0.0,PD,1
2.3256,0.15,0.2,0.3,0.17681454149488582,0.20443963061509973,0.300487544938304,-0.07894111822569211,-0.012740895737823638,0.0,0.8642658591270447,0.1993848979473114,1.0845167636871338,-0.028378644958138466,0.9032110571861267,0.8580704927444458,0.07098085433244705,-0.11244627088308334,-0.1323743313550949,0.0034240642562508583,-0.007133467122912407,0.05478502810001373,0.0,0.0,0.0,0.0,0.0,0.0,0.0,0.0,0.0,0.0,0.0,0.0,PD,1
2.4255,0.15,0.2,0.3,0.17407582154181422,0.20391642582088979,0.30052861313190704,-0.07057177563099183,-0.011091466402064473,-0.0018912141552777373,0.8704094886779785,0.18980327248573303,1.0735142230987549,-0.028378644958138466,0.9028915166854858,0.8613302111625671,0.054921992123126984,-0.0899159237742424,-0.10344097763299942,1.7396797833885472e-15,-0.005706773605197668,0.037664707750082016,0.0,0.0,0.0,0.0,0.0,0.0,0.0,0.0,0.0,0.0,0.0,0.0,PD,1
2.5254,0.15,0.2,0.3,0.17168569495169636,0.20346166321572565,0.30053001470761126,-0.06394929938034796,-0.009842008229219032,-0.001856453052343665,0.8762462735176086,0.1809464544057846,1.0633573532104492,-0.028378644958138466,0.902651846408844,0.8651651740074158,0.057592760771512985,-0.09234701097011566,-0.10350946336984634,1.7396797833885472e-15,-3.0134623819692266e-16,0.04451283439993858,0.0,0.0,0.0,0.0,0.0,0.0,0.0,0.0,0.0,0.0,0.0,0.0,PD,1
2.6254,0.15,0.2,0.3,0.16947694167837307,0.20305313536971653,0.30053268033324354,-0.05712552950768933,-0.00864333456396224,-0.0018670467919847111,0.8814368844032288,0.17341077327728271,1.0546232461929321,-0.028378644958138466,0.902651846408844,0.8668909072875977,0.04625910893082619,-0.07146022468805313,-0.08409501612186432,1.7396797833885472e-15,-3.0134623819692266e-16,0.02054438553750515,0.0,0.0,0.0,0.0,0.0,0.0,0.0,0.0,0.0,0.0,0.0,0.0,PD,1
2.7254,0.15,0.2,0.3,0.16753767148818766,0.2026819682582687,0.3005720534115235,-0.051685499257729736,-0.007531053346701275,-0.002041560018612193,0.8863321542739868,0.16643115878105164,1.0465353727340698,-0.028378644958138466,0.902651846408844,0.8707258701324463,0.0514979250729084,-0.07050148397684097,-0.08474559336900711,1.7396797833885472e-15,-3.0134623819692266e-16,0.03424064442515373,0.0,0.0,0.0,0.0,0.0,0.0,0.0,0.0,0.0,0.0,0.0,0.0,PD,1
2.8254,0.15,0.2,0.3,0.1657125848162463,0.2023362880208207,0.30046349737357825,-0.045868613497155195,-0.00644860688563248,0.0,0.8907002210617065,0.16043329238891602,1.0395231246948242,-0.028378644958138466,0.902651846408844,0.8711093664169312,0.04184206575155258,-0.05653130263090134,-0.06300278007984161,1.7396797833885472e-15,-3.0134623819692266e-16,0.006848128512501717,0.0,0.0,0.0,0.0,0.0,0.0,0.0,0.0,0.0,0.0,0.0,0.0,PD,1
2.9254,0.15,0.2,0.3,0.16416611831962075,0.20205383259076704,0.30046623812632556,-0.04184908163554492,-0.005776136917416214,0.0,0.8946406245231628,0.15493972599506378,1.0330958366394043,-0.028378644958138466,0.902651846408844,0.8724515438079834,0.04050667956471443,-0.05413445457816124,-0.06598171591758728,1.7396797833885472e-15,-3.0134623819692266e-16,0.013696257025003433,0.0,0.0,0.0,0.0,0.0,0.0,0.0,0.0,0.0,0.0,0.0,0.0,PD,1
3.0254,0.15,0.2,0.3,0.16269452231341186,0.20180324096778496,0.30038026795443046,-0.0370728480658971,-0.005058385272336929,0.0,0.8983048796653748,0.15024574100971222,1.0275466442108154,-0.028378644958138466,0.902651846408844,0.8728350400924683,0.03578147292137146,-0.04304048791527748,-0.05016254261136055,1.7396797833885472e-15,-3.0134623819692266e-16,-1.0467817391834671e-15,0.0,0.0,0.0,0.0,0.0,0.0,0.0,0.0,0.0,0.0,0.0,0.0,PD,1
3.1259,0.15,0.2,0.3,0.16154146136839292,0.201606201089156,0.30045890373938255,-0.03462981006428058,-0.004636504418901177,0.0,0.9013230204582214,0.14584322273731232,1.023013710975647,-0.028378644958138466,0.902651846408844,0.8739855289459229,0.031227465718984604,-0.04601942375302315,-0.04711512476205826,1.7396797833885472e-15,-3.0134623819692266e-16,-1.0467817391834671e-15,0.0,0.0,0.0,0.0,0.0,0.0,0.0,0.0,0.0,0.0,0.0,0.0,PD,1
3.2255,0.15,0.2,0.3,0.16037537096753568,0.20144317447614746,0.3004323968777168,-0.030483346382088675,-0.004235977601473345,0.0,0.904360294342041,0.142177015542984,1.0186878442764282,-0.028378644958138466,0.902651846408844,0.8739855289459229,0.030029043555259705,-0.03636356070637703,-0.0425611175596714,1.7396797833885472e-15,-3.0134623819692266e-16,-1.0467817391834671e-15,0.0,0.0,0.0,0.0,0.0,0.0,0.0,0.0,0.0,0.0,0.0,0.0,PD,1
3.3254,0.15,0.2,0.3,0.15939677990422552,0.20125702233146414,0.3004379027966986,-0.02799577434823851,-0.0034688174367078772,0.0,0.906757116317749,0.13880416750907898,1.0149104595184326,-0.028378644958138466,0.902651846408844,0.8741772770881653,0.024482060223817825,-0.033658552914857864,-0.03745926171541214,1.7396797833885472e-15,-3.0134623819692266e-16,-1.0467817391834671e-15,0.0,0.0,0.0,0.0,0.0,0.0,0.0,0.0,0.0,0.0,0.0,0.0,PD,1
3.4256,0.15,0.2,0.3,0.15847218713694267,0.20114100875333732,0.300485594599775,-0.0250296911428851,-0.0034134627460464667,0.0,0.9094703793525696,0.13547159731388092,1.0113804340362549,-0.028378644958138466,0.9028915166854858,0.8741772770881653,0.025338076055049896,-0.0308165792375803,-0.03372703120112419,1.7396797833885472e-15,0.0042800805531442165,-1.0467817391834671e-15,0.0,0.0,0.0,0.0,0.0,0.0,0.0,0.0,0.0,0.0,0.0,0.0,PD,1
3.5254,0.15,0.2,0.3,0.15764876042116135,0.2009859633758138,0.30048395061408356,-0.022653527895158204,-0.00267564492773055,0.0,0.9114894866943359,0.1327487826347351,1.0082874298095703,-0.028378644958138466,0.9028915166854858,0.8741772770881653,0.01982533186674118,-0.026776183396577835,-0.03177531808614731,1.7396797833885472e-15,-3.0134623819692266e-16,-1.0467817391834671e-15,0.0,0.0,0.0,0.0,0.0,0.0,0.0,0.0,0.0,0.0,0.0,0.0,PD,1
3.6254,0.15,0.2,0.3,0.15692553246549729,0.2008763660597494,0.3004734118898956,-0.020623223850920178,-0.0025192946288009332,0.0,0.9133378863334656,0.13079486787319183,1.00603449344635,-0.028378644958138466,0.9029713869094849,0.8741772770881653,0.016709433868527412,-0.014209866523742676,-0.01763393171131611,1.7396797833885472e-15,0.001426693401299417,-1.0467817391834671e-15,0.0,0.0,0.0,0.0,0.0,0.0,0.0,0.0,0.0,0.0,0.0,0.0,PD,1
3.7254,0.15,0.2,0.3,0.15680588684611854,0.2009611306694635,0.30038442074719407,-0.023222375864521194,-0.0037877803916927105,0.0,0.9135622382164001,0.13127616047859192,1.0060670375823975,-0.028570393100380898,0.9029713869094849,0.8741772770881653,-0.0023626042529940605,0.007293256931006908,0.0007875347509980202,1.7396797833885472e-15,-3.0134623819692266e-16,-1.0467817391834671e-15,0.0,0.0,0.0,0.0,0.0,0.0,0.0,0.0,0.0,0.0,0.0,0.0,PD,1
3.8254,0.15,0.2,0.3,0.15692765721318752,0.2008205651245376,0.30032985427245307,-0.024855652081501242,-0.0021691502112521355,0.0,0.9129716753959656,0.13101154565811157,1.0056509971618652,-0.028570393100380898,0.9029713869094849,0.8741772770881653,-0.003697989508509636,-0.00616331584751606,-0.007532941177487373,1.7396797833885472e-15,-3.0134623819692266e-16,-1.0467817391834671e-15,0.0,0.0,0.0,0.0,0.0,0.0,0.0,0.0,0.0,0.0,0.0,0.0,PD,1
3.9255,0.15,0.2,0.3,0.1567185485253776,0.2009367142735426,0.3003058101315707,-0.02246937639977191,-0.0038592457024239635,0.0,0.9143829345703125,0.13102689385414124,1.0055723190307617,-0.028570393100380898,0.9029713869094849,0.8739855289459229,0.019962294027209282,0.0006505721830762923,-6.848128396086395e-05,1.7396797833885472e-15,-3.0134623819692266e-16,-0.0034240642562508583,0.0,0.0,0.0,0.0,0.0,0.0,0.0,0.0,0.0,0.0,0.0,0.0,PD,1
4.0254,0.15,0.2,0.3,0.15646223046825852,0.20123825384461197,0.30017186983722083,-0.021336216353309526,-0.005841586311488733,0.0,0.9154356122016907,0.1321946233510971,1.0061246156692505,-0.028570393100380898,0.9029713869094849,0.8737937808036804,0.005307299550622702,0.016230065375566483,0.009416176937520504,1.7396797833885472e-15,-3.0134623819692266e-16,-0.0034240642562508583,0.0,0.0,0.0,0.0,0.0,0.0,0.0,0.0,0.0,0.0,0.0,0.0,PD,1
4.1254,0.15,0.2,0.3,0.15670123199268676,0.2014720635132007,0.29984467193105,-0.024649319596544886,-0.0063212706391461565,0.0,0.9151211380958557,0.13439972698688507,1.0072002410888672,-0.028570393100380898,0.9029713869094849,0.8737937808036804,-0.004999133758246899,0.014620753936469555,0.004554005339741707,1.7396797833885472e-15,-3.0134623819692266e-16,-1.0467817391834671e-15,0.0,0.0,0.0,0.0,0.0,0.0,0.0,0.0,0.0,0.0,0.0,0.0,PD,1
4.2254,0.15,0.2,0.3,0.15673092937770305,0.2014607368419104,0.29983227740561447,-0.02370673974704217,-0.005055945590234839,0.0,0.9153895974159241,0.13423866033554077,1.0072118043899536,-0.02876213937997818,0.9029713869094849,0.8737937808036804,0.0057524279691278934,-0.0035952674224972725,3.4240641980431974e-05,1.7396797833885472e-15,-3.0134623819692266e-16,-1.0467817391834671e-15,0.0,0.0,0.0,0.0,0.0,0.0,0.0,0.0,0.0,0.0,0.0,0.0,PD,1
4.3254,0.15,0.2,0.3,0.1563333829120605,0.2016516562758704,0.29976886765183014,-0.020179107863999027,-0.006735394135346295,0.0,0.9170367121696472,0.13402773439884186,1.0063546895980835,-0.02876213937997818,0.9029713869094849,0.8737937808036804,0.013456572778522968,-0.0018832352943718433,-0.013456572778522968,1.7396797833885472e-15,-3.0134623819692266e-16,-1.0467817391834671e-15,0.0,0.0,0.0,0.0,0.0,0.0,0.0,0.0,0.0,0.0,0.0,0.0,PD,1
4.4254,0.15,0.2,0.3,0.15614852670614093,0.20169333533770994,0.2996852105836689,-0.020595562441895435,-0.0061350689911825185,0.0,0.9177442789077759,0.13395678997039795,1.0061687231063843,-0.02876213937997818,0.9030513167381287,0.8737937808036804,0.007532941177487373,-0.00047936898772604764,-2.347328620133692e-15,1.7396797833885472e-15,-3.0134623819692266e-16,-1.0467817391834671e-15,0.0,0.0,0.0,0.0,0.0,0.0,0.0,0.0,0.0,0.0,0.0,0.0,PD,1
4.5254,0.15,0.2,0.3,0.15576497802279538,0.20188643641077436,0.29959371519026556,-0.01825967966305604,-0.00756803280303231,0.0,0.9193108677864075,0.133644238114357,1.0052118301391602,-0.02876213937997818,0.9030513167381287,0.8737937808036804,0.011984225362539291,-0.005546984262764454,-0.01643550768494606,1.7396797833885472e-15,-3.0134623819692266e-16,-1.0467817391834671e-15,0.0,0.0,0.0,0.0,0.0,0.0,0.0,0.0,0.0,0.0,0.0,0.0,PD,1
4.6254,0.15,0.2,0.3,0.15563567557222313,0.20179668422227998,0.299622872684352,-0.01907835224991976,-0.005839633835507951,0.0,0.9193530082702637,0.1329539567232132,1.0049165487289429,-0.02876213937997818,0.9030513167381287,0.8737937808036804,-0.0005136096151545644,-0.005341540090739727,0.0004108877037651837,1.7396797833885472e-15,-3.0134623819692266e-16,-1.0467817391834671e-15,0.0,0.0,0.0,0.0,0.0,0.0,0.0,0.0,0.0,0.0,0.0,0.0,PD,1
4.7256,0.15,0.2,0.3,0.1555920374832689,0.20177895135239493,0.2998758587802815,-0.01935394074667013,-0.006137665383956992,0.0,0.9195562601089478,0.1318494826555252,1.0049530267715454,-0.02876213937997818,0.9030513167381287,0.8737937808036804,0.0035952674224972725,-0.013559294864535332,-0.000308165792375803,1.7396797833885472e-15,-3.0134623819692266e-16,-1.0467817391834671e-15,0.0,0.0,0.0,0.0,0.0,0.0,0.0,0.0,0.0,0.0,0.0,0.0,PD,1
4.8254,0.15,0.2,0.3,0.15546257147482392,0.20177828272744464,0.2999049026506278,-0.018471670119658806,-0.00622064642130471,0.0,0.9198880195617676,0.1318226456642151,1.0045925378799438,-0.02876213937997818,0.9030513167381287,0.8737937808036804,0.0025338076520711184,0.003561026882380247,-0.0025680481921881437,1.7396797833885472e-15,-3.0134623819692266e-16,-1.0467817391834671e-15,0.0,0.0,0.0,0.0,0.0,0.0,0.0,0.0,0.0,0.0,0.0,0.0,PD,1
4.9254,0.15,0.2,0.3,0.1555707864568056,0.2019373127534953,0.29975791604300916,-0.020038827508728083,-0.007575744767486847,0.0,0.9199378490447998,0.13341030478477478,1.0057812929153442,-0.02876213937997818,0.9030513167381287,0.8737937808036804,0.0007532941526733339,0.018900834023952484,0.01777089387178421,1.7396797833885472e-15,-3.0134623819692266e-16,-1.0467817391834671e-15,0.0,0.0,0.0,0.0,0.0,0.0,0.0,0.0,0.0,0.0,0.0,0.0,PD,1
5.0254,0.15,0.2,0.3,0.1553364624725316,0.20215325336892662,0.29963650606284054,-0.01750599873249062,-0.008616089868399693,0.0,0.9214776158332825,0.13319747149944305,1.004941463470459,-0.02876213937997818,0.9030513167381287,0.8737937808036804,0.019277481362223625,-0.009381935931742191,-0.018421465530991554,1.7396797833885472e-15,-3.0134623819692266e-16,-1.0467817391834671e-15,0.0,0.0,0.0,0.0,0.0,0.0,0.0,0.0,0.0,0.0,0.0,0.0,PD,1
5.1254,0.15,0.2,0.3,0.1549551446954363,0.20190782795132073,0.2995507487235236,-0.015436417548550616,-0.005450270741593072,0.0,0.9217537045478821,0.131617471575737,1.002926230430603,-0.02876213937997818,0.9030513167381287,0.8737937808036804,0.0005478502716869116,-0.011333652772009373,-0.01444955077022314,1.7396797833885472e-15,-3.0134623819692266e-16,-1.0467817391834671e-15,0.0,0.0,0.0,0.0,0.0,0.0,0.0,0.0,0.0,0.0,0.0,0.0,PD,1
5.2254,0.15,0.2,0.3,0.15475385613706635,0.20171993083299872,0.2995491701184798,-0.01563205368788248,-0.005080272323885415,0.0,0.9220240712165833,0.13003362715244293,1.0012561082839966,-0.02876213937997818,0.9030513167381287,0.8737937808036804,0.004622486885637045,-0.02164008654654026,-0.02064710669219494,1.7396797833885472e-15,-3.0134623819692266e-16,-1.0467817391834671e-15,0.0,0.0,0.0,0.0,0.0,0.0,0.0,0.0,0.0,0.0,0.0,0.0,PD,1
5.3256,0.15,0.2,0.3,0.15446527527988874,0.20134989258259506,0.29945891683194625,-0.01418555919372251,-0.0028744327870643682,0.001984044374721633,0.9218093156814575,0.12846514582633972,0.9989398121833801,-0.02876213937997818,0.9030513167381287,0.8737937808036804,-0.0042800805531442165,-0.010169470682740211,-0.017976338043808937,1.7396797833885472e-15,-3.0134623819692266e-16,-1.0467817391834671e-15,0.0,0.0,0.0,0.0,0.0,0.0,0.0,0.0,0.0,0.0,0.0,0.0,PD,1
5.4255,0.15,0.2,0.3,0.1544618061480822,0.20124629580318187,0.2994352997654616,-0.015598975859254974,-0.0038440514140705984,0.002000067887368895,0.9217767119407654,0.1279781013727188,0.9985409379005432,-0.02876213937997818,0.9030513167381287,0.8737937808036804,0.002157160546630621,-0.006676925346255302,-0.003526786109432578,1.7396797833885472e-15,-3.0134623819692266e-16,-1.0467817391834671e-15,0.0,0.0,0.0,0.0,0.0,0.0,0.0,0.0,0.0,0.0,0.0,0.0,PD,1
5.5255,0.15,0.2,0.3,0.15419823149852527,0.20086034038444922,0.2994505540196607,-0.013375936997053833,-0.0010814142519089687,0.0019078066769884494,0.921456515789032,0.12574806809425354,0.9956167936325073,-0.02876213937997818,0.9030513167381287,0.8737937808036804,-0.005855150055140257,-0.01958564668893814,-0.03280253708362579,1.7396797833885472e-15,-3.0134623819692266e-16,-1.0467817391834671e-15,0.0,0.0,0.0,0.0,0.0,0.0,0.0,0.0,0.0,0.0,0.0,0.0,PD,1
5.6254,0.15,0.2,0.3,0.15402761333673404,0.20058495633103024,0.2990988497733922,-0.013243555869612997,-0.0006704268915108946,0.0035057300393958324,0.9216904640197754,0.12555056810379028,0.9941768050193787,-0.02876213937997818,0.9030513167381287,0.8737937808036804,0.007053572218865156,-0.00010272192594129592,-0.007841107435524464,1.7396797833885472e-15,-3.0134623819692266e-16,-1.0467817391834671e-15,0.0,0.0,0.0,0.0,0.0,0.0,0.0,0.0,0.0,0.0,0.0,0.0,PD,1
5.7254,0.15,0.2,0.3,0.15389477912446178,0.20067863868129196,0.2990831815179244,-0.012967555874254993,-0.002843647135830421,0.003224532942732339,0.922246515750885,0.12563686072826385,0.9941921234130859,-0.02876213937997818,0.9030513167381287,0.8737937808036804,0.004485524259507656,0.0015750695019960403,0.000308165792375803,1.7396797833885472e-15,-3.0134623819692266e-16,-1.0467817391834671e-15,0.0,0.0,0.0,0.0,0.0,0.0,0.0,0.0,0.0,0.0,0.0,0.0,PD,1
5.8254,0.15,0.2,0.3,0.15372960837877006,0.20081877693006273,0.29902900830533885,-0.012227775597236618,-0.0035664104990733303,0.003452644143899536,0.9232186675071716,0.12573273479938507,0.9941365122795105,-0.02876213937997818,0.9030513167381287,0.8737937808036804,0.012669038027524948,-0.0008902567205950618,-0.0011641818564385176,1.7396797833885472e-15,-3.0134623819692266e-16,-1.0467817391834671e-15,0.0,0.0,0.0,0.0,0.0,0.0,0.0,0.0,0.0,0.0,0.0,0.0,PD,1
5.9254,0.15,0.2,0.3,0.15372669158064217,0.20080687853660206,0.2990497569204157,-0.013028836541608177,-0.0027645829108038644,0.0033051021634682154,0.922620415687561,0.1256905496120453,0.9941844344139099,-0.02876213937997818,0.9030513167381287,0.8737937808036804,-0.011436374858021736,0.00047936898772604764,0.0010272192303091288,1.7396797833885472e-15,-3.0134623819692266e-16,-1.0467817391834671e-15,0.0,0.0,0.0,0.0,0.0,0.0,0.0,0.0,0.0,0.0,0.0,0.0,PD,1
6.0254,0.15,0.2,0.3,0.1539461919861012,0.2006324827139887,0.2990282242008423,-0.014909173978649451,-0.0013417103858936186,0.0034227480166253155,0.9218879342079163,0.12561002373695374,0.9937722086906433,-0.02876213937997818,0.9030513167381287,0.8737937808036804,-0.0010957005433738232,-0.0026707700453698635,-0.008765604346990585,1.7396797833885472e-15,-3.0134623819692266e-16,-1.0467817391834671e-15,0.0,0.0,0.0,0.0,0.0,0.0,0.0,0.0,0.0,0.0,0.0,0.0,PD,1
6.1254,0.15,0.2,0.3,0.15373042051710525,0.20050431753878478,0.2987277608931704,-0.011977614464888625,-0.0011242855097270965,0.004753300181575548,0.9223558306694031,0.12549687922000885,0.9923839569091797,-0.02876213937997818,0.9030513167381287,0.8737937808036804,0.005033374298363924,-0.0001369625679217279,-0.010614599101245403,1.7396797833885472e-15,-3.0134623819692266e-16,-1.0467817391834671e-15,0.0,0.0,0.0,0.0,0.0,0.0,0.0,0.0,0.0,0.0,0.0,0.0,PD,1
6.2254,0.15,0.2,0.3,0.15346879659267956,0.20048292642515386,0.29862841467219015,-0.010832668452250033,0.0,0.004899894868314686,0.9233490824699402,0.12459375709295273,0.9913254976272583,-0.02876213937997818,0.9030513167381287,0.8737937808036804,0.013833219185471535,-0.015511010773479939,-0.011744540184736252,1.7396797833885472e-15,-3.0134623819692266e-16,-1.0467817391834671e-15,0.0,0.0,0.0,0.0,0.0,0.0,0.0,0.0,0.0,0.0,0.0,0.0,PD,1
6.3255,0.15,0.2,0.3,0.1531828158409109,0.20048660035928384,0.29889074899996504,-0.009709951684344825,0.0,0.003620044172347431,0.9239243268966675,0.12307319790124893,0.990894079208374,-0.02876213937997818,0.9030513167381287,0.8737937808036804,0.0011641818564385176,-0.014107144437730312,-0.00308165792375803,1.7396797833885472e-15,-3.0134623819692266e-16,-1.0467817391834671e-15,0.0,0.0,0.0,0.0,0.0,0.0,0.0,0.0,0.0,0.0,0.0,0.0,PD,1
6.4254,0.15,0.2,0.3,0.15317673288192718,0.20026198156536174,0.2992397000292345,-0.011088150291826568,0.0,0.0023120988684097454,0.9234181046485901,0.12122858315706253,0.9902133345603943,-0.02876213937997818,0.9030513167381287,0.8737937808036804,-0.003697989508509636,-0.018455706536769867,-0.009416176937520504,1.7396797833885472e-15,-3.0134623819692266e-16,-1.0467817391834671e-15,0.0,0.0,0.0,0.0,0.0,0.0,0.0,0.0,0.0,0.0,0.0,0.0,PD,1
6.5254,0.15,0.2,0.3,0.15295331905543114,0.200232433832983,0.29914106138666285,-0.009219547561528776,0.0,0.003104923789251618,0.9243499636650085,0.121059849858284,0.989143431186676,-0.02876213937997818,0.9030513167381287,0.8737937808036804,0.013216887600719929,-0.00020544385188259184,-0.012600556015968323,1.7396797833885472e-15,-3.0134623819692266e-16,-1.0467817391834671e-15,0.0,0.0,0.0,0.0,0.0,0.0,0.0,0.0,0.0,0.0,0.0,0.0,PD,1
6.6254,0.15,0.2,0.3,0.1525379473127838,0.20022694800742552,0.298957852578147,-0.006805956881506689,0.0,0.0038307247850013215,0.9256135821342468,0.1201145276427269,0.9876899719238281,-0.02876213937997818,0.9030513167381287,0.8737937808036804,0.012052706442773342,-0.014004423283040524,-0.013490812852978706,1.7396797833885472e-15,-3.0134623819692266e-16,-1.0467817391834671e-15,0.0,0.0,0.0,0.0,0.0,0.0,0.0,0.0,0.0,0.0,0.0,0.0,PD,1
6.7254,0.15,0.2,0.3,0.1521378522243315,0.20028810745509612,0.298881649308665,-0.005482007342898637,0.0,0.003990430689154417,0.9271015524864197,0.1197233647108078,0.9865797162055969,-0.02876213937997818,0.9030513167381287,0.8737937808036804,0.015374048613011837,-0.0008560160640627146,-0.011504855938255787,1.7396797833885472e-15,-3.0134623819692266e-16,-1.0467817391834671e-15,0.0,0.0,0.0,0.0,0.0,0.0,0.0,0.0,0.0,0.0,0.0,0.0,PD,1
6.8255,0.15,0.2,0.3,0.15181225572002466,0.20036422040978552,0.2986891418142975,-0.004714912498552173,0.0,0.004780511144326177,0.928066074848175,0.11962365359067917,0.9858760237693787,-0.02876213937997818,0.9030513167381287,0.8737937808036804,0.005820909049361944,-0.001677791471593082,-0.004382802173495293,1.7396797833885472e-15,-3.0134623819692266e-16,-1.0467817391834671e-15,0.0,0.0,0.0,0.0,0.0,0.0,0.0,0.0,0.0,0.0,0.0,0.0,PD,1
6.9254,0.15,0.2,0.3,0.1518156855596821,0.2003736248348289,0.29865232872743297,-0.006372048657174681,0.0,0.004753662540849107,0.9278091192245483,0.11998030543327332,0.9859469532966614,-0.02876213937997818,0.9030513167381287,0.8737937808036804,-0.004999133758246899,0.005992112681269646,0.0012669038260355592,1.7396797833885472e-15,-3.0134623819692266e-16,-1.0467817391834671e-15,0.0,0.0,0.0,0.0,0.0,0.0,0.0,0.0,0.0,0.0,0.0,0.0,PD,1
7.0254,0.15,0.2,0.3,0.15201588885051565,0.20025574336170807,0.29858476282276564,-0.008056627430972449,0.0,0.0050208960249875645,0.9270747303962708,0.1200244128704071,0.9859604239463806,-0.02876213937997818,0.9030513167381287,0.8737937808036804,-0.0048279305920004845,-0.0031843797769397497,-0.000308165792375803,1.7396797833885472e-15,-3.0134623819692266e-16,-1.0467817391834671e-15,0.0,0.0,0.0,0.0,0.0,0.0,0.0,0.0,0.0,0.0,0.0,0.0,PD,1
7.1261,0.15,0.2,0.3,0.1519065146472672,0.20012199264567548,0.2985717629465182,-0.006125930249193029,0.0,0.0050118295634336285,0.9271494746208191,0.1191481202840805,0.9846450090408325,-0.02876213937997818,0.9030513167381287,0.8737937808036804,0.0013011443661525846,-0.009347695857286453,-0.017496967688202858,1.7396797833885472e-15,-3.0134623819692266e-16,-1.0467817391834671e-15,0.0,0.0,0.0,0.0,0.0,0.0,0.0,0.0,0.0,0.0,0.0,0.0,PD,1
7.2254,0.15,0.2,0.3,0.15171496640078358,0.19989473901062313,0.2983999959979403,-0.005044641170324424,0.0,0.005771780955786759,0.9272050857543945,0.1184539943933487,0.9833008646965027,-0.02876213937997818,0.9030513167381287,0.8737937808036804,0.00034240641980431974,-0.0036295081954449415,-0.005820909049361944,1.7396797833885472e-15,-3.0134623819692266e-16,-1.0467817391834671e-15,0.0,0.0,0.0,0.0,0.0,0.0,0.0,0.0,0.0,0.0,0.0,0.0,PD,1
7.3254,0.15,0.2,0.3,0.15160168607872962,0.1999674298681269,0.2984040538060634,-0.005039499665283886,0.0,0.005581753870655043,0.9278762340545654,0.11842907220125198,0.9832931756973267,-0.02876213937997818,0.9030513167381287,0.8737937808036804,0.008354716934263706,2.702203449539485e-15,-2.347328620133692e-15,1.7396797833885472e-15,-3.0134623819692266e-16,-1.0467817391834671e-15,0.0,0.0,0.0,0.0,0.0,0.0,0.0,0.0,0.0,0.0,0.0,0.0,PD,1
7.4254,0.15,0.2,0.3,0.1514308998138535,0.20010220523495248,0.2983843274167832,-0.004154218024106607,0.0,0.005674580430538839,0.9288637042045593,0.11852877587080002,0.9832931756973267,-0.02876213937997818,0.9030513167381287,0.8737937808036804,0.012052706442773342,0.0015065883053466678,-2.347328620133692e-15,1.7396797833885472e-15,-3.0134623819692266e-16,-1.0467817391834671e-15,0.0,0.0,0.0,0.0,0.0,0.0,0.0,0.0,0.0,0.0,0.0,0.0,PD,1
7.5254,0.15,0.2,0.3,0.15119894554900165,0.20027812296828018,0.2984245706494587,-0.003036538097246591,0.0,0.005473759494218994,0.9297764301300049,0.11826799809932709,0.9835271239280701,-0.02876213937997818,0.9030513167381287,0.8737937808036804,0.006026353221386671,-0.004348561633378267,0.004177358467131853,1.7396797833885472e-15,-3.0134623819692266e-16,-1.0467817391834671e-15,0.0,0.0,0.0,0.0,0.0,0.0,0.0,0.0,0.0,0.0,0.0,0.0,PD,1
7.6255,0.15,0.2,0.3,0.15122909921123398,0.20035879358510142,0.2987302249002136,-0.004452615550480599,0.0,0.004138558598497405,0.930029571056366,0.11784423887729645,0.984113872051239,-0.02876213937997818,0.9030513167381287,0.8737937808036804,0.0045197647996246815,-0.002602288732305169,0.0010957005433738232,1.7396797833885472e-15,-3.0134623819692266e-16,-1.0467817391834671e-15,0.0,0.0,0.0,0.0,0.0,0.0,0.0,0.0,0.0,0.0,0.0,0.0,PD,1
7.7254,0.15,0.2,0.3,0.15092416063401198,0.2005883527119462,0.2987344609946241,-0.0017098693329319764,-0.003207030126035515,0.004425150424405194,0.9315213561058044,0.11802064627408981,0.9844072461128235,-0.02876213937997818,0.9030513167381287,0.8737937808036804,0.012566315941512585,0.003355582943186164,0.005238818470388651,1.7396797833885472e-15,-3.0134623819692266e-16,-1.0467817391834671e-15,0.0,0.0,0.0,0.0,0.0,0.0,0.0,0.0,0.0,0.0,0.0,0.0,PD,1
7.8254,0.15,0.2,0.3,0.15117283688502628,0.2010582760137976,0.2990069434727859,-0.005348310352663477,-0.006053582557548676,0.0032032153670875363,0.9317514300346375,0.11982691287994385,0.9876381754875183,-0.02876213937997818,0.9032110571861267,0.8737937808036804,0.002431085566058755,0.018661150708794594,0.030782338231801987,1.7396797833885472e-15,0.001426693401299417,-1.0467817391834671e-15,0.0,0.0,0.0,0.0,0.0,0.0,0.0,0.0,0.0,0.0,0.0,0.0,PD,1
7.9254,0.15,0.2,0.3,0.15102142374298383,0.20106359620535375,0.2990254153270846,-0.00281791739023117,-0.003749187676518745,0.00339257450090516,0.932196319103241,0.11869751662015915,0.9864378571510315,-0.02876213937997818,0.9033708572387695,0.8737937808036804,0.0032871016301214695,-0.01872963085770607,-0.019962294027209282,1.7396797833885472e-15,0.002853386802598834,-1.0467817391834671e-15,0.0,0.0,0.0,0.0,0.0,0.0,0.0,0.0,0.0,0.0,0.0,0.0,PD,1
8.0254,0.15,0.2,0.3,0.1510156773386184,0.2008503865555631,0.29915834480430553,-0.0035261386633372582,-0.0019103046955174785,0.0028128637077096674,0.9313967227935791,0.1180168092250824,0.9862039089202881,-0.02876213937997818,0.9034507870674133,0.8737937808036804,-0.012977203354239464,0.00034240641980431974,0.0025338076520711184,1.7396797833885472e-15,0.001426693401299417,-1.0467817391834671e-15,0.0,0.0,0.0,0.0,0.0,0.0,0.0,0.0,0.0,0.0,0.0,0.0,PD,1
8.1254,0.15,0.2,0.3,0.15118855596178118,0.20073437256563476,0.2991712640919115,-0.005024338982048099,-0.001990234030079946,0.0028876563907036246,0.9308751225471497,0.11802064627408981,0.9861904978752136,-0.02876213937997818,0.9036904573440552,0.8737937808036804,-0.0014381069922819734,-0.0005820909282192588,-0.0013011443661525846,1.7396797833885472e-15,-3.0134623819692266e-16,-1.0467817391834671e-15,0.0,0.0,0.0,0.0,0.0,0.0,0.0,0.0,0.0,0.0,0.0,0.0,PD,1
8.2254,0.15,0.2,0.3,0.1511092821673695,0.20075001057756514,0.299157432004723,-0.0034861186137347677,-0.002703227081129883,0.0029628200706579844,0.9312164783477783,0.11804940551519394,0.9860735535621643,-0.028570393100380898,0.9037703275680542,0.8737937808036804,0.005786668509244919,0.0019517166074365377,-6.848128396086395e-05,1.7396797833885472e-15,0.001426693401299417,-1.0467817391834671e-15,0.0,0.0,0.0,0.0,0.0,0.0,0.0,0.0,0.0,0.0,0.0,0.0,PD,1
8.3253,0.15,0.2,0.3,0.15121642863086415,0.20080599616648348,0.2987821814434468,-0.004793232525497862,-0.003100914527283838,0.004637615509212295,0.9306872487068176,0.11996496468782425,0.9863534569740295,-0.028570393100380898,0.9037703275680542,0.8737937808036804,-0.009142251685261726,0.02174280770123005,0.004759449511766434,1.7396797833885472e-15,-3.0134623819692266e-16,-1.0467817391834671e-15,0.0,0.0,0.0,0.0,0.0,0.0,0.0,0.0,0.0,0.0,0.0,0.0,PD,1
8.4254,0.15,0.2,0.3,0.15141041091481078,0.20080950605401995,0.29842461388874686,-0.005906349621570869,-0.002850820626752168,0.00587141894408591,0.9303420782089233,0.12100999057292938,0.9856804609298706,-0.028570393100380898,0.9024920463562012,0.8737937808036804,0.00047936898772604764,0.005786668509244919,-0.01431258860975504,1.7396797833885472e-15,-0.022827094420790672,-1.0467817391834671e-15,0.0,0.0,0.0,0.0,0.0,0.0,0.0,0.0,0.0,0.0,0.0,0.0,PD,1
8.5254,0.15,0.2,0.3,0.1510587742235255,0.20049456544087535,0.2978704949305735,-0.0019475263259129683,0.0,0.008007386701166103,0.9306795597076416,0.11945108324289322,0.9822558164596558,-0.028570393100380898,0.9018528461456299,0.8737937808036804,0.0021914010867476463,-0.024482060223817825,-0.032186202704906464,1.7396797833885472e-15,-0.008560161106288433,-1.0467817391834671e-15,0.0,0.0,0.0,0.0,0.0,0.0,0.0,0.0,0.0,0.0,0.0,0.0,PD,1
8.6255,0.15,0.2,0.3,0.15084392564905558,0.2001944260395838,0.29804978498671564,-0.0018794968993448707,0.0,0.006646462490353083,0.9306028485298157,0.1177196055650711,0.9809442758560181,-0.028570393100380898,0.901613175868988,0.8737937808036804,-0.001369625679217279,-0.007875347509980202,-0.006676925346255302,1.7396797833885472e-15,-0.001426693401299417,-1.0467817391834671e-15,0.0,0.0,0.0,0.0,0.0,0.0,0.0,0.0,0.0,0.0,0.0,0.0,PD,1
8.7255,0.15,0.2,0.3,0.1508832475257697,0.20020720979788323,0.2979951786097544,-0.0032879757237646162,0.0,0.007071481242820865,0.9305722117424011,0.1182008907198906,0.9809826016426086,-0.028570393100380898,0.9010539054870605,0.8737937808036804,0.0004451283602975309,0.008115032687783241,0.0008560160640627146,1.7396797833885472e-15,-0.001426693401299417,-1.0467817391834671e-15,0.0,0.0,0.0,0.0,0.0,0.0,0.0,0.0,0.0,0.0,0.0,0.0,PD,1
8.8254,0.15,0.2,0.3,0.1508479022098126,0.2003605182625186,0.29765605188628363,-0.0027909311545585153,0.0,0.00854294512147799,0.931057333946228,0.11958914250135422,0.9810382127761841,-0.028570393100380898,0.9008941054344177,0.8737937808036804,0.0037322300486266613,0.01366201601922512,0.0001369625679217279,1.7396797833885472e-15,-3.0134623819692266e-16,-1.0467817391834671e-15,0.0,0.0,0.0,0.0,0.0,0.0,0.0,0.0,0.0,0.0,0.0,0.0,PD,1
8.9254,0.15,0.2,0.3,0.15091600008064424,0.20039980391815165,0.2976430870450365,-0.003546489636413075,0.0,0.008262160183619333,0.9308559894561768,0.11964858323335648,0.9816269278526306,-0.028570393100380898,0.9008142352104187,0.8737937808036804,-0.0034583047963678837,-0.001540828961879015,0.009929786436259747,1.7396797833885472e-15,-0.001426693401299417,-1.0467817391834671e-15,0.0,0.0,0.0,0.0,0.0,0.0,0.0,0.0,0.0,0.0,0.0,0.0,PD,1
9.0254,0.15,0.2,0.3,0.15094994394470373,0.2004818039762563,0.2979106042718649,-0.0034945231267605875,0.0,0.0070453678216444715,0.9311589598655701,0.11918071657419205,0.9818992018699646,-0.028570393100380898,0.9007343649864197,0.8737937808036804,0.00564970588311553,-0.0051360963843762875,-0.003561026882380247,1.7396797833885472e-15,-0.001426693401299417,-1.0467817391834671e-15,0.0,0.0,0.0,0.0,0.0,0.0,0.0,0.0,0.0,0.0,0.0,0.0,PD,1
9.1254,0.15,0.2,0.3,0.1506267776777232,0.2003931203443714,0.2976161934367233,-0.0005778905371285475,0.0,0.00863773380661001,0.9319029450416565,0.1188950166106224,0.9801849722862244,-0.028570393100380898,0.9006544351577759,0.8737937808036804,0.0060605937615036964,-0.0017462727846577764,-0.01510012336075306,1.7396797833885472e-15,-3.0134623819692266e-16,-1.0467817391834671e-15,0.0,0.0,0.0,0.0,0.0,0.0,0.0,0.0,0.0,0.0,0.0,0.0,PD,1
9.2254,0.15,0.2,0.3,0.15044843059108226,0.20043442471449094,0.29747467445285786,0.0,0.0,0.008980158398862903,0.9327254891395569,0.11893527954816818,0.9796154499053955,-0.028570393100380898,0.9005745649337769,0.8737937808036804,0.010888524353504181,-0.00017120320990215987,-0.007601422723382711,1.7396797833885472e-15,-0.001426693401299417,-1.0467817391834671e-15,0.0,0.0,0.0,0.0,0.0,0.0,0.0,0.0,0.0,0.0,0.0,0.0,PD,1
9.3254,0.15,0.2,0.3,0.1501537765180899,0.2004806132634655,0.2973874380286978,0.0,0.0,0.009231203323717602,0.9335346817970276,0.11861123144626617,0.9789865612983704,-0.028570393100380898,0.9005745649337769,0.8737937808036804,0.005101855844259262,-0.001848994754254818,-0.00308165792375803,1.7396797833885472e-15,-3.0134623819692266e-16,-1.0467817391834671e-15,0.0,0.0,0.0,0.0,0.0,0.0,0.0,0.0,0.0,0.0,0.0,0.0,PD,1
9.4254,0.15,0.2,0.3,0.1504875411883811,0.20066230132603619,0.2973483106379646,0.0,-0.0032264949539800303,0.009320040157857201,0.9326526522636414,0.12049802392721176,0.9812261462211609,-0.028570393100380898,0.9005745649337769,0.8737937808036804,-0.01232663169503212,0.016709433868527412,0.02622833289206028,1.7396797833885472e-15,-3.0134623819692266e-16,-1.0467817391834671e-15,0.0,0.0,0.0,0.0,0.0,0.0,0.0,0.0,0.0,0.0,0.0,0.0,PD,1
9.5254,0.15,0.2,0.3,0.1506451363110366,0.20072542140783634,0.29772442068899285,-0.0030459527019056493,-0.0028545753364278836,0.0075884175374967,0.932621955871582,0.11945299804210663,0.9818915128707886,-0.028570393100380898,0.9005745649337769,0.8737937808036804,0.0017805134411901236,-0.017702411860227585,0.0016093101585283875,1.7396797833885472e-15,-3.0134623819692266e-16,-1.0467817391834671e-15,0.0,0.0,0.0,0.0,0.0,0.0,0.0,0.0,0.0,0.0,0.0,0.0,PD,1
9.6254,0.15,0.2,0.3,0.1505152934976707,0.20089617465053602,0.29814863316949475,-0.001154313175018018,-0.003990377490374494,0.006055571426266448,0.9335135817527771,0.11909251660108566,0.9833928942680359,-0.028570393100380898,0.9007343649864197,0.8737937808036804,0.00900528859347105,0.005067615304142237,0.02646801620721817,1.7396797833885472e-15,0.002853386802598834,-1.0467817391834671e-15,0.0,0.0,0.0,0.0,0.0,0.0,0.0,0.0,0.0,0.0,0.0,0.0,PD,1
9.7254,0.15,0.2,0.3,0.1508816414013025,0.20141002054531265,0.29865761643290745,-0.004917484422717763,-0.007504301382477374,0.0041893592214111985,0.9332029819488525,0.12075880169868469,0.9870917201042175,-0.028570393100380898,0.9016931056976318,0.8737937808036804,-0.006129074841737747,0.014963161200284958,0.029583916068077087,1.7396797833885472e-15,0.007133467122912407,-1.0467817391834671e-15,0.0,0.0,0.0,0.0,0.0,0.0,0.0,0.0,0.0,0.0,0.0,0.0,PD,1
9.8254,0.15,0.2,0.3,0.15112216785254648,0.2012417456886161,0.29866234278031795,-0.0051302197401325855,-0.0035047356266736246,0.004677073921476649,0.9320927262306213,0.12078564614057541,0.9869056940078735,-0.028570393100380898,0.9020925760269165,0.8737937808036804,-0.00931345485150814,2.706168622523819e-15,-0.003834951901808381,1.7396797833885472e-15,-3.0134623819692266e-16,-1.0467817391834671e-15,0.0,0.0,0.0,0.0,0.0,0.0,0.0,0.0,0.0,0.0,0.0,0.0,PD,1
9.9255,0.15,0.2,0.3,0.15113040240541176,0.2011389259828149,0.298530069339945,-0.003997581183267554,-0.0034721424108461463,0.0052770307505652925,0.9319776892662048,0.12095630168914795,0.9865970015525818,-0.028570393100380898,0.9024121165275574,0.8737937808036804,-1.5860329632228476e-17,0.002294122939929366,-0.0012669038260355592,1.7396797833885472e-15,0.001426693401299417,-1.0467817391834671e-15,0.0,0.0,0.0,0.0,0.0,0.0,0.0,0.0,0.0,0.0,0.0,0.0,PD,1
10.0254,0.15,0.2,0.3,0.1512689346714065,0.20133944046347824,0.2985860184759351,-0.0051339326798965496,-0.005690614025490426,0.004892986198237137,0.9319815039634705,0.1227663978934288,0.9886659383773804,-0.028570393100380898,0.902731716632843,0.8737937808036804,-0.0005478502716869116,0.029583916068077087,0.02985784038901329,1.7396797833885472e-15,0.001426693401299417,-1.0467817391834671e-15,0.0,0.0,0.0,0.0,0.0,0.0,0.0,0.0,0.0,0.0,0.0,0.0,PD,1
10.1254,0.15,0.2,0.3,0.15137105831230552,0.20160425963439904,0.29815588884370436,-0.005309322297564381,-0.006939004575000629,0.0068845186792654,0.9327331781387329,0.1244499459862709,0.9885528087615967,-0.028570393100380898,0.902731716632843,0.8737937808036804,0.013525053858757019,0.006197556387633085,-0.008799845352768898,1.7396797833885472e-15,-3.0134623819692266e-16,-1.0467817391834671e-15,0.0,0.0,0.0,0.0,0.0,0.0,0.0,0.0,0.0,0.0,0.0,0.0,PD,1
10.2255,0.15,0.2,0.3,0.15076622101137852,0.2015740749618852,0.29817246996002417,0.00034241296481019035,-0.005358339004028975,0.006379774023595575,0.9341674447059631,0.12252863496541977,0.9869651794433594,-0.028570393100380898,0.902731716632843,0.8737937808036804,0.004622486885637045,-0.015237085521221161,-0.005718187429010868,1.7396797833885472e-15,-3.0134623819692266e-16,-1.0467817391834671e-15,0.0,0.0,0.0,0.0,0.0,0.0,0.0,0.0,0.0,0.0,0.0,0.0,PD,1
10.3258,0.15,0.2,0.3,0.15100778881052818,0.20177481999221367,0.29823565349409403,-0.004735099832596942,-0.0072155951243901145,0.00611202923660098,0.9338721632957458,0.12444035708904266,0.9889094829559326,-0.028570393100380898,0.902731716632843,0.8737937808036804,-0.0021914010867476463,0.02852245606482029,0.02622833289206028,1.7396797833885472e-15,-3.0134623819692266e-16,-1.0467817391834671e-15,0.0,0.0,0.0,0.0,0.0,0.0,0.0,0.0,0.0,0.0,0.0,0.0,PD,1
10.4254,0.15,0.2,0.3,0.1510287792457632,0.2018137541523029,0.2978502666281255,-0.0037056795363462486,-0.006542810333506316,0.007909453667529126,0.9338779449462891,0.12517091631889343,0.9876381754875183,-0.028570393100380898,0.9024920463562012,0.8737937808036804,-0.000308165792375803,-0.0010272192303091288,-0.0245505403727293,1.7396797833885472e-15,-0.0042800805531442165,-1.0467817391834671e-15,0.0,0.0,0.0,0.0,0.0,0.0,0.0,0.0,0.0,0.0,0.0,0.0,PD,1
10.5254,0.15,0.2,0.3,0.15095199234346598,0.20156461416534405,0.2976365548387905,-0.002948038690644944,-0.004230449643909839,0.008485769853568331,0.9335883855819702,0.12453431636095047,0.9868692755699158,-0.02876213937997818,0.9020126461982727,0.8737937808036804,-0.0019859573803842068,-0.006129074841737747,0.002739251358434558,-0.0034240642562508583,-0.001426693401299417,-1.0467817391834671e-15,0.0,0.0,0.0,0.0,0.0,0.0,0.0,0.0,0.0,0.0,0.0,0.0,PD,1
10.6254,0.15,0.2,0.3,0.1510537672110178,0.20211435787484794,0.2977730019512559,-0.004197059576321327,-0.010148971109487204,0.00765804605813894,0.9349881410598755,0.12711140513420105,0.9898567199707031,-0.02876213937997818,0.901613175868988,0.8737937808036804,0.01934596337378025,0.03372703120112419,0.029686637222766876,1.7396797833885472e-15,-0.005706773605197668,-1.0467817391834671e-15,0.0,0.0,0.0,0.0,0.0,0.0,0.0,0.0,0.0,0.0,0.0,0.0,PD,1
10.7254,0.15,0.2,0.3,0.15095790331413608,0.20238932468664325,0.2976546602235331,-0.002873342115067762,-0.009737470462227907,0.008327030945356917,0.9355461001396179,0.1267988532781601,0.9894253015518188,-0.02876213937997818,0.9013735055923462,0.8737937808036804,0.0018147540977224708,-0.016503989696502686,-0.01232663169503212,1.7396797833885472e-15,-0.001426693401299417,-1.0467817391834671e-15,0.0,0.0,0.0,0.0,0.0,0.0,0.0,0.0,0.0,0.0,0.0,0.0,PD,1
10.8254,0.15,0.2,0.3,0.15061080553511685,0.202139542025997,0.2978154743781886,-0.000402330477812865,-0.006239483787758099,0.007485025521684285,0.936316967010498,0.12487562000751495,0.9879411458969116,-0.02876213937997818,0.9012137055397034,0.8737937808036804,0.011984225362539291,-0.01123093068599701,-0.004622486885637045,1.7396797833885472e-15,-0.002853386802598834,-1.0467817391834671e-15,0.0,0.0,0.0,0.0,0.0,0.0,0.0,0.0,0.0,0.0,0.0,0.0,PD,1
10.9254,0.15,0.2,0.3,0.15044495411013672,0.20222894200169525,0.29789415475996806,0.0,-0.008248296884424647,0.0072917779583323294,0.9367713928222656,0.1245880052447319,0.9878894090652466,-0.02876213937997818,0.9012137055397034,0.8737937808036804,0.0010957005433738232,-0.0037664705887436867,-0.0007190534961409867,1.7396797833885472e-15,-3.0134623819692266e-16,-1.0467817391834671e-15,0.0,0.0,0.0,0.0,0.0,0.0,0.0,0.0,0.0,0.0,0.0,0.0,PD,1
11.0254,0.15,0.2,0.3,0.1507363458196896,0.20226042195964655,0.2979603351314383,-0.004034168916677891,-0.008068876648519407,0.0070726466684955525,0.935663104057312,0.12543168663978577,0.9890763163566589,-0.02876213937997818,0.9011338353157043,0.8737937808036804,-0.013251128606498241,0.008388957008719444,0.010717321187257767,1.7396797833885472e-15,-0.001426693401299417,-1.0467817391834671e-15,0.0,0.0,0.0,0.0,0.0,0.0,0.0,0.0,0.0,0.0,0.0,0.0,PD,1
11.1255,0.15,0.2,0.2,0.15084244342888833,0.202071839818713,0.29806450454990685,-0.007160769145550888,-0.017610638459060315,-0.22,0.9350245594978333,0.12425627559423447,0.9883265495300293,-0.02876213937997818,0.9011338353157043,0.8737937808036804,-0.004314321093261242,-0.018832353875041008,-0.013422331772744656,1.7396797833885472e-15,-3.0134623819692266e-16,-1.0467817391834671e-15,0.0,0.0,0.0,0.0,0.0,0.0,0.0,0.0,0.0,0.0,0.0,0.0,PD,1
11.2254,0.15,0.2,0.2,0.15094329655806182,0.2018397923720165,0.2979852058448977,-0.0038058035990838485,-0.005279036068575188,-0.22,0.9342403411865234,0.1244480237364769,0.9879948496818542,-0.02876213937997818,0.9011338353157043,0.8737937808036804,-0.005204577464610338,0.006129074841737747,0.0014381069922819734,1.7396797833885472e-15,-3.0134623819692266e-16,-1.0467817391834671e-15,0.0,0.0,0.0,0.0,0.0,0.0,0.0,0.0,0.0,0.0,0.0,0.0,PD,1
11.3255,0.15,0.2,0.2,0.1510622728330127,0.20200024984370119,0.2981473611944114,-0.004312836290298952,-0.007803161811377579,-0.22,0.9342652559280396,0.12455540150403976,0.9890974164009094,-0.02876213937997818,0.9008941054344177,0.8737937808036804,0.0004451283602975309,-0.0019859573803842068,0.008731364272534847,1.7396797833885472e-15,-0.0042800805531442165,-1.0467817391834671e-15,0.0,0.0,0.0,0.0,0.0,0.0,0.0,0.0,0.0,0.0,0.0,0.0,PD,1
11.4254,0.15,0.2,0.2,0.1510938710403787,0.20179511379041554,0.2980112240773233,-0.003986539678155335,-0.005257218000026098,-0.22,0.9333161115646362,0.12426011264324188,0.9875749349594116,-0.02876213937997818,0.9008941054344177,0.8737937808036804,-0.014928920194506645,-0.0032871016301214695,-0.02479022555053234,1.7396797833885472e-15,-3.0134623819692266e-16,-1.0467817391834671e-15,0.0,0.0,0.0,0.0,0.0,0.0,0.0,0.0,0.0,0.0,0.0,0.0,PD,1
11.5254,0.15,0.2,0.2,0.1510809551453932,0.20139866103018167,0.2977015398347732,-0.003718763533948649,-0.0029130498044664666,-0.22,0.9327811002731323,0.12363117933273315,0.986085057258606,-0.02876213937997818,0.9008941054344177,0.8737937808036804,-0.0007875347509980202,-0.00722477538511157,-0.007498700637370348,1.7396797833885472e-15,-3.0134623819692266e-16,-1.0467817391834671e-15,0.0,0.0,0.0,0.0,0.0,0.0,0.0,0.0,0.0,0.0,0.0,0.0,PD,1
11.6254,0.15,0.2,0.2,0.15114199462719097,0.20140803334963914,0.29784593486016425,-0.004302178604157311,-0.0049749783210242815,-0.22,0.932384192943573,0.12333013862371445,0.9864800572395325,-0.02876213937997818,0.9008941054344177,0.8737937808036804,-0.007019331678748131,-0.004759449511766434,0.0020886792335659266,1.7396797833885472e-15,-3.0134623819692266e-16,-1.0467817391834671e-15,0.0,0.0,0.0,0.0,0.0,0.0,0.0,0.0,0.0,0.0,0.0,0.0,PD,1
11.7255,0.15,0.2,0.2,0.15103346981932445,0.20110989175780186,0.29514083302162963,-0.0030745203283029654,-0.0023939131931201008,-0.22,0.9319239854812622,0.12836159765720367,0.9757172465324402,-0.029529130086302757,0.8847553730010986,0.8737937808036804,-0.001369625679217279,0.08073943853378296,-0.13888004422187805,-0.03424064442515373,-0.22541756927967072,-1.0467817391834671e-15,0.0,0.0,0.0,0.0,0.0,0.0,0.0,0.0,0.0,0.0,0.0,0.0,PD,1
11.8254,0.15,0.2,0.2,0.15126133726783947,0.20124823791354135,0.2921468772030229,-0.005554017680013276,-0.005060563476092128,-0.22,0.9316728115081787,0.13360780477523804,0.9742445945739746,-0.029145635664463043,0.8777246475219727,0.8737937808036804,-0.0032871016301214695,0.023660283535718918,0.032460130751132965,1.7431492303405008e-15,-0.009986854158341885,-1.0467817391834671e-15,0.0,0.0,0.0,0.0,0.0,0.0,0.0,0.0,0.0,0.0,0.0,0.0,PD,1
11.9256,0.15,0.2,0.2,0.15147155584663902,0.20160557658158273,0.2912664115068806,-0.006201538357234318,-0.007406211375746458,-0.22,0.9315366744995117,0.13842259347438812,0.9702159762382507,-0.027995148673653603,0.8693356513977051,0.8737937808036804,-3.4240641980431974e-05,0.0744391605257988,-0.09039529412984848,-0.02054438553750515,-0.1583629697561264,-1.0467817391834671e-15,0.0,0.0,0.0,0.0,0.0,0.0,0.0,0.0,0.0,0.0,0.0,0.0,PD,1
12.0254,0.15,0.2,0.2,0.15131435171948762,0.20122678696689156,0.2883497646062949,-0.003814210382449723,-0.002399806310664526,-0.22,0.9314197301864624,0.14006778597831726,0.9639707803726196,-0.029145635664463043,0.8611065149307251,0.8737937808036804,-0.0020886792335659266,-0.006505722180008888,-0.020818309858441353,-0.02054438553750515,-0.008560161106288433,-1.0467817391834671e-15,0.0,0.0,0.0,0.0,0.0,0.0,0.0,0.0,0.0,0.0,0.0,0.0,PD,1
12.1254,0.15,0.2,0.2,0.15146137601956453,0.20131841890301466,0.28709770891224967,-0.005849937568860375,-0.0050726258411668,-0.22,0.9309691190719604,0.1449400931596756,0.9591789841651917,-0.02780340239405632,0.8491222858428955,0.8737937808036804,-0.0022256418596953154,0.08454014360904694,-0.0819036141037941,0.0034240642562508583,-0.2140040099620819,-1.0467817391834671e-15,0.0,0.0,0.0,0.0,0.0,0.0,0.0,0.0,0.0,0.0,0.0,0.0,PD,1
12.2253,0.15,0.2,0.2,0.15135094836285784,0.2013001897350031,0.2843085527451967,-0.004176180986469033,-0.004459518232453039,-0.22,0.9316939115524292,0.14823240041732788,0.9557313919067383,-0.02876213937997818,0.8434497714042664,0.8737937808036804,0.012052706442773342,0.003834951901808381,0.002602288732305169,-0.006848128512501717,-0.007133467122912407,-1.0467817391834671e-15,0.0,0.0,0.0,0.0,0.0,0.0,0.0,0.0,0.0,0.0,0.0,0.0,PD,1
12.3254,0.15,0.2,0.2,0.15121179004900798,0.2016346064866823,0.28336474265361944,-0.003545473602278623,-0.0073932064617839854,-0.22,0.9324167966842651,0.1526406705379486,0.9513077735900879,-0.02761165425181389,0.8335427641868591,0.8737937808036804,0.0034240642562508583,0.07943829149007797,-0.08454014360904694,1.7456274369859301e-15,-0.18832352757453918,-1.0467817391834671e-15,0.0,0.0,0.0,0.0,0.0,0.0,0.0,0.0,0.0,0.0,0.0,0.0,PD,1
12.4254,0.15,0.2,0.2,0.15123369453191982,0.2013076514875496,0.28056712715640497,-0.004427453276278567,-0.0029420052107599626,-0.22,0.931703507900238,0.15505477786064148,0.9467058181762695,-0.02876213937997818,0.826591968536377,0.8737937808036804,-0.0048279305920004845,-0.002739251358434558,-0.012703278101980686,1.7486012637846216e-15,-0.014266934245824814,-1.0467817391834671e-15,0.0,0.0,0.0,0.0,0.0,0.0,0.0,0.0,0.0,0.0,0.0,0.0,PD,1
12.5254,0.15,0.2,0.2,0.1511447312825935,0.20152157309719126,0.2805807246812774,-0.003561743242445764,-0.006395113888377768,-0.22,0.9324167966842651,0.15774115920066833,0.9446828961372375,-0.027228159829974174,0.822037935256958,0.8737937808036804,0.0115390969440341,0.07026179879903793,-0.05899662896990776,0.027392514050006866,-0.11128208786249161,-1.0467817391834671e-15,0.0,0.0,0.0,0.0,0.0,0.0,0.0,0.0,0.0,0.0,0.0,0.0,PD,1
12.6254,0.15,0.2,0.2,0.15105883652477464,0.20141991345637614,0.27653955236951794,-0.0032764540476169363,-0.004461398893240806,-0.22,0.9324167966842651,0.1643008440732956,0.9381845593452454,-0.02895388752222061,0.8098939061164856,0.8737937808036804,-0.0007190534961409867,0.033658552914857864,-0.02235914021730423,-0.010272192768752575,-0.04422749578952789,-1.0467817391834671e-15,0.0,0.0,0.0,0.0,0.0,0.0,0.0,0.0,0.0,0.0,0.0,0.0,PD,1
12.7259,0.15,0.2,0.2,0.15124721524034948,0.2017730471880836,0.27575035343667653,-0.005307146919097394,-0.007971333816829768,-0.22,0.9324302077293396,0.16927286982536316,0.9367752075195312,-0.02780340239405632,0.802543580532074,0.8737937808036804,0.00037664707633666694,0.08289659768342972,-0.041020289063453674,-0.010272192768752575,-0.13125579059123993,-1.0467817391834671e-15,0.0,0.0,0.0,0.0,0.0,0.0,0.0,0.0,0.0,0.0,0.0,0.0,PD,1
12.8254,0.15,0.2,0.2,0.15112917626256744,0.20161884525722262,0.2727864781054349,-0.0033619220300758895,-0.00489494874597432,-0.22,0.9328866004943848,0.173197939991951,0.9317131042480469,-0.029145635664463043,0.794394314289093,0.8737937808036804,0.007704144809395075,0.010272192768752575,-0.02116071619093418,-0.02054438553750515,-0.028533868491649628,-1.0467817391834671e-15,0.0,0.0,0.0,0.0,0.0,0.0,0.0,0.0,0.0,0.0,0.0,0.0,PD,1
12.9254,0.15,0.2,0.2,0.15088475487571573,0.2019028098774397,0.27180686242001373,-0.0018745351307465213,-0.008079657672124235,-0.22,0.9338913559913635,0.17801080644130707,0.9276595711708069,-0.02761165425181389,0.7855259776115417,0.8737937808036804,0.007293256931006908,0.09282638132572174,-0.07847955077886581,1.74067112957419e-15,-0.1669231355190277,-1.0467817391834671e-15,0.0,0.0,0.0,0.0,0.0,0.0,0.0,0.0,0.0,0.0,0.0,0.0,PD,1
13.0254,0.15,0.2,0.2,0.15077987393649475,0.20158124723185394,0.2680114729647709,-0.002205154081626748,-0.00392655208356002,-0.22,0.9334924817085266,0.1832953691482544,0.9215907454490662,-0.02876213937997818,0.774899959564209,0.8737937808036804,-0.004759449511766434,0.01790785603225231,-0.026776183396577835,-0.010272192768752575,-0.049934271723032,-1.0467817391834671e-15,0.0,0.0,0.0,0.0,0.0,0.0,0.0,0.0,0.0,0.0,0.0,0.0,PD,1
13.1254,0.15,0.2,0.2,0.15089104910653578,0.2018159886895834,0.2668887027470234,-0.0036745477230803875,-0.0075296677021890746,-0.22,0.9334752559661865,0.18934692442417145,0.9179858565330505,-0.027228159829974174,0.7641142010688782,0.8737937808036804,0.00047936898772604764,0.11035759001970291,-0.0711178183555603,1.7386885430820229e-15,-0.19260361790657043,-1.0467817391834671e-15,0.0,0.0,0.0,0.0,0.0,0.0,0.0,0.0,0.0,0.0,0.0,0.0,PD,1
13.2254,0.15,0.2,0.2,0.15087072189147274,0.20158568033705201,0.2630332037029186,-0.00294589054483943,-0.004398339417025124,-0.21676071391611026,0.93280029296875,0.19489417970180511,0.9124213457107544,-0.028570393100380898,0.7529289126396179,0.8737937808036804,-0.011196689680218697,0.012258149683475494,-0.02609136886894703,-0.010272192768752575,-0.01997370831668377,-1.0467817391834671e-15,0.0,0.0,0.0,0.0,0.0,0.0,0.0,0.0,0.0,0.0,0.0,0.0,PD,1
13.3254,0.15,0.2,0.2,0.15100549904771876,0.20135972890010828,0.262015842947388,-0.004193132448245776,-0.0036292939656602796,-0.21603808956032736,0.9319469928741455,0.1996840387582779,0.9077484607696533,-0.02761165425181389,0.7439007759094238,0.8737937808036804,-0.0034583047963678837,0.0991266593337059,-0.08159545063972473,0.0034240642562508583,-0.16264304518699646,-1.0467817391834671e-15,0.0,0.0,0.0,0.0,0.0,0.0,0.0,0.0,0.0,0.0,0.0,0.0,PD,1
13.4254,0.15,0.2,0.2,0.1510039589313316,0.20129405891639912,0.2584076781288545,-0.0035061556777247205,-0.004200856288851085,-0.20081870863245727,0.9318108558654785,0.2060462236404419,0.9043315052986145,-0.028570393100380898,0.7340736985206604,0.8737937808036804,-0.0022256418596953154,0.01972261071205139,-0.0039034332148730755,1.7396797833885472e-15,-0.028533868491649628,-1.0467817391834671e-15,0.0,0.0,0.0,0.0,0.0,0.0,0.0,0.0,0.0,0.0,0.0,0.0,PD,1
13.5255,0.15,0.2,0.2,0.15125081528325415,0.20134631916691031,0.25775366315822945,-0.005612135251002376,-0.00497341833674203,-0.20148380608317798,0.9309902191162109,0.21095111966133118,0.90153968334198,-0.027419906109571457,0.7261641621589661,0.8737937808036804,-0.006505722180008888,0.10166046768426895,-0.06450936943292618,0.013696257025003433,-0.15693627297878265,-1.0467817391834671e-15,0.0,0.0,0.0,0.0,0.0,0.0,0.0,0.0,0.0,0.0,0.0,0.0,PD,1
13.6254,0.15,0.2,0.2,0.15105663569743374,0.2010709759002945,0.2539766888805433,-0.002727327011916081,-0.002371699317951559,-0.1851414368042154,0.9311474561691284,0.21727494895458221,0.8967383503913879,-0.02876213937997818,0.7165767550468445,0.8737937808036804,0.0022598823998123407,0.01910627819597721,-0.014757717028260231,-0.013696257025003433,-0.02996056154370308,-1.0467817391834671e-15,0.0,0.0,0.0,0.0,0.0,0.0,0.0,0.0,0.0,0.0,0.0,0.0,PD,1
13.7254,0.15,0.2,0.2,0.15126740217803877,0.20145331008231057,0.25397795879643553,-0.005489740026160872,-0.006998256198167366,-0.18892412570341655,0.9310400485992432,0.22147615253925323,0.8971582651138306,-0.027036411687731743,0.7116232514381409,0.8737937808036804,-0.0019174759509041905,0.09638740867376328,-0.02249610237777233,0.023968450725078583,-0.10700200498104095,-1.0467817391834671e-15,0.0,0.0,0.0,0.0,0.0,0.0,0.0,0.0,0.0,0.0,0.0,0.0,PD,1
13.8254,0.15,0.2,0.2,0.15152992092270862,0.20147578832456284,0.250139609481312,-0.006667316952829391,-0.005277650347231225,-0.17165028386946832,0.9298032522201538,0.23058223724365234,0.8939790725708008,-0.02895388752222061,0.7007575631141663,0.8737937808036804,-0.01838722452521324,0.05146368592977524,-0.012566315941512585,-0.013696257025003433,-0.05421435087919235,-1.0467817391834671e-15,0.0,0.0,0.0,0.0,0.0,0.0,0.0,0.0,0.0,0.0,0.0,0.0,PD,1
13.9254,0.15,0.2,0.2,0.15226627141473537,0.2014494730656316,0.25150626333932735,-0.011613702411707547,-0.004941579435054383,-0.18163857554566107,0.9279471635818481,0.22790735960006714,0.8971754908561707,-0.02761165425181389,0.7038734555244446,0.8737937808036804,-0.008320475928485394,-0.012463593855500221,0.0190720371901989,0.02054438553750515,0.022827094420790672,-1.0467817391834671e-15,0.0,0.0,0.0,0.0,0.0,0.0,0.0,0.0,0.0,0.0,0.0,0.0,PD,1
14.0255,0.15,0.2,0.2,0.15185586584993904,0.20152276866054802,0.2512664357300471,-0.004443502650805051,-0.005696168286500158,-0.1791926974458845,0.9298339486122131,0.2281777262687683,0.8958754539489746,-0.028186896815896034,0.7044327259063721,0.8737937808036804,0.023489080369472504,0.001369625679217279,-0.02054438553750515,1.7401755094209278e-15,0.007133467122912407,-1.0467817391834671e-15,0.0,0.0,0.0,0.0,0.0,0.0,0.0,0.0,0.0,0.0,0.0,0.0,PD,1
14.1254,0.15,0.2,0.2,0.1516317004677183,0.20144121462857104,0.2513045755718761,-0.0045901247259102634,-0.004636481040113646,-0.17960415434339522,0.9300659894943237,0.2273934781551361,0.8956261873245239,-0.028186896815896034,0.7052316665649414,0.8737937808036804,0.0004451283602975309,-0.003355582943186164,0.0039719147607684135,1.7401755094209278e-15,0.007133467122912407,-1.0467817391834671e-15,0.0,0.0,0.0,0.0,0.0,0.0,0.0,0.0,0.0,0.0,0.0,0.0,PD,1
14.2254,0.15,0.2,0.2,0.15188211016699688,0.20175567226835522,0.2514424534451691,-0.007839434080882016,-0.007717141138164185,-0.18018646493138474,0.9300487041473389,0.22885459661483765,0.8977795243263245,-0.028378644958138466,0.7053914666175842,0.8737937808036804,-1.5860329632228476e-17,0.016709433868527412,0.017325764521956444,1.7401755094209278e-15,-3.6478757657817126e-16,-1.0467817391834671e-15,0.0,0.0,0.0,0.0,0.0,0.0,0.0,0.0,0.0,0.0,0.0,0.0,PD,1
14.3258,0.15,0.2,0.2,0.15182640254094307,0.2017308271800896,0.2513822757742612,-0.006113870763031715,-0.005933669688985538,-0.17977778753900628,0.9301676154136658,0.22864174842834473,0.8970374464988708,-0.028378644958138466,0.705551266670227,0.8737937808036804,0.0004108877037651837,-0.0048279305920004845,-0.013730498030781746,1.7401755094209278e-15,0.001426693401299417,-1.0467817391834671e-15,0.0,0.0,0.0,0.0,0.0,0.0,0.0,0.0,0.0,0.0,0.0,0.0,PD,1
14.4254,0.15,0.2,0.2,0.15178147018858199,0.20158357861077356,0.25106567766644033,-0.006010483898231556,-0.004806282291127131,-0.17841327372472027,0.9299624562263489,0.229767307639122,0.8966942429542542,-0.028378644958138466,0.7057110667228699,0.8737937808036804,-0.0013353850226849318,0.017188802361488342,-3.4240641980431974e-05,1.7401755094209278e-15,-3.6478757657817126e-16,-1.0467817391834671e-15,0.0,0.0,0.0,0.0,0.0,0.0,0.0,0.0,0.0,0.0,0.0,0.0,PD,1
14.5254,0.15,0.2,0.2,0.15166536900845856,0.2016739232657305,0.2509858436279468,-0.005248285628987867,-0.0063104547048414145,-0.1783706186593202,0.9306968450546265,0.22924384474754333,0.8966673612594604,-0.028378644958138466,0.7057110667228699,0.8737937808036804,0.008936807513237,-0.015579492785036564,-0.00047936898772604764,1.7401755094209278e-15,-3.6478757657817126e-16,-1.0467817391834671e-15,0.0,0.0,0.0,0.0,0.0,0.0,0.0,0.0,0.0,0.0,0.0,0.0,PD,1
14.6254,0.15,0.2,0.2,0.15150993295305853,0.20157042604669834,0.25117115434918913,-0.004507585058704758,-0.004979005068283332,-0.17928435094340425,0.9308252930641174,0.22832536697387695,0.8957144021987915,-0.028570393100380898,0.7057110667228699,0.8737937808036804,6.848128396086395e-05,-0.0013353850226849318,-0.008731364272534847,1.7401755094209278e-15,-3.6478757657817126e-16,-1.0467817391834671e-15,0.0,0.0,0.0,0.0,0.0,0.0,0.0,0.0,0.0,0.0,0.0,0.0,PD,1
14.7254,0.15,0.2,0.2,0.15152392135452816,0.20150576871120635,0.25078483956669995,-0.005403666748196728,-0.0049469038117622155,-0.1773606237009606,0.9304801225662231,0.22968293726444244,0.8954402208328247,-0.02876213937997818,0.7057110667228699,0.8737937808036804,-0.005957871675491333,0.012121187523007393,-0.003526786109432578,1.7401755094209278e-15,-3.6478757657817126e-16,-1.0467817391834671e-15,0.0,0.0,0.0,0.0,0.0,0.0,0.0,0.0,0.0,0.0,0.0,0.0,PD,1
14.8254,0.15,0.2,0.2,0.1517498691901612,0.2012153360838015,0.25085862419738314,-0.007254281343729421,-0.0028015131562808826,-0.17807896932152414,0.9290727376937866,0.22856505215168,0.8950106501579285,-0.02876213937997818,0.7056311368942261,0.8737937808036804,-0.013456572778522968,-0.015579492785036564,-0.003218620317056775,1.7401755094209278e-15,-0.001426693401299417,-1.0467817391834671e-15,0.0,0.0,0.0,0.0,0.0,0.0,0.0,0.0,0.0,0.0,0.0,0.0,PD,1
14.9254,0.15,0.2,0.2,0.15179655624879113,0.20118004726036864,0.25101990966067556,-0.006521382163918579,-0.003953721294125995,-0.17873096927565682,0.9290880560874939,0.22815854847431183,0.894962728023529,-0.02876213937997818,0.7053914666175842,0.8737937808036804,0.0015750695019960403,-0.00023968449386302382,-6.848128396086395e-05,1.7401755094209278e-15,-3.6478757657817126e-16,-1.0467817391834671e-15,0.0,0.0,0.0,0.0,0.0,0.0,0.0,0.0,0.0,0.0,0.0,0.0,PD,1
15.0254,0.15,0.2,0.2,0.15173483405609908,0.20123827498794553,0.2510168004374343,-0.005763308232886594,-0.004625101095693709,-0.17855569230777874,0.9294063448905945,0.22816047072410583,0.8949608206748962,-0.02876213937997818,0.7052316665649414,0.8737937808036804,0.0023626042529940605,2.684360700505573e-15,-3.4240641980431974e-05,1.7401755094209278e-15,-0.001426693401299417,-1.0467817391834671e-15,0.0,0.0,0.0,0.0,0.0,0.0,0.0,0.0,0.0,0.0,0.0,0.0,PD,1
15.1258,0.15,0.2,0.2,0.1516617755823684,0.20136826118396836,0.25096497828172043,-0.005450922169636024,-0.0054388451240034025,-0.1783256018303076,0.9300314784049988,0.22897347807884216,0.8955533504486084,-0.02876213937997818,0.7052316665649414,0.8737937808036804,0.00715629430487752,0.014278347603976727,0.010374914854764938,1.7401755094209278e-15,-3.6478757657817126e-16,-1.0467817391834671e-15,0.0,0.0,0.0,0.0,0.0,0.0,0.0,0.0,0.0,0.0,0.0,0.0,PD,1
15.2254,0.15,0.2,0.2,0.1517044670154735,0.20149849294585542,0.25091506049788076,-0.0061790917196827,-0.005895884119929251,-0.17815279395874295,0.9299317598342896,0.22902333736419678,0.8958792686462402,-0.02876213937997818,0.7051517963409424,0.8737937808036804,-0.0030131766106933355,-0.005546984262764454,0.000308165792375803,1.7401755094209278e-15,-0.001426693401299417,-1.0467817391834671e-15,0.0,0.0,0.0,0.0,0.0,0.0,0.0,0.0,0.0,0.0,0.0,0.0,PD,1
15.3254,0.15,0.2,0.2,0.15163286350301106,0.20122303579698242,0.25120705740814014,-0.005357004698226531,-0.002903339545073408,-0.17951669783874985,0.929801344871521,0.2268853485584259,0.8942686319351196,-0.02876213937997818,0.7051517963409424,0.8737937808036804,0.003355582943186164,-0.01629854552447796,-0.01838722452521324,1.7401755094209278e-15,-3.6478757657817126e-16,-1.0467817391834671e-15,0.0,0.0,0.0,0.0,0.0,0.0,0.0,0.0,0.0,0.0,0.0,0.0,PD,1
15.4255,0.15,0.2,0.2,0.15123132939650602,0.201430712832335,0.25115636909085276,-0.00230198235524591,-0.006045880089935285,-0.17899660350069724,0.9315443634986877,0.2271576225757599,0.8942398428916931,-0.02876213937997818,0.7049919962882996,0.8737937808036804,0.01516860444098711,0.005820909049361944,0.0020544384606182575,1.7401755094209278e-15,-0.002853386802598834,-1.0467817391834671e-15,0.0,0.0,0.0,0.0,0.0,0.0,0.0,0.0,0.0,0.0,0.0,0.0,PD,1
15.5254,0.15,0.2,0.2,0.15137761605643885,0.20148977137955362,0.25083526269192863,-0.005553089497200112,-0.005509492564530802,-0.17760231302282603,0.9307121634483337,0.22924767434597015,0.8947843909263611,-0.02876213937997818,0.7046723961830139,0.8737937808036804,-0.014518032781779766,0.0245505403727293,0.0013011443661525846,1.7401755094209278e-15,-0.005706773605197668,-1.0467817391834671e-15,0.0,0.0,0.0,0.0,0.0,0.0,0.0,0.0,0.0,0.0,0.0,0.0,PD,1
15.6254,0.15,0.2,0.2,0.15152458849319075,0.20133431658517703,0.2502443094045083,-0.006070921909927196,-0.003892834076236612,-0.17526412962835874,0.9302845597267151,0.23053814470767975,0.8938026428222656,-0.02876213937997818,0.7027549743652344,0.8737937808036804,0.0004451283602975309,0.010648840107023716,-0.010340673848986626,1.7401755094209278e-15,-0.015693627297878265,-1.0467817391834671e-15,0.0,0.0,0.0,0.0,0.0,0.0,0.0,0.0,0.0,0.0,0.0,0.0,PD,1
15.7254,0.15,0.2,0.2,0.15148329155193932,0.20159148717871134,0.25017263904341547,-0.004985035725530468,-0.006856058093161171,-0.17553256629086125,0.9310036301612854,0.23118433356285095,0.8950873613357544,-0.02876213937997818,0.7021957039833069,0.8737937808036804,0.004759449511766434,0.0012669038260355592,0.02174280770123005,1.7401755094209278e-15,-0.007133467122912407,-1.0467817391834671e-15,0.0,0.0,0.0,0.0,0.0,0.0,0.0,0.0,0.0,0.0,0.0,0.0,PD,1
15.8254,0.15,0.2,0.2,0.1515657480526372,0.2017044433324916,0.2506425113689733,-0.005892400687719623,-0.0065303324326218826,-0.17771866211696438,0.9309077262878418,0.22971361875534058,0.8951966762542725,-0.02876213937997818,0.7021957039833069,0.8737937808036804,-0.0017120321281254292,-0.01657247170805931,-0.0025680481921881437,1.7401755094209278e-15,-3.6478757657817126e-16,-1.0467817391834671e-15,0.0,0.0,0.0,0.0,0.0,0.0,0.0,0.0,0.0,0.0,0.0,0.0,PD,1
15.9258,0.15,0.2,0.2,0.15157693982056103,0.20157837150856375,0.2504007178834415,-0.00557524821158277,-0.004893941160333856,-0.17616071910651332,0.9306354522705078,0.2309427261352539,0.8951161503791809,-0.02876213937997818,0.7024353742599487,0.8737937808036804,-0.0011984225129708648,0.022085214033722878,0.006813887972384691,1.7401755094209278e-15,0.0042800805531442165,-1.0467817391834671e-15,0.0,0.0,0.0,0.0,0.0,0.0,0.0,0.0,0.0,0.0,0.0,0.0,PD,1
16.0254,0.15,0.2,0.2,0.15192116790580235,0.20202948333879156,0.2504433537415976,-0.008445228096514809,-0.009358750836909457,-0.17659437395374766,0.9306393265724182,0.23297333717346191,0.8983087539672852,-0.02876213937997818,0.7025951743125916,0.8737937808036804,0.00037664707633666694,0.014586513862013817,0.03167259320616722,1.7401755094209278e-15,0.002853386802598834,-1.0467817391834671e-15,0.0,0.0,0.0,0.0,0.0,0.0,0.0,0.0,0.0,0.0,0.0,0.0,PD,1
16.1254,0.15,0.2,0.2,0.15185229878630918,0.20232118073208186,0.25051326781501704,-0.0061387001546163306,-0.009582619528737943,-0.17686635142597903,0.9318166375160217,0.23339709639549255,0.8989511132240295,-0.02876213937997818,0.7028348445892334,0.8737937808036804,0.014894679188728333,0.0006848128396086395,0.0014038663357496262,1.7401755094209278e-15,-3.6478757657817126e-16,-1.0467817391834671e-15,0.0,0.0,0.0,0.0,0.0,0.0,0.0,0.0,0.0,0.0,0.0,0.0,PD,1
16.2254,0.15,0.2,0.2,0.1516117890514589,0.20213127105749834,0.25066570303607777,-0.004438713005854675,-0.006509900328326573,-0.17748239584733289,0.9316555857658386,0.23109421133995056,0.8970048427581787,-0.02876213937997818,0.7030745148658752,0.8737937808036804,-0.005238818470388651,-0.029515434056520462,-0.02633105404675007,1.7401755094209278e-15,0.002853386802598834,-1.0467817391834671e-15,0.0,0.0,0.0,0.0,0.0,0.0,0.0,0.0,0.0,0.0,0.0,0.0,PD,1
16.3254,0.15,0.2,0.2,0.15156803244323905,0.20180925451081766,0.2506684726024047,-0.00526933051023748,-0.004722308054458363,-0.1773424236747434,0.9312452077865601,0.23041541874408722,0.8960441946983337,-0.02876213937997818,0.703154444694519,0.8737937808036804,3.4240641980431974e-05,-0.0014381069922819734,-0.003218620317056775,1.7401755094209278e-15,0.001426693401299417,-1.0467817391834671e-15,0.0,0.0,0.0,0.0,0.0,0.0,0.0,0.0,0.0,0.0,0.0,0.0,PD,1
16.4255,0.15,0.2,0.2,0.15146961632391004,0.20207189008977633,0.25066518119504594,-0.004651576537040111,-0.008564793209010463,-0.17732484277530197,0.9322212338447571,0.23146235942840576,0.8974458575248718,-0.02876213937997818,0.7032343149185181,0.8737937808036804,0.009381935931742191,0.014723476022481918,0.02297547087073326,1.7401755094209278e-15,0.001426693401299417,-1.0467817391834671e-15,0.0,0.0,0.0,0.0,0.0,0.0,0.0,0.0,0.0,0.0,0.0,0.0,PD,1
16.5254,0.15,0.2,0.2,0.15176787326708657,0.20231236183763807,0.2506780894807264,-0.007678841150685692,-0.009295625171041877,-0.1773862214682228,0.9314887523651123,0.23264352977275848,0.8988015055656433,-0.02876213937997818,0.7032343149185181,0.8737937808036804,-0.012258149683475494,0.005410021636635065,0.00308165792375803,1.7401755094209278e-15,-3.6478757657817126e-16,-1.0467817391834671e-15,0.0,0.0,0.0,0.0,0.0,0.0,0.0,0.0,0.0,0.0,0.0,0.0,PD,1
16.6255,0.15,0.2,0.2,0.1517400838611892,0.20198157159969965,0.2506179242956283,-0.0059513464846753655,-0.005281549409256653,-0.17710256984960088,0.931084156036377,0.23127061128616333,0.8971543908119202,-0.02876213937997818,0.7033141851425171,0.8737937808036804,-0.0002739251358434558,-0.019756849855184555,-0.01872963085770607,1.7401755094209278e-15,-3.6478757657817126e-16,-1.0467817391834671e-15,0.0,0.0,0.0,0.0,0.0,0.0,0.0,0.0,0.0,0.0,0.0,0.0,PD,1
16.7254,0.15,0.2,0.2,0.1516994678359791,0.20192617810025537,0.25090300255292647,-0.00574505729987633,-0.006464655853672369,-0.17844558719254078,0.9310822486877441,0.2302524298429489,0.8970221281051636,-0.02876213937997818,0.7033941149711609,0.8737937808036804,-1.5860329632228476e-17,-0.005992112681269646,-0.000924497377127409,1.7401755094209278e-15,0.001426693401299417,-1.0467817391834671e-15,0.0,0.0,0.0,0.0,0.0,0.0,0.0,0.0,0.0,0.0,0.0,0.0,PD,1
16.8254,0.15,0.2,0.2,0.15153801159361435,0.20179573301854342,0.2506943811308347,-0.004575759365826534,-0.005632840156342189,-0.17722171253582963,0.9313277006149292,0.23055540025234222,0.8960058689117432,-0.02876213937997818,0.7033941149711609,0.8737937808036804,0.003561026882380247,0.005718187429010868,-0.009518899023532867,1.7401755094209278e-15,-3.6478757657817126e-16,-1.0467817391834671e-15,0.0,0.0,0.0,0.0,0.0,0.0,0.0,0.0,0.0,0.0,0.0,0.0,PD,1
16.9254,0.15,0.2,0.2,0.15164995683373414,0.20196329944142177,0.25042820658424525,-0.006334575118668445,-0.007709380159367923,-0.1762325484982689,0.9313277006149292,0.23215456306934357,0.8970949649810791,-0.02876213937997818,0.7033941149711609,0.8737937808036804,-1.5860329632228476e-17,0.006779647432267666,0.008594401180744171,1.7401755094209278e-15,-3.6478757657817126e-16,-1.0467817391834671e-15,0.0,0.0,0.0,0.0,0.0,0.0,0.0,0.0,0.0,0.0,0.0,0.0,PD,1
17.0254,0.15,0.2,0.2,0.15128558044649523,0.20177560762615937,0.25065877197808806,-0.0026776496265387972,-0.0052761676152457415,-0.17753626731715097,0.9321004152297974,0.22927643358707428,0.8948822021484375,-0.028378644958138466,0.7033941149711609,0.8737937808036804,0.009518899023532867,-0.03502817824482918,-0.029412712901830673,0.006848128512501717,-3.6478757657817126e-16,-1.0467817391834671e-15,0.0,0.0,0.0,0.0,0.0,0.0,0.0,0.0,0.0,0.0,0.0,0.0,PD,1
17.1254,0.15,0.2,0.2,0.15130348254536036,0.20184756816619592,0.25073137614963925,-0.0046516994030868924,-0.006826291281868457,-0.17763242069528853,0.9321157336235046,0.2300664335489273,0.8959348797798157,-0.028570393100380898,0.7033941149711609,0.8737937808036804,-0.00017120320990215987,0.01510012336075306,0.01838722452521324,1.74067112957419e-15,-3.6478757657817126e-16,-1.0467817391834671e-15,0.0,0.0,0.0,0.0,0.0,0.0,0.0,0.0,0.0,0.0,0.0,0.0,PD,1
17.2254,0.15,0.2,0.2,0.15140727393703632,0.20194334540227488,0.2506594053936572,-0.005444415738006941,-0.007280595088356795,-0.1772359481218182,0.9319642782211304,0.23060524463653564,0.8962206244468689,-0.028570393100380898,0.7034739851951599,0.8737937808036804,-0.001848994754254818,0.00047936898772604764,-0.0002739251358434558,1.74067112957419e-15,-3.6478757657817126e-16,-1.0467817391834671e-15,0.0,0.0,0.0,0.0,0.0,0.0,0.0,0.0,0.0,0.0,0.0,0.0,PD,1
17.3254,0.15,0.2,0.2,0.15147626233800124,0.2018803848233831,0.25054275952094296,-0.005511860187828954,-0.006266543987381995,-0.17678301245058606,0.9316555857658386,0.23137608170509338,0.896186113357544,-0.028570393100380898,0.7034739851951599,0.8737937808036804,-0.000616331584751606,0.012771760113537312,0.00023968449386302382,1.74067112957419e-15,-3.6478757657817126e-16,-1.0467817391834671e-15,0.0,0.0,0.0,0.0,0.0,0.0,0.0,0.0,0.0,0.0,0.0,0.0,PD,1
17.4254,0.15,0.2,0.2,0.15128917063541025,0.20204977686156003,0.2501198606025384,-0.0035766387109809755,-0.008021179206344695,-0.1749966131904797,0.9330821633338928,0.23282185196876526,0.8962340354919434,-0.028570393100380898,0.7034739851951599,0.8737937808036804,0.01944868452847004,0.010614599101245403,0.00017120320990215987,1.74067112957419e-15,-3.6478757657817126e-16,-1.0467817391834671e-15,0.0,0.0,0.0,0.0,0.0,0.0,0.0,0.0,0.0,0.0,0.0,0.0,PD,1
17.5254,0.15,0.2,0.2,0.15095419134443516,0.20232044900257332,0.2501511216131809,-0.001664773250647636,-0.009474932214072987,-0.17556018665677575,0.9343956112861633,0.2326032519340515,0.8967421650886536,-0.028570393100380898,0.7034739851951599,0.8737937808036804,0.006539962720125914,-0.003937673754990101,0.009073770605027676,1.74067112957419e-15,-3.6478757657817126e-16,-1.0467817391834671e-15,0.0,0.0,0.0,0.0,0.0,0.0,0.0,0.0,0.0,0.0,0.0,0.0,PD,1
17.6254,0.15,0.2,0.2,0.15117317155852777,0.20252280887063487,0.25062351172748043,-0.005201001525310292,-0.009841630387529762,-0.17765468116048097,0.9340006113052368,0.23194365203380585,0.8979367613792419,-0.028570393100380898,0.7035539150238037,0.8737937808036804,-0.006574203260242939,-0.007464460097253323,0.005786668509244919,1.74067112957419e-15,0.001426693401299417,-1.0467817391834671e-15,0.0,0.0,0.0,0.0,0.0,0.0,0.0,0.0,0.0,0.0,0.0,0.0,PD,1
17.7254,0.15,0.2,0.2,0.15122590935784672,0.20243276442805325,0.2508486908867587,-0.004554371749058234,-0.008064453285278217,-0.1781955972629337,0.9337494373321533,0.23108461499214172,0.8977488279342651,-0.028570393100380898,0.7035539150238037,0.8737937808036804,-0.0008902567205950618,-0.005718187429010868,-0.0019174759509041905,1.74067112957419e-15,-3.6478757657817126e-16,-1.0467817391834671e-15,0.0,0.0,0.0,0.0,0.0,0.0,0.0,0.0,0.0,0.0,0.0,0.0,PD,1
17.8254,0.15,0.2,0.2,0.1510248551418354,0.20250779796940804,0.2507795783483264,-0.002581721916367255,-0.009152460599702095,-0.17765941168071017,0.9350303411483765,0.2312629371881485,0.8972963094711304,-0.028570393100380898,0.7036337852478027,0.8737937808036804,0.021229198202490807,0.0031843797769397497,-0.007498700637370348,1.74067112957419e-15,0.001426693401299417,-1.0467817391834671e-15,0.0,0.0,0.0,0.0,0.0,0.0,0.0,0.0,0.0,0.0,0.0,0.0,PD,1
17.9254,0.15,0.2,0.2,0.15070939787403964,0.20262965039724945,0.25041702479537314,-0.0009056062201600185,-0.00981303852958007,-0.17609703323085268,0.9356381297111511,0.23234055936336517,0.8970336318016052,-0.028570393100380898,0.7037935853004456,0.8737937808036804,-0.0031843797769397497,0.010135230608284473,0.0004451283602975309,1.74067112957419e-15,-3.6478757657817126e-16,-1.0467817391834671e-15,0.0,0.0,0.0,0.0,0.0,0.0,0.0,0.0,0.0,0.0,0.0,0.0,PD,1
18.0255,0.15,0.2,0.2,0.1510800586584628,0.20259032961457912,0.2503407394544498,-0.005633509226735625,-0.008869549737675259,-0.17611630274965087,0.9345720410346985,0.23365595936775208,0.8980939984321594,-0.028570393100380898,0.7037935853004456,0.8737937808036804,-0.006574203260242939,0.015750695019960403,0.00972434226423502,1.74067112957419e-15,-3.6478757657817126e-16,-1.0467817391834671e-15,0.0,0.0,0.0,0.0,0.0,0.0,0.0,0.0,0.0,0.0,0.0,0.0,PD,1
18.1254,0.15,0.2,0.2,0.15093373685278827,0.20276584069064243,0.2499350313751245,-0.002536469956386303,-0.010557997797565041,-0.17436690173361039,0.9358222484588623,0.23505379259586334,0.8978370428085327,-0.028570393100380898,0.7037935853004456,0.8737937808036804,0.01691487804055214,0.00564970588311553,-0.007122053764760494,1.74067112957419e-15,-3.6478757657817126e-16,-1.0467817391834671e-15,0.0,0.0,0.0,0.0,0.0,0.0,0.0,0.0,0.0,0.0,0.0,0.0,PD,1
18.2254,0.15,0.2,0.2,0.15041030103394432,0.20266914315676993,0.2496749138367709,0.0,-0.008858513379332161,-0.1736020808903445,0.9371491074562073,0.2343539148569107,0.8959866762161255,-0.028570393100380898,0.7037935853004456,0.8737937808036804,0.012052706442773342,-0.007567182183265686,-0.013935941271483898,1.74067112957419e-15,-3.6478757657817126e-16,-1.0467817391834671e-15,0.0,0.0,0.0,0.0,0.0,0.0,0.0,0.0,0.0,0.0,0.0,0.0,PD,1
18.3254,0.15,0.2,0.2,0.1501904193794686,0.20279158201403394,0.24959561950416417,0.0,-0.010382731335438808,-0.17350537393196785,0.9379544854164124,0.2347469925880432,0.8959521651268005,-0.028570393100380898,0.7037935853004456,0.8737937808036804,0.004896411672234535,0.006676925346255302,-2.347328620133692e-15,1.74067112957419e-15,-3.6478757657817126e-16,-1.0467817391834671e-15,0.0,0.0,0.0,0.0,0.0,0.0,0.0,0.0,0.0,0.0,0.0,0.0,PD,1
18.4254,0.15,0.2,0.2,0.15016536433191507,0.20278001799327994,0.24734775734889985,0.0,-0.009672242872709735,-0.16346928856588513,0.9378528594970703,0.242629736661911,0.8911028504371643,-0.028570393100380898,0.6914098858833313,0.8737937808036804,-0.0020544384606182575,0.10395459085702896,-0.07060420513153076,1.74067112957419e-15,-0.1640697419643402,-1.0467817391834671e-15,0.0,0.0,0.0,0.0,0.0,0.0,0.0,0.0,0.0,0.0,0.0,0.0,PD,1
18.5254,0.15,0.2,0.2,0.1499983302294134,0.20252053600506004,0.24510393839820904,0.0,-0.007524466076610586,-0.1556199654430408,0.9376630187034607,0.2453007847070694,0.8881422877311707,-0.02876213937997818,0.6858971118927002,0.8737937808036804,-0.0027050108183175325,-0.004040395841002464,-0.009861305356025696,-0.0034240642562508583,-0.008560161106288433,-1.0467817391834671e-15,0.0,0.0,0.0,0.0,0.0,0.0,0.0,0.0,0.0,0.0,0.0,0.0,PD,1
18.6254,0.15,0.2,0.2,0.1503336729211123,0.20245888820448463,0.24421426487502318,0.0,-0.008297869712819109,-0.15386025353939523,0.9362038373947144,0.2506697177886963,0.8861020803451538,-0.028186896815896034,0.6771885752677917,0.8737937808036804,-0.017257284373044968,0.09412752836942673,-0.03639780357480049,0.006848128512501717,-0.1555095911026001,-1.0467817391834671e-15,0.0,0.0,0.0,0.0,0.0,0.0,0.0,0.0,0.0,0.0,0.0,0.0,PD,1
18.7254,0.15,0.2,0.2,0.15041393069790057,0.20231828083462955,0.24188912929047504,0.0,-0.007410946071927993,-0.14428681693211445,0.9358644485473633,0.2547251880168915,0.8840024471282959,-0.028378644958138466,0.6715959906578064,0.8737937808036804,-0.00034240641980431974,0.005855150055140257,-0.006608443800359964,1.7416623698807143e-15,-0.007133467122912407,-1.0467817391834671e-15,0.0,0.0,0.0,0.0,0.0,0.0,0.0,0.0,0.0,0.0,0.0,0.0,PD,1
18.8254,0.15,0.2,0.2,0.15040460733089223,0.20231261654949506,0.24126199661016723,0.0,-0.008065836497560236,-0.14378985545527745,0.9358644485473633,0.2585102915763855,0.8819776177406311,-0.028378644958138466,0.6650446057319641,0.8737937808036804,-1.5860329632228476e-17,0.07070692628622055,-0.035473305732011795,1.7416623698807143e-15,-0.11698886007070541,-1.0467817391834671e-15,0.0,0.0,0.0,0.0,0.0,0.0,0.0,0.0,0.0,0.0,0.0,0.0,PD,1
18.9254,0.15,0.2,0.2,0.15048788187619416,0.2024478688624269,0.23886566131719317,0.0,-0.009243802583153396,-0.133633479317202,0.9358126521110535,0.264293372631073,0.8810763955116272,-0.028378644958138466,0.6584932208061218,0.8737937808036804,-0.000924497377127409,0.025920165702700615,0.004382802173495293,1.7416623698807143e-15,-0.012840241193771362,-1.0467817391834671e-15,0.0,0.0,0.0,0.0,0.0,0.0,0.0,0.0,0.0,0.0,0.0,0.0,PD,1
19.0254,0.15,0.2,0.2,0.15069533191843149,0.20241382264832403,0.23838492415302437,-0.003470911925696832,-0.008278148198619634,-0.13386649737141645,0.9349229335784912,0.26716193556785583,0.8794887065887451,-0.028378644958138466,0.6540191173553467,0.8737937808036804,-0.01123093068599701,0.051292482763528824,-0.035336341708898544,1.7416623698807143e-15,-0.07989483326673508,-1.0467817391834671e-15,0.0,0.0,0.0,0.0,0.0,0.0,0.0,0.0,0.0,0.0,0.0,0.0,PD,1
19.1254,0.15,0.2,0.2,0.15064344968333515,0.20222116767924145,0.23648490120581703,-0.0019926627161913762,-0.006810812031932137,-0.1257971312731522,0.9347733855247498,0.2706153094768524,0.8770554065704346,-0.028378644958138466,0.6476275324821472,0.8737937808036804,-6.848128396086395e-05,0.01201846543699503,-0.008971048519015312,1.7416623698807143e-15,-0.02140040136873722,-1.0467817391834671e-15,0.0,0.0,0.0,0.0,0.0,0.0,0.0,0.0,0.0,0.0,0.0,0.0,PD,1
19.2254,0.15,0.2,0.2,0.15065739999084768,0.20226069213459924,0.23621457979577865,-0.0023706515055295363,-0.008110044747886264,-0.12648070787518684,0.9348194003105164,0.27313870191574097,0.8763958215713501,-0.028378644958138466,0.6445915102958679,0.8737937808036804,0.000308165792375803,0.05139520391821861,-0.015921898186206818,1.7416623698807143e-15,-0.05421435087919235,-1.0467817391834671e-15,0.0,0.0,0.0,0.0,0.0,0.0,0.0,0.0,0.0,0.0,0.0,0.0,PD,1
19.3254,0.15,0.2,0.2,0.15042752843238097,0.2019590913132961,0.2338841520440275,0.0,-0.005348815490020531,-0.11626410440234501,0.9347254633903503,0.2774741053581238,0.8720470070838928,-0.028378644958138466,0.6374808549880981,0.8737937808036804,-0.001677791471593082,0.02126343920826912,-0.036911413073539734,1.7416623698807143e-15,-0.03994741663336754,-1.0467817391834671e-15,0.0,0.0,0.0,0.0,0.0,0.0,0.0,0.0,0.0,0.0,0.0,0.0,PD,1
19.4254,0.15,0.2,0.2,0.15036773546797624,0.20180984441598934,0.2328433076709841,0.0,-0.005588220969428917,-0.11391073247540093,0.9345873594284058,0.280701220035553,0.8695542812347412,-0.028378644958138466,0.630609929561615,0.8737937808036804,-0.0011641818564385176,0.05786668509244919,-0.029583916068077087,1.7416623698807143e-15,-0.1084287017583847,-1.0467817391834671e-15,0.0,0.0,0.0,0.0,0.0,0.0,0.0,0.0,0.0,0.0,0.0,0.0,PD,1
19.5254,0.15,0.2,0.2,0.150337286249619,0.20178006661855194,0.231321751403336,0.0,-0.006081344177744738,-0.10810457364402784,0.9346276521682739,0.28463396430015564,0.8688217997550964,-0.028378644958138466,0.627174437046051,0.8737937808036804,0.0007190534961409867,0.01811330020427704,-0.0011984225129708648,1.7416623698807143e-15,-0.009986854158341885,-1.0467817391834671e-15,0.0,0.0,0.0,0.0,0.0,0.0,0.0,0.0,0.0,0.0,0.0,0.0,PD,1
19.6254,0.15,0.2,0.2,0.15033979778823747,0.2019105919195577,0.23074582399681953,0.0,-0.007339698223480781,-0.10703445658235186,0.9348769187927246,0.28827333450317383,0.8676272034645081,-0.028186896815896034,0.6215019226074219,0.8737937808036804,0.00034240641980431974,0.06563930958509445,-0.023249397054314613,0.0034240642562508583,-0.09701515734195709,-1.0467817391834671e-15,0.0,0.0,0.0,0.0,0.0,0.0,0.0,0.0,0.0,0.0,0.0,0.0,PD,1
19.7254,0.15,0.2,0.2,0.15021217660915726,0.20170916130490998,0.22861456715177247,0.0,-0.004974911493946285,-0.09801972818615656,0.9347177743911743,0.2924131751060486,0.8653396368026733,-0.028186896815896034,0.6163087487220764,0.8737937808036804,-0.001848994754254818,0.014038663357496262,-0.011333652772009373,1.7416623698807143e-15,-0.017120322212576866,-1.0467817391834671e-15,0.0,0.0,0.0,0.0,0.0,0.0,0.0,0.0,0.0,0.0,0.0,0.0,PD,1
19.8254,0.15,0.2,0.2,0.1502559643703446,0.2017645220009594,0.22828724446920926,0.0,-0.006452630483604949,-0.09867803295966913,0.9347158670425415,0.2952011823654175,0.8646992444992065,-0.028186896815896034,0.6131928563117981,0.8737937808036804,-1.5860329632228476e-17,0.05666826292872429,-0.011504855938255787,1.7416623698807143e-15,-0.055641043931245804,-1.0467817391834671e-15,0.0,0.0,0.0,0.0,0.0,0.0,0.0,0.0,0.0,0.0,0.0,0.0,PD,1
19.9259,0.15,0.2,0.2,0.1504016602452465,0.2017864722809783,0.22643808361784828,0.0,-0.006362404383518427,-0.09068413181110799,0.934033215045929,0.3001597821712494,0.8642332553863525,-0.028186896815896034,0.6078398823738098,0.8737937808036804,-0.009587380103766918,0.02297547087073326,-0.0019517166074365377,1.7416623698807143e-15,-0.02140040136873722,-1.0467817391834671e-15,0.0,0.0,0.0,0.0,0.0,0.0,0.0,0.0,0.0,0.0,0.0,0.0,PD,1
20.0254,0.15,0.2,0.2,0.150383006959009,0.20145485419676668,0.22609219692141413,0.0,-0.0034338992676252456,-0.09097680252851528,0.933488667011261,0.3010629117488861,0.8612803816795349,-0.028186896815896034,0.6040049195289612,0.8737937808036804,-0.004006155300885439,0.030302967876195908,-0.045985184609889984,1.7416623698807143e-15,-0.06848128885030746,-1.0467817391834671e-15,0.0,0.0,0.0,0.0,0.0,0.0,0.0,0.0,0.0,0.0,0.0,0.0,PD,1
20.1254,0.15,0.2,0.2,0.15025575635266125,0.2013736862649183,0.22437058621086747,0.0,-0.004402062267972184,-0.08357544102748946,0.9337705373764038,0.3053465485572815,0.8602257370948792,-0.028186896815896034,0.5996107459068298,0.8737937808036804,0.00386919267475605,0.023968450725078583,-0.0011984225129708648,1.7416623698807143e-15,-0.028533868491649628,-1.0467817391834671e-15,0.0,0.0,0.0,0.0,0.0,0.0,0.0,0.0,0.0,0.0,0.0,0.0,PD,1
20.2254,0.15,0.2,0.2,0.15032920398788313,0.20149265511921097,0.22403006064060899,0.0,-0.0058191371887016535,-0.08376468667187292,0.9336727261543274,0.30816906690597534,0.8602219223976135,-0.028186896815896034,0.5968943238258362,0.8737937808036804,-0.002773492131382227,0.05139520391821861,-0.006608443800359964,1.7416623698807143e-15,-0.047080881893634796,-1.0467817391834671e-15,0.0,0.0,0.0,0.0,0.0,0.0,0.0,0.0,0.0,0.0,0.0,0.0,PD,1
20.3254,0.15,0.2,0.2,0.150104330753575,0.20116519442805136,0.22229827155074827,0.0,-0.002440877042381717,-0.0763121613377582,0.9336612224578857,0.31075191497802734,0.8566017150878906,-0.028186896815896034,0.5919408202171326,0.8737937808036804,0.00010272192594129592,0.0005136096151545644,-0.03711685538291931,1.7416623698807143e-15,-0.017120322212576866,-1.0467817391834671e-15,0.0,0.0,0.0,0.0,0.0,0.0,0.0,0.0,0.0,0.0,0.0,0.0,PD,1
20.4254,0.15,0.2,0.2,0.1497736545402641,0.20072429223236296,0.22198829107465812,0.0,-0.00033051183482830926,-0.07664903828521322,0.9335960745811462,0.3107883334159851,0.8533803820610046,-0.028186896815896034,0.5884254574775696,0.8737937808036804,-0.0014038663357496262,0.024002689868211746,-0.03252860903739929,1.7416623698807143e-15,-0.05992112308740616,-1.0467817391834671e-15,0.0,0.0,0.0,0.0,0.0,0.0,0.0,0.0,0.0,0.0,0.0,0.0,PD,1
20.5254,0.15,0.2,0.2,0.1498111745238641,0.20070136542393913,0.22057020280084275,0.0,-0.0023401449416677322,-0.0705776215291342,0.9334483742713928,0.3146328926086426,0.8527054190635681,-0.028186896815896034,0.5839513540267944,0.8737937808036804,-0.0007190534961409867,0.02249610237777233,-0.002122919773682952,1.7416623698807143e-15,-0.027107175439596176,-1.0467817391834671e-15,0.0,0.0,0.0,0.0,0.0,0.0,0.0,0.0,0.0,0.0,0.0,0.0,PD,1
20.6254,0.15,0.2,0.2,0.149802841230894,0.20073426795501625,0.22044587553632253,0.0,-0.002734450497942492,-0.07143623711260859,0.933590292930603,0.31611892580986023,0.8525347709655762,-0.028186896815896034,0.5821936726570129,0.8737937808036804,0.0018832352943718433,0.03314494341611862,-0.003047417150810361,1.7416623698807143e-15,-0.03138725459575653,-1.0467817391834671e-15,0.0,0.0,0.0,0.0,0.0,0.0,0.0,0.0,0.0,0.0,0.0,0.0,PD,1
20.7255,0.15,0.2,0.2,0.14975004717875656,0.20068851156426928,0.2190616276448745,0.0,-0.002181008521207603,-0.06533144886561267,0.9335346817970276,0.3196106553077698,0.8512692451477051,-0.028378644958138466,0.5780391097068787,0.8737937808036804,-0.0013353850226849318,0.021708566695451736,-0.008012310601770878,-0.0034240642562508583,-0.027107175439596176,-1.0467817391834671e-15,0.0,0.0,0.0,0.0,0.0,0.0,0.0,0.0,0.0,0.0,0.0,0.0,PD,1
20.8255,0.15,0.2,0.2,0.1499429088086337,0.20089948612575187,0.21940494928109996,0.0,-0.0042030742475444305,-0.0682606441200753,0.9334867596626282,0.3190852701663971,0.8530735373497009,-0.028378644958138466,0.5779592394828796,0.8737937808036804,-3.4240641980431974e-05,-0.0030131766106933355,0.027974605560302734,1.7416623698807143e-15,-4.59949531210485e-16,-1.0467817391834671e-15,0.0,0.0,0.0,0.0,0.0,0.0,0.0,0.0,0.0,0.0,0.0,0.0,PD,1
20.9254,0.15,0.2,0.2,0.14992798729815296,0.20109859888886117,0.21958528981607886,0.0,-0.004840659926560548,-0.06872885489125487,0.9343956112861633,0.31895869970321655,0.8531541228294373,-0.028378644958138466,0.5785983800888062,0.8737937808036804,0.014209866523742676,-0.0018832352943718433,-0.004554005339741707,1.7416623698807143e-15,0.005706773605197668,-1.0467817391834671e-15,0.0,0.0,0.0,0.0,0.0,0.0,0.0,0.0,0.0,0.0,0.0,0.0,PD,1
21.0254,0.15,0.2,0.2,0.14949922660476184,0.2010193260483311,0.2195493079900342,0.0038965103502891646,-0.00317127696650836,-0.06838659613907497,0.9352009892463684,0.31792134046554565,0.851882815361023,-0.028378644958138466,0.5792375206947327,0.8737937808036804,0.0016093101585283875,-0.010922765359282494,-0.00695085059851408,1.7416623698807143e-15,0.005706773605197668,-1.0467817391834671e-15,0.0,0.0,0.0,0.0,0.0,0.0,0.0,0.0,0.0,0.0,0.0,0.0,PD,1
21.1254,0.15,0.2,0.3,0.14959042630547664,0.20090711225231858,0.21960159090352788,0.0,-0.007710454144707848,0.22,0.9345624446868896,0.3178715109825134,0.851832926273346,-0.028378644958138466,0.5795571208000183,0.8737937808036804,-0.007395979017019272,2.6645352591003757e-15,-0.0008217754075303674,1.7416623698807143e-15,0.001426693401299417,-1.0467817391834671e-15,0.0,0.0,0.0,0.0,0.0,0.0,0.0,0.0,0.0,0.0,0.0,0.0,PD,1
21.2254,0.15,0.2,0.3,0.1495050638903119,0.20072645100975034,0.21966811231165806,0.0,-0.0016392723212849403,0.22,0.9345452189445496,0.3165043294429779,0.8509182929992676,-0.02876213937997818,0.579876720905304,0.8737937808036804,-1.5860329632228476e-17,-0.02016773819923401,-0.006471481639891863,-0.006848128512501717,0.002853386802598834,-1.0467817391834671e-15,0.0,0.0,0.0,0.0,0.0,0.0,0.0,0.0,0.0,0.0,0.0,0.0,PD,1
21.3254,0.15,0.2,0.3,0.14963145900928654,0.20088177277162295,0.21996058592537251,0.0,-0.003862813510043306,0.22,0.9344934225082397,0.3167574405670166,0.8522260189056396,-0.02876213937997818,0.580036461353302,0.8737937808036804,-0.0008902567205950618,0.008388957008719444,0.019756849855184555,1.7416623698807143e-15,0.001426693401299417,-1.0467817391834671e-15,0.0,0.0,0.0,0.0,0.0,0.0,0.0,0.0,0.0,0.0,0.0,0.0,PD,1
21.4254,0.15,0.2,0.3,0.14968459154518254,0.20094278410954888,0.2197302104135662,0.0,-0.003604801073050737,0.22,0.9344896078109741,0.31773534417152405,0.8521819114685059,-0.02876213937997818,0.5801962614059448,0.8737937808036804,0.00010272192594129592,2.6645352591003757e-15,-0.006094834301620722,1.7416623698807143e-15,0.001426693401299417,-1.0467817391834671e-15,0.0,0.0,0.0,0.0,0.0,0.0,0.0,0.0,0.0,0.0,0.0,0.0,PD,1
21.5254,0.15,0.2,0.3,0.14939293741362836,0.20056798181325577,0.21975383011635558,0.003582989710071663,-0.00011392486492962928,0.22,0.9345317482948303,0.31563571095466614,0.849953830242157,-0.02895388752222061,0.5802761912345886,0.8737937808036804,0.0001369625679217279,-0.021331921219825745,-0.015339807607233524,-0.0034240642562508583,0.001426693401299417,-1.0467817391834671e-15,0.0,0.0,0.0,0.0,0.0,0.0,0.0,0.0,0.0,0.0,0.0,0.0,PD,1
21.6254,0.15,0.2,0.3,0.14938744408674098,0.20055031969325982,0.21996135827323485,0.002171412330843406,-0.0018378083264295186,0.22,0.9345912337303162,0.31462714076042175,0.8497735857963562,-0.02895388752222061,0.5802761912345886,0.8737937808036804,0.001061459886841476,-0.014072904363274574,-0.0025338076520711184,1.7416623698807143e-15,-4.59949531210485e-16,-1.0467817391834671e-15,0.0,0.0,0.0,0.0,0.0,0.0,0.0,0.0,0.0,0.0,0.0,0.0,PD,1
21.7254,0.15,0.2,0.3,0.1489819858332526,0.20046064813808334,0.2198808510552173,0.00559034085105789,0.0,0.22,0.9358950853347778,0.31409406661987305,0.8482012748718262,-0.02895388752222061,0.5803560614585876,0.8737937808036804,0.014620753936469555,-0.0028077326714992523,-0.014346829615533352,1.7416623698807143e-15,-4.59949531210485e-16,-1.0467817391834671e-15,0.0,0.0,0.0,0.0,0.0,0.0,0.0,0.0,0.0,0.0,0.0,0.0,PD,1
21.8254,0.15,0.2,0.3,0.14874565301293266,0.2004521984535768,0.21976005497082435,0.0055718785563353135,0.0,0.22,0.9363706111907959,0.31402119994163513,0.8472693562507629,-0.02895388752222061,0.5803560614585876,0.8737937808036804,0.0016435508150607347,-0.0013011443661525846,-0.014518032781779766,1.7416623698807143e-15,-4.59949531210485e-16,-1.0467817391834671e-15,0.0,0.0,0.0,0.0,0.0,0.0,0.0,0.0,0.0,0.0,0.0,0.0,PD,1
21.9254,0.15,0.2,0.3,0.14858137008231495,0.20018944209039458,0.21967089119375152,0.005786619364986201,0.0,0.22,0.9362268447875977,0.3131851851940155,0.8460843563079834,-0.02895388752222061,0.5803560614585876,0.8737937808036804,-0.0023626042529940605,-0.008662882260978222,-0.007909588515758514,1.7416623698807143e-15,-4.59949531210485e-16,-1.0467817391834671e-15,0.0,0.0,0.0,0.0,0.0,0.0,0.0,0.0,0.0,0.0,0.0,0.0,PD,1
22.0254,0.15,0.2,0.3,0.14859920204249014,0.20017012748991908,0.21969465411122713,0.004813633050408578,0.0,0.22,0.9362248778343201,0.31316983699798584,0.8460843563079834,-0.02895388752222061,0.5803560614585876,0.8737937808036804,0.0009587379754520953,0.00023968449386302382,-2.347328620133692e-15,1.7416623698807143e-15,-4.59949531210485e-16,-1.0467817391834671e-15,0.0,0.0,0.0,0.0,0.0,0.0,0.0,0.0,0.0,0.0,0.0,0.0,PD,1
22.1254,0.15,0.2,0.3,0.14841404565859756,0.2003121029580341,0.21973385307507806,0.0064766221143714026,0.0,0.22,0.9371452927589417,0.31294357776641846,0.8460843563079834,-0.02895388752222061,0.5803560614585876,0.8737937808036804,0.008697123266756535,-0.0039034332148730755,-2.347328620133692e-15,1.7416623698807143e-15,-4.59949531210485e-16,-1.0467817391834671e-15,0.0,0.0,0.0,0.0,0.0,0.0,0.0,0.0,0.0,0.0,0.0,0.0,PD,1
22.2254,0.15,0.2,0.3,0.14860262911706906,0.2001844576781377,0.2197341171791093,0.003947880797900746,0.0,0.22,0.9355403780937195,0.3131410777568817,0.8461399674415588,-0.02895388752222061,0.5803560614585876,0.8737937808036804,-0.026502257212996483,0.003561026882380247,0.0005136096151545644,1.7416623698807143e-15,-4.59949531210485e-16,-1.0467817391834671e-15,0.0,0.0,0.0,0.0,0.0,0.0,0.0,0.0,0.0,0.0,0.0,0.0,PD,1
22.3255,0.15,0.2,0.3,0.14902502407646728,0.20004502225690696,0.2197907645519987,0.0013004409353733898,0.0,0.22,0.9345126152038574,0.3133194148540497,0.8468494415283203,-0.02895388752222061,0.5803560614585876,0.8737937808036804,-0.0022256418596953154,0.00017120320990215987,0.007978069595992565,1.7416623698807143e-15,-4.59949531210485e-16,-1.0467817391834671e-15,0.0,0.0,0.0,0.0,0.0,0.0,0.0,0.0,0.0,0.0,0.0,0.0,PD,1
22.4254,0.15,0.2,0.3,0.14875952800354783,0.200260420223222,0.2199024725988346,0.005669132352179834,0.0,0.22,0.9362958669662476,0.31287455558776855,0.8468398451805115,-0.02895388752222061,0.5803560614585876,0.8737937808036804,0.02246186137199402,-0.0037322300486266613,-0.0001369625679217279,1.7416623698807143e-15,-4.59949531210485e-16,-1.0467817391834671e-15,0.0,0.0,0.0,0.0,0.0,0.0,0.0,0.0,0.0,0.0,0.0,0.0,PD,1
22.5254,0.15,0.2,0.3,0.14869168299567276,0.20047072195109517,0.21989649056070198,0.00491833455452069,0.0,0.22,0.9365681409835815,0.3134344518184662,0.8475167155265808,-0.02895388752222061,0.5804359316825867,0.8737937808036804,-0.000308165792375803,0.006505722180008888,0.008046550676226616,1.7416623698807143e-15,-4.59949531210485e-16,-1.0467817391834671e-15,0.0,0.0,0.0,0.0,0.0,0.0,0.0,0.0,0.0,0.0,0.0,0.0,PD,1
22.6254,0.15,0.2,0.3,0.14854279793265113,0.20017613708947424,0.21986600814379623,0.00584463255082919,0.0,0.22,0.9363418817520142,0.31206730008125305,0.8457181453704834,-0.02876213937997818,0.5804359316825867,0.8737937808036804,-0.0008560160640627146,-0.01510012336075306,-0.015237085521221161,1.7416623698807143e-15,-4.59949531210485e-16,-1.0467817391834671e-15,0.0,0.0,0.0,0.0,0.0,0.0,0.0,0.0,0.0,0.0,0.0,0.0,PD,1
22.7254,0.15,0.2,0.3,0.1487010172083546,0.2004161497387068,0.2200675070079788,0.0037553433922414975,0.0,0.22,0.9365374445915222,0.31264638900756836,0.847601056098938,-0.028570393100380898,0.5804359316825867,0.8737937808036804,0.0034583047963678837,0.009655861184000969,0.027152828872203827,0.0034240642562508583,-4.59949531210485e-16,-1.0467817391834671e-15,0.0,0.0,0.0,0.0,0.0,0.0,0.0,0.0,0.0,0.0,0.0,0.0,PD,1
22.8254,0.15,0.2,0.3,0.14861146304738085,0.2005809368937573,0.22014979586923028,0.00530765013903578,-0.0028572149034030297,0.22,0.9370551705360413,0.31222838163375854,0.8472214341163635,-0.028570393100380898,0.5804359316825867,0.8737937808036804,0.0015750695019960403,-0.007635663263499737,-0.009895545430481434,1.7416623698807143e-15,-4.59949531210485e-16,-1.0467817391834671e-15,0.0,0.0,0.0,0.0,0.0,0.0,0.0,0.0,0.0,0.0,0.0,0.0,PD,1
22.9254,0.15,0.2,0.3,0.1484110087077843,0.2003081463283673,0.22031348559041522,0.006563741220737787,0.0,0.22,0.937091588973999,0.31015366315841675,0.8456452488899231,-0.028570393100380898,0.5804359316825867,0.8737937808036804,0.0006505721830762923,-0.021126477047801018,-0.012052706442773342,1.7416623698807143e-15,-4.59949531210485e-16,-1.0467817391834671e-15,0.0,0.0,0.0,0.0,0.0,0.0,0.0,0.0,0.0,0.0,0.0,0.0,PD,1
23.0254,0.15,0.2,0.3,0.1483050608188852,0.20029712497157998,0.22038229708032953,0.006462026578397229,0.0,0.22,0.937371551990509,0.3098717927932739,0.8453921675682068,-0.028570393100380898,0.5804359316825867,0.8737937808036804,0.000616331584751606,-0.0009929786901921034,-0.0014038663357496262,1.7416623698807143e-15,-4.59949531210485e-16,-1.0467817391834671e-15,0.0,0.0,0.0,0.0,0.0,0.0,0.0,0.0,0.0,0.0,0.0,0.0,PD,1
23.1254,0.15,0.2,0.3,0.1482922936350987,0.20027409278086755,0.22039705569376963,0.006040808196087127,0.0,0.22,0.9373581409454346,0.30973565578460693,0.8452694416046143,-0.028570393100380898,0.5804359316825867,0.8737937808036804,-6.848128396086395e-05,-0.0013011443661525846,-0.0007875347509980202,1.7416623698807143e-15,-4.59949531210485e-16,-1.0467817391834671e-15,0.0,0.0,0.0,0.0,0.0,0.0,0.0,0.0,0.0,0.0,0.0,0.0,PD,1
23.2254,0.15,0.2,0.3,0.1484184868376744,0.2003918185552186,0.22028701095019607,0.0049043300552611,0.0,0.22,0.9369669556617737,0.31125813722610474,0.8466500043869019,-0.028570393100380898,0.5804359316825867,0.8737937808036804,-0.006985091138631105,0.019174760207533836,0.020886791869997978,1.7416623698807143e-15,-4.59949531210485e-16,-1.0467817391834671e-15,0.0,0.0,0.0,0.0,0.0,0.0,0.0,0.0,0.0,0.0,0.0,0.0,PD,1
23.3254,0.15,0.2,0.3,0.14878624379984656,0.20042918614199218,0.22027387064970522,0.002409361889676151,0.0,0.22,0.9359986186027527,0.3118889629840851,0.8476049304008484,-0.028570393100380898,0.5804359316825867,0.8737937808036804,-0.007430219557136297,0.001540828961879015,0.005581224802881479,1.7416623698807143e-15,-4.59949531210485e-16,-1.0467817391834671e-15,0.0,0.0,0.0,0.0,0.0,0.0,0.0,0.0,0.0,0.0,0.0,0.0,PD,1
23.4254,0.15,0.2,0.3,0.14910842954285983,0.20060568282716884,0.22047791302900102,0.0015095678849242622,-0.003002373320974222,0.22,0.9354751706123352,0.31250640749931335,0.8495818376541138,-0.028570393100380898,0.5804359316825867,0.8737937808036804,-0.003389823716133833,0.009587380103766918,0.0242766160517931,1.7416623698807143e-15,-4.59949531210485e-16,-1.0467817391834671e-15,0.0,0.0,0.0,0.0,0.0,0.0,0.0,0.0,0.0,0.0,0.0,0.0,PD,1
23.5254,0.15,0.2,0.3,0.1491045170675179,0.20081940576782942,0.2205224733801142,0.0031537526403969673,-0.003936534890705806,0.22,0.9363763928413391,0.3126080334186554,0.8495741486549377,-0.028570393100380898,0.5804359316825867,0.8737937808036804,0.015339807607233524,-0.0022598823998123407,-0.006985091138631105,1.7416623698807143e-15,-4.59949531210485e-16,-1.0467817391834671e-15,0.0,0.0,0.0,0.0,0.0,0.0,0.0,0.0,0.0,0.0,0.0,0.0,PD,1
23.6254,0.15,0.2,0.3,0.14863839763252285,0.2006669081960428,0.22043793072398576,0.007096205461145297,-0.0015716908272166569,0.22,0.9371740818023682,0.3114824593067169,0.8479059338569641,-0.028570393100380898,0.5804359316825867,0.8737937808036804,0.0028762139845639467,-0.007430219557136297,-0.005855150055140257,1.7416623698807143e-15,-4.59949531210485e-16,-1.0467817391834671e-15,0.0,0.0,0.0,0.0,0.0,0.0,0.0,0.0,0.0,0.0,0.0,0.0,PD,1
23.7254,0.15,0.2,0.3,0.14887833193869507,0.20085990085987537,0.22070405347589372,0.0027261666837061216,-0.003974616328726643,0.22,0.936725378036499,0.31154000759124756,0.8496067523956299,-0.028570393100380898,0.5804359316825867,0.8737937808036804,-0.007190534844994545,0.001061459886841476,0.02379724569618702,1.7416623698807143e-15,-4.59949531210485e-16,-1.0467817391834671e-15,0.0,0.0,0.0,0.0,0.0,0.0,0.0,0.0,0.0,0.0,0.0,0.0,PD,1
23.8254,0.15,0.2,0.3,0.1490715814178258,0.20084505202945824,0.22094622591529234,0.002283217641955937,-0.002883437951018114,0.22,0.9359564781188965,0.3105390667915344,0.8496412634849548,-0.028570393100380898,0.5804359316825867,0.8737937808036804,-0.009758583270013332,-0.015031642280519009,-0.0015065883053466678,1.7416623698807143e-15,-4.59949531210485e-16,-1.0467817391834671e-15,0.0,0.0,0.0,0.0,0.0,0.0,0.0,0.0,0.0,0.0,0.0,0.0,PD,1
