Jose05M/robotics_control_challenge/PD_CTC_Controller_csv/PD_sin_perturbaciones.csv
time,x_d,y_d,z_d,x,y,z,vx_cmd,vy_cmd,vz_cmd,q1,q2,q3,q4,q5,q6,qd1,qd2,qd3,qd4,qd5,qd6,qref1,qref2,qref3,qref4,qref5,qref6,cmd1,cmd2,cmd3,cmd4,cmd5,cmd6,mode,perturbation
1.6007,0.15,0.2,0.3,0.2281437391634214,0.21937754215168115,0.30081783993367994,-0.22,-0.16470910828928967,-0.003680279701559791,0.7703996896743774,0.4201400876045227,1.3643723726272583,-0.028570393100380898,0.9531453251838684,0.7846311926841736,4.758098525709073e-16,2.307677949081534e-15,-1.6811949112377164e-15,1.7317496491781157e-15,2.0618427032971916e-16,0.0,0.0,0.0,0.0,0.0,0.0,0.0,0.0,0.0,0.0,0.0,0.0,0.0,PD,1
1.7007,0.15,0.2,0.3,0.22783684868097387,0.21909490953073002,0.3008091716061832,-0.22,-0.06541902025279939,-0.002823432294144501,0.7704342007637024,0.4183184802532196,1.3618816137313843,-0.028570393100380898,0.9531453251838684,0.7846311926841736,0.000616331584751606,-0.03252860903739929,-0.04447859525680542,1.7317496491781157e-15,2.0618427032971916e-16,0.0,0.0,0.0,0.0,0.0,0.0,0.0,0.0,0.0,0.0,0.0,0.0,0.0,PD,1
1.8007,0.15,0.2,0.3,0.2216013949194258,0.21512497509752881,0.3008987086212569,-0.21942761341024988,-0.033087740675344784,-0.0032350171894728608,0.7753275632858276,0.38302159309387207,1.3152351379394531,-0.029145635664463043,0.9418801665306091,0.7873156666755676,0.07286408543586731,-0.42252951860427856,-0.5488089919090271,-0.027392514050006866,-0.14837612211704254,0.047936901450157166,0.0,0.0,0.0,0.0,0.0,0.0,0.0,0.0,0.0,0.0,0.0,0.0,PD,1
1.9007,0.15,0.2,0.3,0.21501477708580266,0.21361670274988304,0.3007030741198815,-0.19461863063219367,-0.0401170978863617,-0.002265124918209932,0.7871143221855164,0.3558030128479004,1.2787781953811646,-0.030104372650384903,0.9335711002349854,0.7995874881744385,0.11867807060480118,-0.19845876097679138,-0.2680699825286865,-0.02054438553750515,-0.07561475038528442,0.1232663169503212,0.0,0.0,0.0,0.0,0.0,0.0,0.0,0.0,0.0,0.0,0.0,0.0,PD,1
2.0007,0.15,0.2,0.3,0.20951756400216553,0.2130991730849141,0.30057386256484353,-0.18082540858939375,-0.043259457472354684,-0.0018793074219144168,0.798640251159668,0.33555254340171814,1.2521079778671265,-0.028570393100380898,0.926939845085144,0.8095583319664001,0.11244627088308334,-0.2229408174753189,-0.2797802984714508,1.729767168565067e-15,-0.07133467495441437,0.09929786622524261,0.0,0.0,0.0,0.0,0.0,0.0,0.0,0.0,0.0,0.0,0.0,0.0,PD,1
2.1007,0.15,0.2,0.3,0.2040588931570136,0.21171567730733787,0.30055664961897205,-0.16191277182378783,-0.03408739168780131,-0.0019310607205307306,0.8086398839950562,0.3130413889884949,1.223365068435669,-0.028570393100380898,0.9221461415290833,0.8174200057983398,0.09217581152915955,-0.2143806666135788,-0.26601555943489075,1.729767168565067e-15,-0.047080881893634796,0.07190535217523575,0.0,0.0,0.0,0.0,0.0,0.0,0.0,0.0,0.0,0.0,0.0,0.0,PD,1
2.2007,0.15,0.2,0.3,0.19934098616138538,0.21062929264673708,0.30053889796872435,-0.14910391658670777,-0.03177060096057577,-0.0018683912402875646,0.8178035020828247,0.2938205897808075,1.199131965637207,-0.028570393100380898,0.9173524975776672,0.8250899314880371,0.09625044465065002,-0.19469229876995087,-0.23663708567619324,1.729767168565067e-15,-0.03994741663336754,0.07190535217523575,0.0,0.0,0.0,0.0,0.0,0.0,0.0,0.0,0.0,0.0,0.0,0.0,PD,1
2.3007,0.15,0.2,0.3,0.19488360839675753,0.20967413137236202,0.3004358453992148,-0.13480574056551214,-0.029083653431391715,0.0,0.8268693089485168,0.27638307213783264,1.1770273447036743,-0.028570393100380898,0.9135974049568176,0.8323763012886047,0.08731363713741302,-0.1591847538948059,-0.20335517823696136,1.729767168565067e-15,-0.037094030529260635,0.06848128885030746,0.0,0.0,0.0,0.0,0.0,0.0,0.0,0.0,0.0,0.0,0.0,0.0,PD,1
2.4007,0.15,0.2,0.3,0.1910312227744635,0.208814530939455,0.3004127160065023,-0.12434735159915208,-0.026552856123557483,0.0,0.8348172903060913,0.26115062832832336,1.1582072973251343,-0.028570393100380898,0.9106413125991821,0.8392792344093323,0.08094488084316254,-0.15240509808063507,-0.1910627782344818,1.729767168565067e-15,-0.02996056154370308,0.07532941550016403,0.0,0.0,0.0,0.0,0.0,0.0,0.0,0.0,0.0,0.0,0.0,0.0,PD,1
2.5007,0.15,0.2,0.3,0.1872531589666705,0.207947650019069,0.30045939626146234,-0.11149573734438178,-0.02348237046481147,0.0,0.8427383899688721,0.24634580314159393,1.1403919458389282,-0.028570393100380898,0.9090434312820435,0.8440729379653931,0.07704144716262817,-0.13696257770061493,-0.16842971742153168,1.729767168565067e-15,-0.011413547210395336,0.0410887710750103,0.0,0.0,0.0,0.0,0.0,0.0,0.0,0.0,0.0,0.0,0.0,0.0,PD,1
2.6007,0.15,0.2,0.3,0.18404021384595037,0.20721976837458966,0.30055255587304497,-0.10307602285722571,-0.02162978108866706,-0.0020271051672400564,0.8496374487876892,0.23352748155593872,1.125343680381775,-0.028570393100380898,0.9072058200836182,0.8496336340904236,0.07224775850772858,-0.1288817822933197,-0.1536720097064972,1.729767168565067e-15,-0.017120322212576866,0.05136096477508545,0.0,0.0,0.0,0.0,0.0,0.0,0.0,0.0,0.0,0.0,0.0,0.0,PD,1
2.7008,0.15,0.2,0.3,0.18102964419883233,0.20653530272545878,0.3005265527017713,-0.09355090646032295,-0.019451231293451277,-0.0018169312849259656,0.8562220335006714,0.2221127450466156,1.1115819215774536,-0.028570393100380898,0.9064867496490479,0.8530850410461426,0.06488601863384247,-0.11090543866157532,-0.13501085340976715,1.729767168565067e-15,-0.007133467122912407,0.03424064442515373,0.0,0.0,0.0,0.0,0.0,0.0,0.0,0.0,0.0,0.0,0.0,0.0,PD,1
2.8007,0.15,0.2,0.3,0.17839397437449497,0.2059456176399362,0.3005257166051747,-0.08620056118904565,-0.017861236312163867,-0.0018391720215148177,0.8621068000793457,0.2119903862476349,1.0995670557022095,-0.028570393100380898,0.9054481387138367,0.8571117520332336,0.06046897545456886,-0.10042780637741089,-0.12011617422103882,1.729767168565067e-15,-0.008560161106288433,0.0410887710750103,0.0,0.0,0.0,0.0,0.0,0.0,0.0,0.0,0.0,0.0,0.0,0.0,PD,1
2.9007,0.15,0.2,0.3,0.17579865741047243,0.2053701085099207,0.30050862085647423,-0.07731871611654081,-0.015917834134644954,-0.0017630772489593827,0.8680068850517273,0.20216141641139984,1.0879106521606445,-0.028570393100380898,0.9046491980552673,0.8597962260246277,0.05841453745961189,-0.0920388475060463,-0.11028911173343658,1.729767168565067e-15,-0.008560161106288433,0.013696257025003433,0.0,0.0,0.0,0.0,0.0,0.0,0.0,0.0,0.0,0.0,0.0,0.0,PD,1
3.0008,0.15,0.2,0.3,0.17343273713498253,0.2047943416672277,0.30046843301806697,-0.07018497859498936,-0.01390136162183192,0.0,0.8733470439910889,0.19328925013542175,1.0773472785949707,-0.028570393100380898,0.9045692682266235,0.8638229370117188,0.054305657744407654,-0.0877930074930191,-0.10412579774856567,1.729767168565067e-15,-0.001426693401299417,0.0308165792375803,0.0,0.0,0.0,0.0,0.0,0.0,0.0,0.0,0.0,0.0,0.0,0.0,PD,1
3.1007,0.15,0.2,0.3,0.17119509677265807,0.20431235613010534,0.30039914590437344,-0.06299463689268095,-0.01268331876975684,0.0,0.8786162734031677,0.184957817196846,1.0673553943634033,-0.028570393100380898,0.9036105871200562,0.8653569221496582,0.05060767009854317,-0.07871923595666885,-0.09347695112228394,1.729767168565067e-15,-0.005706773605197668,0.02054438553750515,0.0,0.0,0.0,0.0,0.0,0.0,0.0,0.0,0.0,0.0,0.0,0.0,PD,1
3.2007,0.15,0.2,0.3,0.16939908251871832,0.20389892327014247,0.30044319730727176,-0.05891671754581544,-0.011579067145684269,0.0,0.882836639881134,0.17810668051242828,1.059618353843689,-0.028570393100380898,0.9035306572914124,0.8678496479988098,0.043108969926834106,-0.06875520944595337,-0.0780344232916832,1.729767168565067e-15,2.0618427032971916e-16,0.02054438553750515,0.0,0.0,0.0,0.0,0.0,0.0,0.0,0.0,0.0,0.0,0.0,0.0,PD,1
3.3007,0.15,0.2,0.3,0.167498646622948,0.20347283446741218,0.3004991101848675,-0.051743083701466394,-0.010024476622291154,0.0,0.8873810172080994,0.17090080678462982,1.0515649318695068,-0.028570393100380898,0.9035306572914124,0.8691918849945068,0.04208175092935562,-0.06974818557500839,-0.07348041981458664,1.729767168565067e-15,2.0618427032971916e-16,0.010272192768752575,0.0,0.0,0.0,0.0,0.0,0.0,0.0,0.0,0.0,0.0,0.0,0.0,PD,1
3.4007,0.15,0.2,0.3,0.1660373127725645,0.20314981163559964,0.3004512883280995,-0.04882392545205831,-0.009409226565536,0.0,0.8909226059913635,0.16563540697097778,1.0453215837478638,-0.028570393100380898,0.9035306572914124,0.8709176182746887,0.035747230052948,-0.050710391253232956,-0.06235221028327942,1.729767168565067e-15,2.0618427032971916e-16,0.027392514050006866,0.0,0.0,0.0,0.0,0.0,0.0,0.0,0.0,0.0,0.0,0.0,0.0,PD,1
3.5007,0.15,0.2,0.3,0.16453289487812306,0.20280383219468484,0.30052886521522076,-0.0433430426012235,-0.0080835154768229,-0.0019286051403940019,0.8945696353912354,0.15981395542621613,1.0390150547027588,-0.028570393100380898,0.9035306572914124,0.8711093664169312,0.033521588891744614,-0.05423717945814133,-0.057832445949316025,1.729767168565067e-15,2.0618427032971916e-16,0.0034240642562508583,0.0,0.0,0.0,0.0,0.0,0.0,0.0,0.0,0.0,0.0,0.0,0.0,PD,1
3.6007,0.15,0.2,0.3,0.1633017931268058,0.2025497916292645,0.30051444286585155,-0.04040076718723393,-0.007654067875324078,-0.0017861276811112492,0.8976491093635559,0.15537691116333008,1.0339069366455078,-0.028570393100380898,0.9035306572914124,0.8716846108436584,0.0321519635617733,-0.04252687841653824,-0.05235394090414047,1.729767168565067e-15,2.0618427032971916e-16,0.010272192768752575,0.0,0.0,0.0,0.0,0.0,0.0,0.0,0.0,0.0,0.0,0.0,0.0,PD,1
3.7007,0.15,0.2,0.3,0.1620393723685822,0.2022450734105017,0.30048330897429193,-0.03582569949891984,-0.006334165842941983,0.0,0.9007611870765686,0.15071745216846466,1.0284900665283203,-0.02876213937997818,0.9035306572914124,0.8716846108436584,0.02794036455452442,-0.043211691081523895,-0.049957096576690674,-0.0034240642562508583,2.0618427032971916e-16,0.0,0.0,0.0,0.0,0.0,0.0,0.0,0.0,0.0,0.0,0.0,0.0,0.0,PD,1
3.8007,0.15,0.2,0.3,0.1610110426060891,0.20205281354035226,0.30050807142709896,-0.033397000308846236,-0.00622354804048561,-0.001803012447653407,0.9034188389778137,0.14698411524295807,1.0243809223175049,-0.02876213937997818,0.9035306572914124,0.8716846108436584,0.028453974053263664,-0.03923977538943291,-0.04149965941905975,1.729767168565067e-15,2.0618427032971916e-16,0.0,0.0,0.0,0.0,0.0,0.0,0.0,0.0,0.0,0.0,0.0,0.0,0.0,PD,1
3.9008,0.15,0.2,0.3,0.15998522273296362,0.2018144993979888,0.3004797380087049,-0.029819180199745318,-0.005159177181143365,0.0,0.905974805355072,0.14324504137039185,1.0200453996658325,-0.02876213937997818,0.9035306572914124,0.8718763589859009,0.02273578755557537,-0.0348227322101593,-0.04132845625281334,1.729767168565067e-15,2.0618427032971916e-16,0.0,0.0,0.0,0.0,0.0,0.0,0.0,0.0,0.0,0.0,0.0,0.0,0.0,PD,1
4.0008,0.15,0.2,0.3,0.15913586648888856,0.20162907226665178,0.3004515220147823,-0.027728751490734657,-0.004774617276596116,0.0,0.9081319570541382,0.14020776748657227,1.0165096521377563,-0.02876213937997818,0.9035306572914124,0.8718763589859009,0.022633064538240433,-0.030474171042442322,-0.03591843321919441,1.729767168565067e-15,2.0618427032971916e-16,0.0,0.0,0.0,0.0,0.0,0.0,0.0,0.0,0.0,0.0,0.0,0.0,0.0,PD,1
4.1007,0.15,0.2,0.3,0.15826086652542132,0.20148679665571334,0.3004692574194351,-0.024538033021638442,-0.004492410240304473,0.0,0.9104827642440796,0.1371244639158249,1.013131022453308,-0.02876213937997818,0.9035306572914124,0.8718763589859009,0.02068134769797325,-0.030542653053998947,-0.030919300392270088,1.729767168565067e-15,2.0618427032971916e-16,0.0,0.0,0.0,0.0,0.0,0.0,0.0,0.0,0.0,0.0,0.0,0.0,0.0,PD,1
4.2007,0.15,0.2,0.3,0.15759221681448682,0.20132355484651182,0.3004961080302814,-0.02322951029603139,-0.003816232916783735,0.0,0.9121567606925964,0.13453203439712524,1.0103487968444824,-0.02876213937997818,0.9035306572914124,0.8718763589859009,0.016367027536034584,-0.025954406708478928,-0.027255551889538765,1.729767168565067e-15,2.0618427032971916e-16,0.0,0.0,0.0,0.0,0.0,0.0,0.0,0.0,0.0,0.0,0.0,0.0,0.0,PD,1
4.3008,0.15,0.2,0.3,0.15685254354528175,0.201182979483808,0.3004826813701147,-0.02028553606246078,-0.0034375513798089036,0.0,0.9141125679016113,0.13193577527999878,1.0073920488357544,-0.02876213937997818,0.9035306572914124,0.8718763589859009,0.018935075029730797,-0.025166872888803482,-0.027015866711735725,1.729767168565067e-15,2.0618427032971916e-16,0.0,0.0,0.0,0.0,0.0,0.0,0.0,0.0,0.0,0.0,0.0,0.0,0.0,PD,1
4.4008,0.15,0.2,0.3,0.15626875120738062,0.20107425704487733,0.3004562885253769,-0.019021667536326586,-0.0032162874624172416,0.0,0.9156676530838013,0.12994159758090973,1.0050545930862427,-0.02876213937997818,0.9035306572914124,0.8718763589859009,0.015750695019960403,-0.020373182371258736,-0.0232151560485363,1.729767168565067e-15,2.0618427032971916e-16,0.0,0.0,0.0,0.0,0.0,0.0,0.0,0.0,0.0,0.0,0.0,0.0,0.0,PD,1
4.5007,0.15,0.2,0.3,0.15571266136338538,0.20096014010026,0.30049132376986404,-0.017213865551872626,-0.002789905627823344,0.0,0.9171287417411804,0.12783046066761017,1.002859115600586,-0.02876213937997818,0.9035306572914124,0.8716846108436584,0.014038663357496262,-0.020612867549061775,-0.021366160362958908,1.729767168565067e-15,2.0618427032971916e-16,-0.0034240642562508583,0.0,0.0,0.0,0.0,0.0,0.0,0.0,0.0,0.0,0.0,0.0,0.0,PD,1
4.6007,0.15,0.2,0.3,0.15525358418541302,0.20086433297820333,0.30048389560969735,-0.016092158759083777,-0.0025461298134282495,0.0,0.9183348417282104,0.12618717551231384,1.0010011196136475,-0.02876213937997818,0.9035306572914124,0.8716846108436584,0.01232663169503212,-0.01691487804055214,-0.01825026236474514,1.729767168565067e-15,2.0618427032971916e-16,0.0,0.0,0.0,0.0,0.0,0.0,0.0,0.0,0.0,0.0,0.0,0.0,0.0,PD,1
4.7007,0.15,0.2,0.3,0.1547513634359379,0.20076822947330786,0.3004801289499846,-0.014118668278407076,-0.0022082856321000988,0.0,0.9196789860725403,0.12440967559814453,0.9990126490592957,-0.02876213937997818,0.9035306572914124,0.8716846108436584,0.012360871769487858,-0.01619582436978817,-0.0190720371901989,1.729767168565067e-15,2.0618427032971916e-16,0.0,0.0,0.0,0.0,0.0,0.0,0.0,0.0,0.0,0.0,0.0,0.0,0.0,PD,1
4.8007,0.15,0.2,0.3,0.15437026727104422,0.20069663609334426,0.3005033476766844,-0.013390454624186393,-0.002080259426886888,-0.0017849355950952661,0.9207048416137695,0.12299074232578278,0.9975419640541077,-0.02876213937997818,0.9035306572914124,0.871492862701416,0.010169470682740211,-0.014072904363274574,-0.014552272856235504,1.729767168565067e-15,2.0618427032971916e-16,-0.0034240642562508583,0.0,0.0,0.0,0.0,0.0,0.0,0.0,0.0,0.0,0.0,0.0,0.0,PD,1
4.9008,0.15,0.2,0.3,0.15395657035392732,0.20061879998559087,0.3005197246519218,-0.011779511653161129,-0.0017766194108010808,-0.0018354132569636528,0.9218208193778992,0.1214759349822998,0.9959370493888855,-0.02876213937997818,0.9035306572914124,0.871492862701416,0.010272192768752575,-0.014552272856235504,-0.015374048613011837,1.729767168565067e-15,2.0618427032971916e-16,0.0,0.0,0.0,0.0,0.0,0.0,0.0,0.0,0.0,0.0,0.0,0.0,0.0,PD,1
5.0007,0.15,0.2,0.3,0.1536287155913053,0.20055033436895156,0.3004695056368524,-0.011061230756458554,-0.0015838422081338593,0.0,0.9226913452148438,0.12045776098966599,0.9945909380912781,-0.02876213937997818,0.9036105871200562,0.871492862701416,0.008902567438781261,-0.00996402744203806,-0.01366201601922512,1.729767168565067e-15,2.0618427032971916e-16,0.0,0.0,0.0,0.0,0.0,0.0,0.0,0.0,0.0,0.0,0.0,0.0,0.0,PD,1
5.1007,0.15,0.2,0.3,0.15322596477984785,0.2004614841739903,0.3003973014555318,-0.009277122672180158,0.0,0.0,0.923751711845398,0.1192152351140976,0.9929016828536987,-0.02876213937997818,0.9036904573440552,0.871492862701416,0.010957005433738232,-0.012977203354239464,-0.017942097038030624,1.729767168565067e-15,0.001426693401299417,0.0,0.0,0.0,0.0,0.0,0.0,0.0,0.0,0.0,0.0,0.0,0.0,0.0,PD,1
5.2008,0.15,0.2,0.3,0.15291250465605813,0.20042187617795376,0.30039032623034423,-0.008626465677254891,0.0,0.0,0.9246491193771362,0.11819705367088318,0.9917473196983337,-0.02876213937997818,0.9036904573440552,0.871492862701416,0.008183513768017292,-0.009655861184000969,-0.00972434226423502,1.729767168565067e-15,2.0618427032971916e-16,0.0,0.0,0.0,0.0,0.0,0.0,0.0,0.0,0.0,0.0,0.0,0.0,0.0,PD,1
5.3007,0.15,0.2,0.3,0.1526517924188529,0.20041296187777935,0.3004014410664375,-0.007977712279959068,0.0,0.0,0.9254544377326965,0.11741472780704498,0.9909324049949646,-0.02876213937997818,0.9037703275680542,0.871492862701416,0.008697123266756535,-0.00821775384247303,-0.008731364272534847,1.729767168565067e-15,0.001426693401299417,0.0,0.0,0.0,0.0,0.0,0.0,0.0,0.0,0.0,0.0,0.0,0.0,0.0,PD,1
5.4007,0.15,0.2,0.3,0.15238842525925905,0.20040746510662033,0.3004056746213112,-0.007042652609437441,0.0,0.0,0.9262770414352417,0.1166343092918396,0.9900906682014465,-0.02876213937997818,0.9037703275680542,0.8713011145591736,0.007806866429746151,-0.007567182183265686,-0.007841107435524464,1.729767168565067e-15,2.0618427032971916e-16,0.0,0.0,0.0,0.0,0.0,0.0,0.0,0.0,0.0,0.0,0.0,0.0,0.0,PD,1
5.5007,0.15,0.2,0.3,0.1521689942838625,0.20040057857582416,0.3004194728583985,-0.006494325116535929,0.0,0.0,0.9269577264785767,0.11594593524932861,0.9893926978111267,-0.02876213937997818,0.9037703275680542,0.8713011145591736,0.00722477538511157,-0.007293256931006908,-0.007087813224643469,1.729767168565067e-15,2.0618427032971916e-16,0.0,0.0,0.0,0.0,0.0,0.0,0.0,0.0,0.0,0.0,0.0,0.0,0.0,PD,1
5.6007,0.15,0.2,0.3,0.15194906230794003,0.2004047838076364,0.3004194870982462,-0.0057220581981778235,0.0,0.0,0.9276672005653381,0.11533809453248978,0.9887234568595886,-0.02876213937997818,0.9037703275680542,0.8713011145591736,0.006129074841737747,-0.005581224802881479,-0.006197556387633085,1.729767168565067e-15,2.0618427032971916e-16,0.0,0.0,0.0,0.0,0.0,0.0,0.0,0.0,0.0,0.0,0.0,0.0,0.0,PD,1
5.7007,0.15,0.2,0.3,0.15177026758980938,0.20041538915603108,0.30043427828555386,-0.0053019629736796164,0.0,0.0,0.9282616376876831,0.11482805013656616,0.9882268309593201,-0.02876213937997818,0.9037703275680542,0.8713011145591736,0.005786668509244919,-0.005067615304142237,-0.0048279305920004845,1.729767168565067e-15,2.0618427032971916e-16,0.0,0.0,0.0,0.0,0.0,0.0,0.0,0.0,0.0,0.0,0.0,0.0,0.0,PD,1
5.8007,0.15,0.2,0.3,0.15159913213142295,0.2004215341173365,0.30042918305904787,-0.004741285168048212,0.0,0.0,0.9288215041160583,0.11438127607107162,0.9877129793167114,-0.02876213937997818,0.9037703275680542,0.8713011145591736,0.005204577464610338,-0.004143117927014828,-0.00486217113211751,1.729767168565067e-15,2.0618427032971916e-16,0.0,0.0,0.0,0.0,0.0,0.0,0.0,0.0,0.0,0.0,0.0,0.0,0.0,PD,1
5.9007,0.15,0.2,0.3,0.15145343607738093,0.20042294975535654,0.30043161230477,-0.004358546000623173,0.0,0.0,0.9292894005775452,0.11396710574626923,0.9872680902481079,-0.02876213937997818,0.9037703275680542,0.8713011145591736,0.00465672742575407,-0.0038007113616913557,-0.0045197647996246815,1.729767168565067e-15,2.0618427032971916e-16,0.0,0.0,0.0,0.0,0.0,0.0,0.0,0.0,0.0,0.0,0.0,0.0,0.0,PD,1
6.0007,0.15,0.2,0.3,0.15130987141567506,0.20043109166007766,0.30043232160492517,-0.0038667266463333905,0.0,0.0,0.929766833782196,0.11358936131000519,0.9868558645248413,-0.02876213937997818,0.9037703275680542,0.8713011145591736,0.004348561633378267,-0.003663748735561967,-0.00386919267475605,1.729767168565067e-15,2.0618427032971916e-16,0.0,0.0,0.0,0.0,0.0,0.0,0.0,0.0,0.0,0.0,0.0,0.0,0.0,PD,1
6.1007,0.15,0.2,0.3,0.15119509357363364,0.20043423269312932,0.3004328833188716,-0.003608938297510675,0.0,0.0,0.9301407337188721,0.11327489465475082,0.9865126609802246,-0.02876213937997818,0.9037703275680542,0.8713011145591736,0.0037664705887436867,-0.0028762139845639467,-0.003047417150810361,1.729767168565067e-15,2.0618427032971916e-16,0.0,0.0,0.0,0.0,0.0,0.0,0.0,0.0,0.0,0.0,0.0,0.0,0.0,PD,1
6.2007,0.15,0.2,0.3,0.1510873444105154,0.20042902093823373,0.30042430597790953,-0.0032669596212128033,0.0,0.0,0.9304724931716919,0.11297576874494553,0.9861463904380798,-0.02876213937997818,0.9037703275680542,0.8713011145591736,0.0030131766106933355,-0.0028762139845639467,-0.0031501390039920807,1.729767168565067e-15,2.0618427032971916e-16,0.0,0.0,0.0,0.0,0.0,0.0,0.0,0.0,0.0,0.0,0.0,0.0,0.0,PD,1
6.3007,0.15,0.2,0.3,0.15099385091143322,0.20042675106902264,0.3004248014611116,-0.003011010694605326,0.0,0.0,0.9307658672332764,0.11270156502723694,0.9858472943305969,-0.02876213937997818,0.9037703275680542,0.8713011145591736,0.003047417150810361,-0.0025680481921881437,-0.002944695297628641,1.729767168565067e-15,2.0618427032971916e-16,0.0,0.0,0.0,0.0,0.0,0.0,0.0,0.0,0.0,0.0,0.0,0.0,0.0,PD,1
6.4007,0.15,0.2,0.3,0.15090465118334392,0.2004205258826121,0.3004276722151668,-0.0027202805012572773,0.0,0.0,0.9310362339019775,0.1124177798628807,0.9855481386184692,-0.02876213937997818,0.9037703275680542,0.8713011145591736,0.0024995668791234493,-0.003047417150810361,-0.0026707700453698635,1.729767168565067e-15,2.0618427032971916e-16,0.0,0.0,0.0,0.0,0.0,0.0,0.0,0.0,0.0,0.0,0.0,0.0,0.0,PD,1
6.5007,0.15,0.2,0.3,0.15082996883938132,0.2004184355451606,0.30041840152918,-0.0025314792180216455,0.0,0.0,0.9312701225280762,0.11222603172063828,0.9852969646453857,-0.02876213937997818,0.9037703275680542,0.8713011145591736,0.0025680481921881437,-0.002157160546630621,-0.002739251358434558,1.729767168565067e-15,2.0618427032971916e-16,0.0,0.0,0.0,0.0,0.0,0.0,0.0,0.0,0.0,0.0,0.0,0.0,0.0,PD,1
6.6007,0.15,0.2,0.3,0.15075080569052188,0.20040870315740902,0.30042650065619636,-0.0022320041725293616,0.0,0.0,0.931500256061554,0.11194224655628204,0.9850208163261414,-0.02876213937997818,0.9037703275680542,0.871492862701416,0.0019517166074365377,-0.0027050108183175325,-0.002465326339006424,1.729767168565067e-15,2.0618427032971916e-16,0.0034240642562508583,0.0,0.0,0.0,0.0,0.0,0.0,0.0,0.0,0.0,0.0,0.0,0.0,PD,1
6.7007,0.15,0.2,0.3,0.1506999705615831,0.2004039752273113,0.3004336362263409,-0.0021957213208469994,0.0,0.0,0.9316517114639282,0.11176008731126785,0.9848520755767822,-0.02876213937997818,0.9037703275680542,0.8718763589859009,0.0016435508150607347,-0.0016093101585283875,-0.0014381069922819734,1.729767168565067e-15,2.0618427032971916e-16,0.0,0.0,0.0,0.0,0.0,0.0,0.0,0.0,0.0,0.0,0.0,0.0,0.0,PD,1
6.8007,0.15,0.2,0.3,0.15063479308490735,0.20038754503810874,0.30042286994854533,-0.0018958884137969673,0.0,0.0,0.9318588376045227,0.11154533177614212,0.9845682978630066,-0.02895388752222061,0.9037703275680542,0.8720681071281433,0.001848994754254818,-0.0022598823998123407,-0.002739251358434558,-0.0034240642562508583,2.0618427032971916e-16,0.0034240642562508583,0.0,0.0,0.0,0.0,0.0,0.0,0.0,0.0,0.0,0.0,0.0,0.0,PD,1
6.9008,0.15,0.2,0.3,0.15059502821632312,0.20037673234446657,0.3004368225355649,-0.0018837744142097823,0.0,0.0,0.9319604635238647,0.11135166883468628,0.9844168424606323,-0.02895388752222061,0.9037703275680542,0.8722598552703857,0.0011299411999061704,-0.0017462727846577764,-0.0014723476488143206,1.729767168565067e-15,2.0618427032971916e-16,0.0034240642562508583,0.0,0.0,0.0,0.0,0.0,0.0,0.0,0.0,0.0,0.0,0.0,0.0,PD,1
7.0008,0.15,0.2,0.3,0.15054626516531036,0.2003605542135348,0.3004422427922411,-0.0016681128235224996,0.0,0.0,0.9321157336235046,0.11113690584897995,0.9842039942741394,-0.029145635664463043,0.9037703275680542,0.8722598552703857,0.0010957005433738232,-0.0022598823998123407,-0.0023968450259417295,1.729767168565067e-15,2.0618427032971916e-16,0.0,0.0,0.0,0.0,0.0,0.0,0.0,0.0,0.0,0.0,0.0,0.0,0.0,PD,1
7.1007,0.15,0.2,0.3,0.15050444979962568,0.20035018493436713,0.3004436281574347,-0.001556497470266524,0.0,0.0,0.9322250485420227,0.11097583919763565,0.9840333461761475,-0.029145635664463043,0.9037703275680542,0.8724515438079834,0.0010272192303091288,-0.0017462727846577764,-0.001677791471593082,1.729767168565067e-15,2.0618427032971916e-16,0.0,0.0,0.0,0.0,0.0,0.0,0.0,0.0,0.0,0.0,0.0,0.0,0.0,PD,1
7.2007,0.15,0.2,0.3,0.15046736823176446,0.20033763162301177,0.3004512106870102,0.0,0.0,0.0,0.9323515892028809,0.1108013466000557,0.9838742017745972,-0.029337381944060326,0.9037703275680542,0.8724515438079834,0.0011641818564385176,-0.0016435508150607347,-0.0015750695019960403,-0.0034240642562508583,2.0618427032971916e-16,0.0,0.0,0.0,0.0,0.0,0.0,0.0,0.0,0.0,0.0,0.0,0.0,0.0,PD,1
7.3008,0.15,0.2,0.3,0.15043500632176815,0.20033030543604502,0.3004512067138243,0.0,0.0,0.0,0.9324378967285156,0.11068246513605118,0.9837437868118286,-0.029337381944060326,0.9037703275680542,0.8728350400924683,0.000924497377127409,-0.001232663169503212,-0.001232663169503212,1.729767168565067e-15,2.0618427032971916e-16,0.0034240642562508583,0.0,0.0,0.0,0.0,0.0,0.0,0.0,0.0,0.0,0.0,0.0,0.0,PD,1
7.4008,0.15,0.2,0.3,0.15042015150547805,0.2003312338766442,0.30045117479253064,0.0,0.0,0.0,0.9324877262115479,0.11064411699771881,0.9837015867233276,-0.029337381944060326,0.9037703275680542,0.8728350400924683,0.0004108877037651837,-0.00023968449386302382,-0.000308165792375803,1.729767168565067e-15,2.0618427032971916e-16,0.0,0.0,0.0,0.0,0.0,0.0,0.0,0.0,0.0,0.0,0.0,0.0,0.0,PD,1
7.5007,0.15,0.2,0.3,0.15042097076390915,0.2003278445667548,0.30045072611679047,0.0,0.0,0.0,0.9325146079063416,0.11063452810049057,0.9836881756782532,-0.029529130086302757,0.9037703275680542,0.8728350400924683,0.00023968449386302382,-6.848128396086395e-05,-0.0001369625679217279,1.729767168565067e-15,2.0618427032971916e-16,0.0,0.0,0.0,0.0,0.0,0.0,0.0,0.0,0.0,0.0,0.0,0.0,0.0,PD,1
7.6008,0.15,0.2,0.3,0.15041782549990684,0.20032844160850732,0.30045042441308806,0.0,0.0,0.0,0.9325261116027832,0.11062877625226974,0.9836805462837219,-0.029529130086302757,0.9037703275680542,0.8728350400924683,0.00010272192594129592,-6.848128396086395e-05,-6.848128396086395e-05,1.729767168565067e-15,2.0618427032971916e-16,0.0,0.0,0.0,0.0,0.0,0.0,0.0,0.0,0.0,0.0,0.0,0.0,0.0,PD,1
7.7007,0.15,0.2,0.3,0.1504163513778129,0.20032886037077752,0.300449539501034,0.0,0.0,0.0,0.9325318336486816,0.11062877625226974,0.9836766719818115,-0.029529130086302757,0.9037703275680542,0.8728350400924683,6.848128396086395e-05,2.264061893286805e-15,-3.4240641980431974e-05,1.729767168565067e-15,2.0618427032971916e-16,0.0,0.0,0.0,0.0,0.0,0.0,0.0,0.0,0.0,0.0,0.0,0.0,0.0,PD,1
7.8007,0.15,0.2,0.3,0.15041464965207746,0.2003297993472074,0.30044910385280577,0.0,0.0,0.0,0.9325395226478577,0.11062877625226974,0.9836747646331787,-0.029529130086302757,0.9037703275680542,0.8728350400924683,6.848128396086395e-05,2.264061893286805e-15,-3.4240641980431974e-05,1.729767168565067e-15,2.0618427032971916e-16,0.0,0.0,0.0,0.0,0.0,0.0,0.0,0.0,0.0,0.0,0.0,0.0,0.0,PD,1
7.9007,0.15,0.2,0.3,0.15041464965207746,0.2003297993472074,0.30044910385280577,0.0,0.0,0.0,0.9325395226478577,0.11062877625226974,0.9836747646331787,-0.029529130086302757,0.9037703275680542,0.8728350400924683,4.758098525709073e-16,2.264061893286805e-15,-1.6177535199169086e-15,1.729767168565067e-15,2.0618427032971916e-16,0.0,0.0,0.0,0.0,0.0,0.0,0.0,0.0,0.0,0.0,0.0,0.0,0.0,PD,1
8.0007,0.15,0.2,0.3,0.15041426755303508,0.20033008624001927,0.30044910385280577,0.0,0.0,0.0,0.9325414299964905,0.11062877625226974,0.9836747646331787,-0.029529130086302757,0.9037703275680542,0.8728350400924683,3.4240641980431974e-05,2.264061893286805e-15,-1.6177535199169086e-15,1.729767168565067e-15,2.0618427032971916e-16,0.0,0.0,0.0,0.0,0.0,0.0,0.0,0.0,0.0,0.0,0.0,0.0,0.0,PD,1
8.1007,0.15,0.2,0.3,0.15041678436687878,0.20033443410161828,0.3004489496345461,0.0,0.0,0.0,0.9325433373451233,0.11062877625226974,0.9836747646331787,-0.029529130086302757,0.9036904573440552,0.8728350400924683,4.758098525709073e-16,2.264061893286805e-15,-1.6177535199169086e-15,1.729767168565067e-15,2.0618427032971916e-16,0.0,0.0,0.0,0.0,0.0,0.0,0.0,0.0,0.0,0.0,0.0,0.0,0.0,PD,1
8.2007,0.15,0.2,0.3,0.15041678436687878,0.20033443410161828,0.3004489496345461,0.0,0.0,0.0,0.9325433373451233,0.11062877625226974,0.9836747646331787,-0.029529130086302757,0.9036904573440552,0.8728350400924683,4.758098525709073e-16,2.264061893286805e-15,-1.6177535199169086e-15,1.729767168565067e-15,2.0618427032971916e-16,0.0,0.0,0.0,0.0,0.0,0.0,0.0,0.0,0.0,0.0,0.0,0.0,0.0,PD,1
8.3007,0.15,0.2,0.3,0.15042220223311337,0.20034284602493357,0.30044864227891704,0.0,0.0,0.0,0.9325452446937561,0.11062877625226974,0.9836747646331787,-0.029529130086302757,0.9035306572914124,0.8728350400924683,4.758098525709073e-16,2.264061893286805e-15,-1.6177535199169086e-15,1.729767168565067e-15,-0.002853386802598834,0.0,0.0,0.0,0.0,0.0,0.0,0.0,0.0,0.0,0.0,0.0,0.0,0.0,PD,1
8.4007,0.15,0.2,0.3,0.15042220223311337,0.20034284602493357,0.30044864227891704,0.0,0.0,0.0,0.9325452446937561,0.11062877625226974,0.9836747646331787,-0.029529130086302757,0.9035306572914124,0.8728350400924683,4.758098525709073e-16,2.264061893286805e-15,-1.6177535199169086e-15,1.729767168565067e-15,2.0618427032971916e-16,0.0,0.0,0.0,0.0,0.0,0.0,0.0,0.0,0.0,0.0,0.0,0.0,0.0,PD,1
8.5008,0.15,0.2,0.3,0.15042220223311337,0.20034284602493357,0.30044864227891704,0.0,0.0,0.0,0.9325452446937561,0.11062877625226974,0.9836747646331787,-0.029529130086302757,0.9035306572914124,0.8728350400924683,4.758098525709073e-16,2.264061893286805e-15,-1.6177535199169086e-15,1.729767168565067e-15,2.0618427032971916e-16,0.0,0.0,0.0,0.0,0.0,0.0,0.0,0.0,0.0,0.0,0.0,0.0,0.0,PD,1
8.6007,0.15,0.2,0.3,0.15042220223311337,0.20034284602493357,0.30044864227891704,0.0,0.0,0.0,0.9325452446937561,0.11062877625226974,0.9836747646331787,-0.029529130086302757,0.9035306572914124,0.8728350400924683,4.758098525709073e-16,2.264061893286805e-15,-1.6177535199169086e-15,1.729767168565067e-15,2.0618427032971916e-16,0.0,0.0,0.0,0.0,0.0,0.0,0.0,0.0,0.0,0.0,0.0,0.0,0.0,PD,1
8.7007,0.15,0.2,0.3,0.15042220223311337,0.20034284602493357,0.30044864227891704,0.0,0.0,0.0,0.9325452446937561,0.11062877625226974,0.9836747646331787,-0.029529130086302757,0.9035306572914124,0.8728350400924683,4.758098525709073e-16,2.264061893286805e-15,-1.6177535199169086e-15,1.729767168565067e-15,2.0618427032971916e-16,0.0,0.0,0.0,0.0,0.0,0.0,0.0,0.0,0.0,0.0,0.0,0.0,0.0,PD,1
8.8007,0.15,0.2,0.3,0.15042220223311337,0.20034284602493357,0.30044864227891704,0.0,0.0,0.0,0.9325452446937561,0.11062877625226974,0.9836747646331787,-0.029529130086302757,0.9035306572914124,0.8726432919502258,4.758098525709073e-16,2.264061893286805e-15,-1.6177535199169086e-15,1.729767168565067e-15,2.0618427032971916e-16,0.0,0.0,0.0,0.0,0.0,0.0,0.0,0.0,0.0,0.0,0.0,0.0,0.0,PD,1
8.9007,0.15,0.2,0.3,0.15042220223311337,0.20034284602493357,0.30044864227891704,0.0,0.0,0.0,0.9325452446937561,0.11062877625226974,0.9836747646331787,-0.029529130086302757,0.9035306572914124,0.8726432919502258,4.758098525709073e-16,2.264061893286805e-15,-1.6177535199169086e-15,1.729767168565067e-15,2.0618427032971916e-16,0.0,0.0,0.0,0.0,0.0,0.0,0.0,0.0,0.0,0.0,0.0,0.0,0.0,PD,1
9.0007,0.15,0.2,0.3,0.15042220223311337,0.20034284602493357,0.30044864227891704,0.0,0.0,0.0,0.9325452446937561,0.11062877625226974,0.9836747646331787,-0.029529130086302757,0.9035306572914124,0.8726432919502258,4.758098525709073e-16,2.264061893286805e-15,-1.6177535199169086e-15,1.729767168565067e-15,2.0618427032971916e-16,0.0,0.0,0.0,0.0,0.0,0.0,0.0,0.0,0.0,0.0,0.0,0.0,0.0,PD,1
9.1007,0.15,0.2,0.3,0.15042220223311337,0.20034284602493357,0.30044864227891704,0.0,0.0,0.0,0.9325452446937561,0.11062877625226974,0.9836747646331787,-0.029529130086302757,0.9035306572914124,0.8726432919502258,4.758098525709073e-16,2.264061893286805e-15,-1.6177535199169086e-15,1.729767168565067e-15,2.0618427032971916e-16,0.0,0.0,0.0,0.0,0.0,0.0,0.0,0.0,0.0,0.0,0.0,0.0,0.0,PD,1
9.2007,0.15,0.2,0.3,0.15042220223311337,0.20034284602493357,0.30044864227891704,0.0,0.0,0.0,0.9325452446937561,0.11062877625226974,0.9836747646331787,-0.029529130086302757,0.9035306572914124,0.8726432919502258,4.758098525709073e-16,2.264061893286805e-15,-1.6177535199169086e-15,1.729767168565067e-15,2.0618427032971916e-16,0.0,0.0,0.0,0.0,0.0,0.0,0.0,0.0,0.0,0.0,0.0,0.0,0.0,PD,1
9.3007,0.15,0.2,0.3,0.15042220223311337,0.20034284602493357,0.30044864227891704,0.0,0.0,0.0,0.9325452446937561,0.11062877625226974,0.9836747646331787,-0.029529130086302757,0.9035306572914124,0.8726432919502258,4.758098525709073e-16,2.264061893286805e-15,-1.6177535199169086e-15,1.729767168565067e-15,2.0618427032971916e-16,0.0,0.0,0.0,0.0,0.0,0.0,0.0,0.0,0.0,0.0,0.0,0.0,0.0,PD,1
9.4007,0.15,0.2,0.3,0.15042226720011198,0.20034293360374322,0.3004481625767337,0.0,0.0,0.0,0.9325452446937561,0.11063069105148315,0.9836747646331787,-0.029529130086302757,0.9035306572914124,0.8726432919502258,4.758098525709073e-16,3.4240641980431974e-05,-1.6177535199169086e-15,1.729767168565067e-15,2.0618427032971916e-16,0.0,0.0,0.0,0.0,0.0,0.0,0.0,0.0,0.0,0.0,0.0,0.0,0.0,PD,1
9.5007,0.15,0.2,0.3,0.15042239738525234,0.2003431090999161,0.3004472013051936,0.0,0.0,0.0,0.9325452446937561,0.11063452810049057,0.9836747646331787,-0.029529130086302757,0.9035306572914124,0.8726432919502258,4.758098525709073e-16,3.4240641980431974e-05,-1.6177535199169086e-15,1.729767168565067e-15,2.0618427032971916e-16,0.0,0.0,0.0,0.0,0.0,0.0,0.0,0.0,0.0,0.0,0.0,0.0,0.0,PD,1
9.6008,0.15,0.2,0.3,0.15041492906801998,0.2003488353666609,0.30044554801459056,0.0,0.0,0.0,0.9325452446937561,0.1106402799487114,0.9836747646331787,-0.029337381944060326,0.9035306572914124,0.8724515438079834,4.758098525709073e-16,6.848128396086395e-05,-1.6177535199169086e-15,0.0034240642562508583,2.0618427032971916e-16,0.0,0.0,0.0,0.0,0.0,0.0,0.0,0.0,0.0,0.0,0.0,0.0,0.0,PD,1
9.7008,0.15,0.2,0.3,0.15041505924718324,0.20034901085477638,0.3004445867416381,0.0,0.0,0.0,0.9325452446937561,0.11064411699771881,0.9836747646331787,-0.029337381944060326,0.9035306572914124,0.8724515438079834,4.758098525709073e-16,3.4240641980431974e-05,-1.6177535199169086e-15,1.729767168565067e-15,2.0618427032971916e-16,0.0,0.0,0.0,0.0,0.0,0.0,0.0,0.0,0.0,0.0,0.0,0.0,0.0,PD,1
9.8007,0.15,0.2,0.3,0.15040759164237205,0.20035473801735976,0.30044293483525736,0.0,0.0,0.0,0.9325452446937561,0.11064986884593964,0.9836747646331787,-0.029145635664463043,0.9035306572914124,0.8724515438079834,4.758098525709073e-16,6.848128396086395e-05,-1.6177535199169086e-15,1.729767168565067e-15,2.0618427032971916e-16,0.0,0.0,0.0,0.0,0.0,0.0,0.0,0.0,0.0,0.0,0.0,0.0,0.0,PD,1
9.9007,0.15,0.2,0.3,0.15040778677495262,0.20035500106597642,0.3004414938566667,0.0,0.0,0.0,0.9325452446937561,0.11065562069416046,0.9836747646331787,-0.029145635664463043,0.9035306572914124,0.8724515438079834,4.758098525709073e-16,6.848128396086395e-05,-1.6177535199169086e-15,1.729767168565067e-15,2.0618427032971916e-16,0.0,0.0,0.0,0.0,0.0,0.0,0.0,0.0,0.0,0.0,0.0,0.0,0.0,PD,1
10.0008,0.15,0.2,0.3,0.1504079169448479,0.20035517654159826,0.300440532581041,0.0,0.0,0.0,0.9325452446937561,0.11065945774316788,0.9836747646331787,-0.029145635664463043,0.9035306572914124,0.8724515438079834,4.758098525709073e-16,6.848128396086395e-05,-1.6177535199169086e-15,1.729767168565067e-15,2.0618427032971916e-16,0.0,0.0,0.0,0.0,0.0,0.0,0.0,0.0,0.0,0.0,0.0,0.0,0.0,PD,1
10.1008,0.15,0.2,0.3,0.15040811206919616,0.20035543957911753,0.30043909159930965,0.0,0.0,0.0,0.9325452446937561,0.1106652095913887,0.9836747646331787,-0.029145635664463043,0.9035306572914124,0.8724515438079834,4.758098525709073e-16,3.4240641980431974e-05,-1.6177535199169086e-15,1.729767168565067e-15,2.0618427032971916e-16,0.0,0.0,0.0,0.0,0.0,0.0,0.0,0.0,0.0,0.0,0.0,0.0,0.0,PD,1
10.2007,0.15,0.2,0.3,0.1504083071886065,0.20035570260998,0.3004376506156945,0.0,0.0,0.0,0.9325452446937561,0.11067096143960953,0.9836747646331787,-0.029145635664463043,0.9035306572914124,0.8724515438079834,4.758098525709073e-16,3.4240641980431974e-05,-1.6177535199169086e-15,1.729767168565067e-15,2.0618427032971916e-16,0.0,0.0,0.0,0.0,0.0,0.0,0.0,0.0,0.0,0.0,0.0,0.0,0.0,PD,1
10.3007,0.15,0.2,0.3,0.15040856725589402,0.2003560531938758,0.30043572992346523,0.0,0.0,0.0,0.9325452446937561,0.11067862808704376,0.9836747646331787,-0.029145635664463043,0.9035306572914124,0.8724515438079834,4.758098525709073e-16,6.848128396086395e-05,-1.6177535199169086e-15,1.729767168565067e-15,2.0618427032971916e-16,0.0,0.0,0.0,0.0,0.0,0.0,0.0,0.0,0.0,0.0,0.0,0.0,0.0,PD,1
10.4007,0.15,0.2,0.3,0.1504086974126128,0.20035622865173477,0.3004347686428132,0.0,0.0,0.0,0.9325452446937561,0.11068246513605118,0.9836747646331787,-0.029145635664463043,0.9035306572914124,0.8724515438079834,4.758098525709073e-16,3.4240641980431974e-05,-1.6177535199169086e-15,1.729767168565067e-15,2.0618427032971916e-16,0.0,0.0,0.0,0.0,0.0,0.0,0.0,0.0,0.0,0.0,0.0,0.0,0.0,PD,1
10.5007,0.15,0.2,0.3,0.15040605569140356,0.20035251621805608,0.30043299989446826,0.0,0.0,0.0,0.9325452446937561,0.11069013923406601,0.9836747646331787,-0.029145635664463043,0.9036105871200562,0.8724515438079834,4.758098525709073e-16,6.848128396086395e-05,-1.6177535199169086e-15,1.729767168565067e-15,2.0618427032971916e-16,0.0,0.0,0.0,0.0,0.0,0.0,0.0,0.0,0.0,0.0,0.0,0.0,0.0,PD,1
10.6007,0.15,0.2,0.3,0.15040663855765274,0.20035330196274206,0.30043195052842137,0.0,0.0,0.0,0.9325452446937561,0.11069780588150024,0.9836785793304443,-0.029145635664463043,0.9036105871200562,0.8724515438079834,4.758098525709073e-16,6.848128396086395e-05,3.4240641980431974e-05,1.729767168565067e-15,2.0618427032971916e-16,0.0,0.0,0.0,0.0,0.0,0.0,0.0,0.0,0.0,0.0,0.0,0.0,0.0,PD,1
10.7007,0.15,0.2,0.3,0.15040416519114452,0.20034981661374984,0.3004306332663903,0.0,0.0,0.0,0.9325452446937561,0.11070547252893448,0.9836805462837219,-0.029145635664463043,0.9036904573440552,0.8724515438079834,4.758098525709073e-16,0.00010272192594129592,3.4240641980431974e-05,1.729767168565067e-15,0.001426693401299417,0.0,0.0,0.0,0.0,0.0,0.0,0.0,0.0,0.0,0.0,0.0,0.0,0.0,PD,1
10.8007,0.15,0.2,0.3,0.15040458689173763,0.2003503850932481,0.3004291463985891,0.0,0.0,0.0,0.9325452446937561,0.11071314662694931,0.9836824536323547,-0.029145635664463043,0.9036904573440552,0.8726432919502258,4.758098525709073e-16,6.848128396086395e-05,3.4240641980431974e-05,1.729767168565067e-15,2.0618427032971916e-16,0.0034240642562508583,0.0,0.0,0.0,0.0,0.0,0.0,0.0,0.0,0.0,0.0,0.0,0.0,PD,1
10.9007,0.15,0.2,0.3,0.15040500833433146,0.2003509532249503,0.3004276613903107,0.0,0.0,0.0,0.9325452446937561,0.11072081327438354,0.9836843609809875,-0.029145635664463043,0.9036904573440552,0.8726432919502258,4.758098525709073e-16,6.848128396086395e-05,3.4240641980431974e-05,1.729767168565067e-15,2.0618427032971916e-16,0.0,0.0,0.0,0.0,0.0,0.0,0.0,0.0,0.0,0.0,0.0,0.0,0.0,PD,1
11.0007,0.15,0.2,0.3,0.15040536482972042,0.2003514338045259,0.3004266560712305,0.0,0.0,0.0,0.9325452446937561,0.11072656512260437,0.9836862683296204,-0.029145635664463043,0.9036904573440552,0.8726432919502258,4.758098525709073e-16,6.848128396086395e-05,3.4240641980431974e-05,1.729767168565067e-15,2.0618427032971916e-16,0.0,0.0,0.0,0.0,0.0,0.0,0.0,0.0,0.0,0.0,0.0,0.0,0.0,PD,1
11.1007,0.15,0.2,0.3,0.15040598425535795,0.20035226883900786,0.3004270153251987,0.0,0.0,0.0,0.9325452446937561,0.11073040217161179,0.9836920499801636,-0.029145635664463043,0.9036904573440552,0.8726432919502258,4.758098525709073e-16,3.4240641980431974e-05,6.848128396086395e-05,1.729767168565067e-15,2.0618427032971916e-16,0.0,0.0,0.0,0.0,0.0,0.0,0.0,0.0,0.0,0.0,0.0,0.0,0.0,PD,1
11.2007,0.15,0.2,0.3,0.15040640594289417,0.20035283730090472,0.30042552843032905,0.0,0.0,0.0,0.9325452446937561,0.11073807626962662,0.9836939573287964,-0.029145635664463043,0.9036904573440552,0.8726432919502258,4.758098525709073e-16,6.848128396086395e-05,3.4240641980431974e-05,1.729767168565067e-15,2.0618427032971916e-16,0.0,0.0,0.0,0.0,0.0,0.0,0.0,0.0,0.0,0.0,0.0,0.0,0.0,PD,1
11.3007,0.15,0.2,0.3,0.15040692384960638,0.20035353547683984,0.3004249587272919,0.0,0.0,0.0,0.9325452446937561,0.11074382811784744,0.983697772026062,-0.029145635664463043,0.9036904573440552,0.8726432919502258,4.758098525709073e-16,6.848128396086395e-05,3.4240641980431974e-05,1.729767168565067e-15,2.0618427032971916e-16,0.0,0.0,0.0,0.0,0.0,0.0,0.0,0.0,0.0,0.0,0.0,0.0,0.0,PD,1
11.4008,0.15,0.2,0.3,0.15041520673952077,0.20034890538910394,0.30042553077604817,0.0,0.0,0.0,0.9325452446937561,0.11074765771627426,0.9837035536766052,-0.029337381944060326,0.9036904573440552,0.8726432919502258,4.758098525709073e-16,3.4240641980431974e-05,6.848128396086395e-05,1.729767168565067e-15,2.0618427032971916e-16,0.0,0.0,0.0,0.0,0.0,0.0,0.0,0.0,0.0,0.0,0.0,0.0,0.0,PD,1
11.5007,0.15,0.2,0.3,0.15041565970522378,0.20034951602126436,0.30042544076667577,0.0,0.0,0.0,0.9325452446937561,0.11075149476528168,0.9837073683738708,-0.029337381944060326,0.9036904573440552,0.8726432919502258,4.758098525709073e-16,3.4240641980431974e-05,3.4240641980431974e-05,1.729767168565067e-15,2.0618427032971916e-16,0.0,0.0,0.0,0.0,0.0,0.0,0.0,0.0,0.0,0.0,0.0,0.0,0.0,PD,1
11.6009,0.15,0.2,0.2,0.15041620889198234,0.20035025636999637,0.3004262679606636,0.0,0.0,-0.22,0.9325452446937561,0.11075340956449509,0.9837130904197693,-0.029337381944060326,0.9036904573440552,0.8726432919502258,4.758098525709073e-16,3.4240641980431974e-05,6.848128396086395e-05,1.729767168565067e-15,2.0618427032971916e-16,0.0,0.0,0.0,0.0,0.0,0.0,0.0,0.0,0.0,0.0,0.0,0.0,0.0,PD,1
11.7007,0.15,0.2,0.2,0.1504271738447466,0.20036914799531852,0.2998545497533262,0.0,0.0,-0.22,0.9325452446937561,0.1118847206234932,0.9824686646461487,-0.029337381944060326,0.901533305644989,0.8726432919502258,4.758098525709073e-16,0.02016773819923401,-0.02225641719996929,1.729767168565067e-15,-0.03852072358131409,0.0,0.0,0.0,0.0,0.0,0.0,0.0,0.0,0.0,0.0,0.0,0.0,0.0,PD,1
11.8007,0.15,0.2,0.2,0.15048057346489085,0.2005317152240672,0.2927898926063676,0.0,-0.002673839427978636,-0.22,0.9325452446937561,0.12471839040517807,0.9657789468765259,-0.02895388752222061,0.8707737922668457,0.8726432919502258,4.758098525709073e-16,0.15326111018657684,-0.19482925534248352,-0.006848128512501717,-0.35952675342559814,0.0,0.0,0.0,0.0,0.0,0.0,0.0,0.0,0.0,0.0,0.0,0.0,0.0,PD,1
11.9007,0.15,0.2,0.2,0.15050974115926644,0.20059741884795176,0.2863676821361615,-0.001929932529310452,-0.002419484087253912,-0.22,0.9325452446937561,0.13683874905109406,0.9509491920471191,-0.029337381944060326,0.8424111008644104,0.8726432919502258,4.758098525709073e-16,0.10744713991880417,-0.12809424102306366,0.010272192768752575,-0.2639382779598236,0.0,0.0,0.0,0.0,0.0,0.0,0.0,0.0,0.0,0.0,0.0,0.0,0.0,PD,1
12.0007,0.15,0.2,0.2,0.150517131753981,0.2006783099094649,0.28020475312020093,-0.0018469141125062316,-0.002778539990692719,-0.22,0.9325452446937561,0.14935603737831116,0.9375613927841187,-0.029145635664463043,0.8153267502784729,0.8726432919502258,4.758098525709073e-16,0.14226986467838287,-0.14726901054382324,0.0034240642562508583,-0.30673909187316895,0.0,0.0,0.0,0.0,0.0,0.0,0.0,0.0,0.0,0.0,0.0,0.0,0.0,PD,1
12.1007,0.15,0.2,0.2,0.150384541857061,0.20055963744941596,0.2733741764920081,0.0,-0.0013653687727111785,-0.22,0.9325165152549744,0.16384832561016083,0.9232224822044373,-0.02895388752222061,0.7880826592445374,0.8726432919502258,-0.0002739251358434558,0.1292584240436554,-0.12775184214115143,1.7337322356702827e-15,-0.26251158118247986,0.0,0.0,0.0,0.0,0.0,0.0,0.0,0.0,0.0,0.0,0.0,0.0,0.0,PD,1
12.2007,0.15,0.2,0.2,0.15038895182235312,0.20067129266824024,0.266920175633476,0.0,-0.00290780043296221,-0.22,0.9325165152549744,0.1785227656364441,0.9106534719467163,-0.028378644958138466,0.758521556854248,0.8726432919502258,4.758098525709073e-16,0.15428833663463593,-0.12997747957706451,1.7337322356702827e-15,-0.3438331186771393,0.0,0.0,0.0,0.0,0.0,0.0,0.0,0.0,0.0,0.0,0.0,0.0,0.0,PD,1
12.3007,0.15,0.2,0.2,0.1502870790330188,0.20058975727094436,0.2604025041410681,0.0,-0.0016564734618257915,-0.20489109300133035,0.9325146079063416,0.19438795745372772,0.8989702463150024,-0.028378644958138466,0.7326356172561646,0.8726432919502258,-3.4240641980431974e-05,0.1512751579284668,-0.10905644297599792,1.7337322356702827e-15,-0.23825781047344208,0.0,0.0,0.0,0.0,0.0,0.0,0.0,0.0,0.0,0.0,0.0,0.0,0.0,PD,1
12.4008,0.15,0.2,0.2,0.15033034239607984,0.20071235097258333,0.25392191630985517,0.0,-0.0031061969122364863,-0.18224611925328013,0.9324820041656494,0.21121956408023834,0.888462483882904,-0.028186896815896034,0.7036337852478027,0.8726432919502258,-0.0004451283602975309,0.1756887435913086,-0.1092618927359581,1.7337322356702827e-15,-0.2967522442340851,0.0,0.0,0.0,0.0,0.0,0.0,0.0,0.0,0.0,0.0,0.0,0.0,0.0,PD,1
12.5008,0.15,0.2,0.2,0.1502349836830971,0.200628024570745,0.24812201733198674,0.0,-0.0017764539884157632,-0.16262716168408514,0.9324321150779724,0.2267894744873047,0.8795021176338196,-0.027995148673653603,0.6805441975593567,0.8728350400924683,-0.000308165792375803,0.14589938521385193,-0.08361564576625824,0.0034240642562508583,-0.22541756927967072,0.0034240642562508583,0.0,0.0,0.0,0.0,0.0,0.0,0.0,0.0,0.0,0.0,0.0,0.0,PD,1
12.6008,0.15,0.2,0.2,0.15031973735146584,0.20080433172178053,0.2428804181239777,0.0,-0.0036966967814094642,-0.14483986422591288,0.9323822855949402,0.24150609970092773,0.8721141219139099,-0.02761165425181389,0.6551375985145569,0.8728350400924683,-0.0004108877037651837,0.15370623767375946,-0.07491852343082428,0.006848128512501717,-0.26251158118247986,0.0,0.0,0.0,0.0,0.0,0.0,0.0,0.0,0.0,0.0,0.0,0.0,0.0,PD,1
12.7007,0.15,0.2,0.2,0.15021387385442062,0.20068422743165776,0.23842171759417996,0.0,-0.0017942745601882693,-0.13001731104983208,0.932341992855072,0.2543148398399353,0.8660663962364197,-0.02761165425181389,0.6380401253700256,0.8728350400924683,-0.00020544385188259184,0.11932864040136337,-0.054202936589717865,1.7337322356702827e-15,-0.16977651417255402,0.0,0.0,0.0,0.0,0.0,0.0,0.0,0.0,0.0,0.0,0.0,0.0,0.0,PD,1
12.8007,0.15,0.2,0.2,0.1502164134223875,0.20069571892397978,0.23439496953497863,0.0,-0.002492473695539274,-0.11635564531322382,0.9322633743286133,0.26629331707954407,0.8610694408416748,-0.02761165425181389,0.6204632520675659,0.8728350400924683,-0.0006505721830762923,0.12569740414619446,-0.05040222406387329,1.7337322356702827e-15,-0.17262990772724152,0.0,0.0,0.0,0.0,0.0,0.0,0.0,0.0,0.0,0.0,0.0,0.0,0.0,PD,1
12.9008,0.15,0.2,0.2,0.15012009486835956,0.20056971928108347,0.2307440217011102,0.0,-0.001364019269310568,-0.1039531281200172,0.932196319103241,0.27737632393836975,0.8567474484443665,-0.02761165425181389,0.6069610714912415,0.8728350400924683,-0.00037664707633666694,0.10309857130050659,-0.03759622573852539,1.7337322356702827e-15,-0.14124265313148499,0.0,0.0,0.0,0.0,0.0,0.0,0.0,0.0,0.0,0.0,0.0,0.0,0.0,PD,1
13.0008,0.15,0.2,0.2,0.15010932072331193,0.20057532428423233,0.22753941575205508,0.0,-0.0020416600105574306,-0.09318334918313763,0.9321656227111816,0.28735679388046265,0.8532537817955017,-0.02761165425181389,0.5931392312049866,0.8728350400924683,-0.00010272192594129592,0.10285889357328415,-0.034411847591400146,1.7337322356702827e-15,-0.12554901838302612,0.0,0.0,0.0,0.0,0.0,0.0,0.0,0.0,0.0,0.0,0.0,0.0,0.0,PD,1
13.1007,0.15,0.2,0.2,0.15009111912073125,0.20057300244682164,0.22460433493730347,0.0,-0.0019938993768222057,-0.08318009146581051,0.9321483373641968,0.29673323035240173,0.8503239154815674,-0.02761165425181389,0.5809153318405151,0.8728350400924683,-0.00010272192594129592,0.08638913929462433,-0.026296813040971756,1.7337322356702827e-15,-0.1084287017583847,0.0,0.0,0.0,0.0,0.0,0.0,0.0,0.0,0.0,0.0,0.0,0.0,0.0,PD,1
13.2007,0.15,0.2,0.2,0.15014643576364456,0.20066022389742405,0.22201449948163596,0.0,-0.0027468908939962122,-0.0744609127300583,0.932104229927063,0.30506277084350586,0.8478062748908997,-0.02761165425181389,0.5680522322654724,0.8728350400924683,-0.0005136096151545644,0.08419773727655411,-0.026262572035193443,1.7337322356702827e-15,-0.14266934990882874,0.0,0.0,0.0,0.0,0.0,0.0,0.0,0.0,0.0,0.0,0.0,0.0,0.0,PD,1
13.3007,0.15,0.2,0.2,0.15005785765813892,0.2005252320673852,0.21970577005230668,0.0,-0.001163353085653962,-0.06666146575374407,0.9320467114448547,0.312517911195755,0.8455494046211243,-0.02780340239405632,0.5602225661277771,0.8728350400924683,-0.0005478502716869116,0.06848128885030746,-0.020578626543283463,1.7337322356702827e-15,-0.07704144716262817,0.0,0.0,0.0,0.0,0.0,0.0,0.0,0.0,0.0,0.0,0.0,0.0,0.0,PD,1
13.4008,0.15,0.2,0.2,0.15006861747055486,0.20052818552170276,0.21764594248594596,0.0,-0.001863416597547407,-0.059700971134450095,0.9319891929626465,0.3192540109157562,0.8436530232429504,-0.027995148673653603,0.5508748888969421,0.8728350400924683,-0.0005136096151545644,0.06673501431941986,-0.01896931603550911,1.7337322356702827e-15,-0.09701515734195709,0.0,0.0,0.0,0.0,0.0,0.0,0.0,0.0,0.0,0.0,0.0,0.0,0.0,PD,1
13.5007,0.15,0.2,0.2,0.1499880766584879,0.2004244861676064,0.21574819808231482,0.0,0.0,-0.05322094888447071,0.9319642782211304,0.32562002539634705,0.842084527015686,-0.027995148673653603,0.5448028445243835,0.8728350400924683,-0.00020544385188259184,0.05937327444553375,-0.013833219185471535,1.7337322356702827e-15,-0.0527876578271389,0.0,0.0,0.0,0.0,0.0,0.0,0.0,0.0,0.0,0.0,0.0,0.0,0.0,PD,1
13.6007,0.15,0.2,0.2,0.14999452411537234,0.20042060546953386,0.21410208318266571,0.0,0.0,-0.04771117623968085,0.9319412708282471,0.33119603991508484,0.8408036231994629,-0.028378644958138466,0.5377721190452576,0.8728350400924683,-0.00020544385188259184,0.05680522695183754,-0.012771760113537312,1.7332366155170206e-15,-0.06990797817707062,0.0,0.0,0.0,0.0,0.0,0.0,0.0,0.0,0.0,0.0,0.0,0.0,0.0,PD,1
13.7007,0.15,0.2,0.2,0.14997424255166195,0.20040276200684526,0.2126804882177311,0.0,0.0,-0.04296011379712425,0.9319316744804382,0.3361411988735199,0.8398602604866028,-0.028378644958138466,0.5324990749359131,0.8728350400924683,-6.848128396086395e-05,0.04738904908299446,-0.008251994848251343,1.7332366155170206e-15,-0.06277450919151306,0.0,0.0,0.0,0.0,0.0,0.0,0.0,0.0,0.0,0.0,0.0,0.0,0.0,PD,1
13.8008,0.15,0.2,0.2,0.14998425249348957,0.20042028423277775,0.21133924467707177,0.0,0.0,-0.03834611282909181,0.9319316744804382,0.34087544679641724,0.8390644788742065,-0.028570393100380898,0.526986300945282,0.8726432919502258,4.758098525709073e-16,0.04783417657017708,-0.00845743902027607,1.7332366155170206e-15,-0.05421435087919235,0.0,0.0,0.0,0.0,0.0,0.0,0.0,0.0,0.0,0.0,0.0,0.0,0.0,PD,1
13.9007,0.15,0.2,0.2,0.14994368584222842,0.20037438955436704,0.2101758064805822,0.0,0.0,-0.03445188448554812,0.9319297671318054,0.34498077630996704,0.8383588790893555,-0.028570393100380898,0.5233111381530762,0.8726432919502258,-3.4240641980431974e-05,0.035610269755125046,-0.005683946888893843,1.7332366155170206e-15,-0.02996056154370308,0.0,0.0,0.0,0.0,0.0,0.0,0.0,0.0,0.0,0.0,0.0,0.0,0.0,PD,1
14.0008,0.15,0.2,0.2,0.14997238317667472,0.20041450992343476,0.20914878658790137,0.0,0.0,-0.03099373316497392,0.9319278597831726,0.34865275025367737,0.8378142714500427,-0.02876213937997818,0.5185973644256592,0.8726432919502258,-3.4240641980431974e-05,0.03783591091632843,-0.005581224802881479,1.7332366155170206e-15,-0.045654188841581345,0.0,0.0,0.0,0.0,0.0,0.0,0.0,0.0,0.0,0.0,0.0,0.0,0.0,PD,1
14.1008,0.15,0.2,0.2,0.14991040692389826,0.2003353049295105,0.2081753473379987,0.0,0.0,-0.02764027643309272,0.9319239854812622,0.3521386981010437,0.8372812271118164,-0.02876213937997818,0.5163602828979492,0.8726432919502258,-3.4240641980431974e-05,0.03126170486211777,-0.00465672742575407,1.7332366155170206e-15,-0.027107175439596176,0.0,0.0,0.0,0.0,0.0,0.0,0.0,0.0,0.0,0.0,0.0,0.0,0.0,PD,1
14.2007,0.15,0.2,0.2,0.14992135430318773,0.2003578773149441,0.20736070474015922,0.0,0.0,-0.02494782399271775,0.9319201707839966,0.35505712032318115,0.8368536233901978,-0.02876213937997818,0.5127650499343872,0.8726432919502258,-3.4240641980431974e-05,0.029070304706692696,-0.0042115990072488785,1.7332366155170206e-15,-0.02996056154370308,0.0,0.0,0.0,0.0,0.0,0.0,0.0,0.0,0.0,0.0,0.0,0.0,0.0,PD,1
14.3008,0.15,0.2,0.2,0.14986272702997228,0.20028192652805016,0.20660758911870136,0.0,0.0,-0.022373446293996874,0.9319182634353638,0.35777801275253296,0.8364682197570801,-0.02876213937997818,0.5113269090652466,0.8726432919502258,4.758098525709073e-16,0.0244135782122612,-0.0035952674224972725,1.7332366155170206e-15,-0.009986854158341885,0.0,0.0,0.0,0.0,0.0,0.0,0.0,0.0,0.0,0.0,0.0,0.0,0.0,PD,1
14.4007,0.15,0.2,0.2,0.1498625045642272,0.20028675295113674,0.20596249061012162,0.0,0.0,-0.02022361862684588,0.9319144487380981,0.3601154088973999,0.8361614346504211,-0.02876213937997818,0.5087702870368958,0.8726432919502258,-3.4240641980431974e-05,0.022770026698708534,-0.0032871016301214695,1.7332366155170206e-15,-0.024253789335489273,0.0,0.0,0.0,0.0,0.0,0.0,0.0,0.0,0.0,0.0,0.0,0.0,0.0,PD,1
14.5007,0.15,0.2,0.2,0.1498190376697712,0.2002210124276813,0.20533792841212173,0.0,0.0,-0.01805818724442612,0.9319124817848206,0.3623684346675873,0.8358354568481445,-0.02895388752222061,0.5074920058250427,0.8724515438079834,4.758098525709073e-16,0.021366160362958908,-0.002944695297628641,-0.0034240642562508583,-0.011413547210395336,-0.0034240642562508583,0.0,0.0,0.0,0.0,0.0,0.0,0.0,0.0,0.0,0.0,0.0,0.0,PD,1
14.6008,0.15,0.2,0.2,0.1497985359761125,0.20018668948235474,0.20477270246415863,0.0,0.0,-0.016139232676592064,0.9319105744361877,0.36446040868759155,0.8356168866157532,-0.029145635664463043,0.5060538649559021,0.8724515438079834,4.758098525709073e-16,0.020270461216568947,-0.0019859573803842068,-0.0034240642562508583,-0.015693627297878265,0.0,0.0,0.0,0.0,0.0,0.0,0.0,0.0,0.0,0.0,0.0,0.0,0.0,PD,1
14.7007,0.15,0.2,0.2,0.14976062559048783,0.20012646396981454,0.20429461153792694,0.0,0.0,-0.014553049456512562,0.9319067597389221,0.3661976456642151,0.835381031036377,-0.029337381944060326,0.5052549242973328,0.8724515438079834,-3.4240641980431974e-05,0.016367027536034584,-0.0018832352943718433,-0.0034240642562508583,-0.005706773605197668,0.0,0.0,0.0,0.0,0.0,0.0,0.0,0.0,0.0,0.0,0.0,0.0,0.0,PD,1
14.8008,0.15,0.2,0.2,0.1497253007033352,0.2000790287573757,0.20387477280638455,0.0,0.0,-0.013141866090803506,0.9319029450416565,0.36775273084640503,0.8352141976356506,-0.029337381944060326,0.5046157836914062,0.8724515438079834,-3.4240641980431974e-05,0.01585341803729534,-0.0017805134411901236,1.7332366155170206e-15,-0.0042800805531442165,0.0,0.0,0.0,0.0,0.0,0.0,0.0,0.0,0.0,0.0,0.0,0.0,0.0,PD,1
14.9007,0.15,0.2,0.2,0.1496931744383658,0.2000371054552467,0.20346241604332072,0.0,0.0,-0.011706099388558627,0.9319009780883789,0.369261771440506,0.8350262641906738,-0.029337381944060326,0.5038168430328369,0.8724515438079834,4.758098525709073e-16,0.013490812852978706,-0.001677791471593082,1.7332366155170206e-15,-0.009986854158341885,0.0,0.0,0.0,0.0,0.0,0.0,0.0,0.0,0.0,0.0,0.0,0.0,0.0,PD,1
15.0007,0.15,0.2,0.2,0.14965010964087913,0.19997876101253192,0.20313372317875655,0.0,0.0,-0.010639338261083736,0.9318990707397461,0.3704697787761688,0.8348767161369324,-0.029337381944060326,0.5036570429801941,0.8724515438079834,-3.4240641980431974e-05,0.012566315941512585,-0.0015065883053466678,1.7332366155170206e-15,-0.002853386802598834,0.0,0.0,0.0,0.0,0.0,0.0,0.0,0.0,0.0,0.0,0.0,0.0,0.0,PD,1
15.1008,0.15,0.2,0.2,0.1496414743265843,0.19996913487766516,0.20281160146384977,0.0,0.0,-0.009518483408567383,0.9318971633911133,0.3716566860675812,0.8347463011741638,-0.029337381944060326,0.5026183724403381,0.8724515438079834,4.758098525709073e-16,0.011059727519750595,-0.0012669038260355592,1.7332366155170206e-15,-0.018547015264630318,0.0,0.0,0.0,0.0,0.0,0.0,0.0,0.0,0.0,0.0,0.0,0.0,0.0,PD,1
15.2007,0.15,0.2,0.2,0.14960921761847665,0.19992371912388512,0.20254443900750185,0.0,0.0,-0.008638374069908528,0.9318913817405701,0.37264612317085266,0.8346351385116577,-0.029337381944060326,0.5024586319923401,0.8724515438079834,-3.4240641980431974e-05,0.009998267516493797,-0.0010957005433738232,1.7332366155170206e-15,-0.001426693401299417,0.0,0.0,0.0,0.0,0.0,0.0,0.0,0.0,0.0,0.0,0.0,0.0,0.0,PD,1
15.3007,0.15,0.2,0.2,0.14957730047976014,0.19988118231550522,0.20228744807971866,0.0,0.0,-0.007749077351232064,0.9318913817405701,0.373599112033844,0.8345296382904053,-0.029337381944060326,0.5022988319396973,0.8724515438079834,4.758098525709073e-16,0.009176491759717464,-0.001061459886841476,1.7332366155170206e-15,-0.001426693401299417,0.0,0.0,0.0,0.0,0.0,0.0,0.0,0.0,0.0,0.0,0.0,0.0,0.0,PD,1
15.4008,0.15,0.2,0.2,0.14954231338763735,0.19983328364277989,0.20206707501015675,0.0,0.0,-0.007014389465986676,0.9318894743919373,0.37440061569213867,0.8344146013259888,-0.029337381944060326,0.5022988319396973,0.8724515438079834,-3.4240641980431974e-05,0.008183513768017292,-0.0009929786901921034,1.7332366155170206e-15,2.0618427032971916e-16,0.0,0.0,0.0,0.0,0.0,0.0,0.0,0.0,0.0,0.0,0.0,0.0,0.0,PD,1
15.5007,0.15,0.2,0.2,0.1495129666982186,0.19979218041733082,0.20184832674023917,0.0,0.0,-0.006250395320919477,0.9318856596946716,0.37522703409194946,0.834343671798706,-0.029337381944060326,0.5022988319396973,0.8724515438079834,-6.848128396086395e-05,0.007943829521536827,-0.0006505721830762923,1.7332366155170206e-15,2.0618427032971916e-16,0.0,0.0,0.0,0.0,0.0,0.0,0.0,0.0,0.0,0.0,0.0,0.0,0.0,PD,1
15.6007,0.15,0.2,0.2,0.14948787398033517,0.19975760251271618,0.20167034724817887,0.001917904658244013,0.0,-0.005668235876565689,0.9318837523460388,0.37589430809020996,0.8342784643173218,-0.029337381944060326,0.5022988319396973,0.8724515438079834,-3.4240641980431974e-05,0.006745406426489353,-0.0007190534961409867,1.7332366155170206e-15,2.0618427032971916e-16,0.0,0.0,0.0,0.0,0.0,0.0,0.0,0.0,0.0,0.0,0.0,0.0,0.0,PD,1
15.7008,0.15,0.2,0.2,0.14946321660342307,0.19972440882345172,0.2015035430046182,0.0020020287725797115,0.0,-0.0050955962726030035,0.9318837523460388,0.37651559710502625,0.8342113494873047,-0.029337381944060326,0.5022988319396973,0.8724515438079834,4.758098525709073e-16,0.005889390595257282,-0.000616331584751606,1.7332366155170206e-15,2.0618427032971916e-16,0.0,0.0,0.0,0.0,0.0,0.0,0.0,0.0,0.0,0.0,0.0,0.0,0.0,PD,1
15.8007,0.15,0.2,0.2,0.1494510105349932,0.19969274414059818,0.20134147548444198,0.0019824934696730384,0.0,-0.0045330966753706625,0.931847333908081,0.3771464228630066,0.8341845273971558,-0.029337381944060326,0.5022988319396973,0.8726432919502258,-0.0005478502716869116,0.006539962720125914,-0.0001369625679217279,1.7332366155170206e-15,2.0618427032971916e-16,0.0034240642562508583,0.0,0.0,0.0,0.0,0.0,0.0,0.0,0.0,0.0,0.0,0.0,0.0,PD,1
15.9007,0.15,0.2,0.2,0.14946336167759428,0.19964600561997708,0.20116657469175947,0.001816478415414699,0.0,-0.003908110628475597,0.931695818901062,0.37784630060195923,0.8341825604438782,-0.029337381944060326,0.5022988319396973,0.8726432919502258,-0.0015750695019960403,0.005957871675491333,-1.6336138942168901e-15,1.7332366155170206e-15,2.0618427032971916e-16,0.0,0.0,0.0,0.0,0.0,0.0,0.0,0.0,0.0,0.0,0.0,0.0,0.0,PD,1
16.0007,0.15,0.2,0.2,0.14947237792782847,0.19961325795146556,0.2010441590719284,0.0018015960014293592,0.0,-0.003532141131918326,0.9315884709358215,0.37833717465400696,0.8341825604438782,-0.029337381944060326,0.5022988319396973,0.8726432919502258,-0.0009929786901921034,0.005101855844259262,-1.6336138942168901e-15,1.7332366155170206e-15,2.0618427032971916e-16,0.0,0.0,0.0,0.0,0.0,0.0,0.0,0.0,0.0,0.0,0.0,0.0,0.0,PD,1
16.1007,0.15,0.2,0.2,0.14947709603377443,0.1995827327786493,0.20091745098959388,0.001806573352059665,0.0,-0.0030843703812439976,0.931500256061554,0.37884530425071716,0.8341825604438782,-0.029337381944060326,0.5022988319396973,0.8726432919502258,-0.0008560160640627146,0.004725208505988121,-1.6336138942168901e-15,1.7332366155170206e-15,2.0618427032971916e-16,0.0,0.0,0.0,0.0,0.0,0.0,0.0,0.0,0.0,0.0,0.0,0.0,0.0,PD,1
16.2008,0.15,0.2,0.2,0.1494845844046503,0.19955434563110322,0.20081083149768741,0.0017665127293446797,0.0,-0.0027312907499994488,0.9314082264900208,0.3792729079723358,0.8341825604438782,-0.029337381944060326,0.5022988319396973,0.8726432919502258,-0.0008902567205950618,0.004040395841002464,-1.6336138942168901e-15,1.7332366155170206e-15,2.0618427032971916e-16,0.0,0.0,0.0,0.0,0.0,0.0,0.0,0.0,0.0,0.0,0.0,0.0,0.0,PD,1
16.3008,0.15,0.2,0.2,0.14949482627173824,0.1995248604991311,0.20070899740491274,0.0017168987134763836,0.0,-0.0023796568244198874,0.9313046932220459,0.3796813488006592,0.8341825604438782,-0.029337381944060326,0.5022988319396973,0.8726432919502258,-0.0009587379754520953,0.004417042713612318,-1.6336138942168901e-15,1.7332366155170206e-15,2.0618427032971916e-16,0.0,0.0,0.0,0.0,0.0,0.0,0.0,0.0,0.0,0.0,0.0,0.0,0.0,PD,1
16.4008,0.15,0.2,0.2,0.14950577533600976,0.19949951880368588,0.20062916981694906,0.0,0.0018783926643255178,-0.002122266771357989,0.9312087893486023,0.3800015449523926,0.8341825604438782,-0.029337381944060326,0.5022988319396973,0.8726432919502258,-0.0009929786901921034,0.003047417150810361,-1.6336138942168901e-15,1.7332366155170206e-15,2.0618427032971916e-16,0.0,0.0,0.0,0.0,0.0,0.0,0.0,0.0,0.0,0.0,0.0,0.0,0.0,PD,1
16.5007,0.15,0.2,0.2,0.1495164457671147,0.19947301050554614,0.2005431208380847,0.0,0.0019770047212872705,-0.0018148739544320697,0.9311109781265259,0.38034671545028687,0.8341825604438782,-0.029337381944060326,0.5022988319396973,0.8726432919502258,-0.0008902567205950618,0.00308165792375803,-1.6336138942168901e-15,1.7332366155170206e-15,2.0618427032971916e-16,0.0,0.0,0.0,0.0,0.0,0.0,0.0,0.0,0.0,0.0,0.0,0.0,0.0,PD,1
16.6008,0.15,0.2,0.2,0.14951246648274216,0.19946126545561355,0.20046813203616903,0.0,0.0019442961550155957,0.0,0.9310956597328186,0.380651593208313,0.8341883420944214,-0.029337381944060326,0.5022988319396973,0.8726432919502258,4.758098525709073e-16,0.003047417150810361,0.00010272192594129592,1.7332366155170206e-15,2.0618427032971916e-16,0.0,0.0,0.0,0.0,0.0,0.0,0.0,0.0,0.0,0.0,0.0,0.0,0.0,PD,1
16.7007,0.15,0.2,0.2,0.149504734313358,0.19945087367281245,0.20037111766297377,0.0,0.001973901059161981,0.0,0.9310956597328186,0.38105425238609314,0.8342075347900391,-0.029337381944060326,0.5022988319396973,0.8726432919502258,4.758098525709073e-16,0.003834951901808381,0.00020544385188259184,1.7332366155170206e-15,2.0618427032971916e-16,0.0,0.0,0.0,0.0,0.0,0.0,0.0,0.0,0.0,0.0,0.0,0.0,0.0,PD,1
16.8007,0.15,0.2,0.2,0.14950371589679914,0.1994510979085578,0.20033345378740436,0.0,0.0019200361413209133,0.0,0.9310994744300842,0.3812268376350403,0.8342381715774536,-0.029337381944060326,0.5022988319396973,0.8726432919502258,3.4240641980431974e-05,0.001061459886841476,0.000308165792375803,1.7332366155170206e-15,2.0618427032971916e-16,0.0,0.0,0.0,0.0,0.0,0.0,0.0,0.0,0.0,0.0,0.0,0.0,0.0,PD,1
16.9008,0.15,0.2,0.2,0.14950375190774928,0.19945515354528173,0.200312719835287,0.0,0.0018866844078943429,0.0,0.9311090707778931,0.38133421540260315,0.8342726826667786,-0.029337381944060326,0.5022988319396973,0.8726432919502258,0.00010272192594129592,0.0011984225129708648,0.000308165792375803,1.7332366155170206e-15,2.0618427032971916e-16,0.0,0.0,0.0,0.0,0.0,0.0,0.0,0.0,0.0,0.0,0.0,0.0,0.0,PD,1
17.0007,0.15,0.2,0.2,0.14950501351330786,0.1994632710021142,0.20027760930265798,0.0,0.001837964208438042,0.0,0.9311244487762451,0.38152211904525757,0.8343397974967957,-0.029337381944060326,0.5022988319396973,0.8728350400924683,0.00010272192594129592,0.0019517166074365377,0.0006848128396086395,1.7332366155170206e-15,2.0618427032971916e-16,0.0034240642562508583,0.0,0.0,0.0,0.0,0.0,0.0,0.0,0.0,0.0,0.0,0.0,0.0,PD,1
17.1008,0.15,0.2,0.2,0.14951122960010654,0.1994764302012657,0.20025655202655585,0.0,0.0017666982998124914,0.0,0.9311359524726868,0.3816697597503662,0.834429919719696,-0.029337381944060326,0.5022988319396973,0.8730267882347107,0.0001369625679217279,0.001540828961879015,0.0008902567205950618,1.7332366155170206e-15,2.0618427032971916e-16,0.0,0.0,0.0,0.0,0.0,0.0,0.0,0.0,0.0,0.0,0.0,0.0,0.0,PD,1
17.2008,0.15,0.2,0.2,0.14951618949604237,0.19948790144960807,0.2002343008619503,0.0,0.0017349886846600021,0.0,0.9311474561691284,0.38181549310684204,0.8345105051994324,-0.029337381944060326,0.5022988319396973,0.8730267882347107,0.0001369625679217279,0.0013011443661525846,0.0007875347509980202,1.7332366155170206e-15,2.0618427032971916e-16,0.0,0.0,0.0,0.0,0.0,0.0,0.0,0.0,0.0,0.0,0.0,0.0,0.0,PD,1
17.3007,0.15,0.2,0.2,0.14952549112215863,0.1995060059091392,0.20021601317824625,0.0,0.0,0.0,0.9311608672142029,0.3819707930088043,0.8346274495124817,-0.029337381944060326,0.5022988319396973,0.8730267882347107,0.0001369625679217279,0.0017120321281254292,0.001232663169503212,1.7332366155170206e-15,2.0618427032971916e-16,0.0,0.0,0.0,0.0,0.0,0.0,0.0,0.0,0.0,0.0,0.0,0.0,0.0,PD,1
17.4007,0.15,0.2,0.2,0.14953398667315027,0.19951657728396963,0.20020098983406454,0.0,0.0,0.0,0.9311819672584534,0.382087767124176,0.8347079753875732,-0.029529130086302757,0.5022988319396973,0.8734102845191956,0.00023968449386302382,0.0011299411999061704,0.0008560160640627146,-0.0034240642562508583,2.0618427032971916e-16,0.006848128512501717,0.0,0.0,0.0,0.0,0.0,0.0,0.0,0.0,0.0,0.0,0.0,0.0,PD,1
17.5007,0.15,0.2,0.2,0.14953789382354005,0.1995266351175244,0.2001993735172522,0.0,0.0,0.0,0.931193470954895,0.3821318745613098,0.8347616791725159,-0.029529130086302757,0.5022988319396973,0.8734102845191956,0.00010272192594129592,0.000308165792375803,0.0004451283602975309,1.7332366155170206e-15,2.0618427032971916e-16,0.0,0.0,0.0,0.0,0.0,0.0,0.0,0.0,0.0,0.0,0.0,0.0,0.0,PD,1
17.6007,0.15,0.2,0.2,0.1495442091647972,0.1995310648425393,0.20020117437966664,0.0,0.0,0.0,0.9312068819999695,0.3821491301059723,0.8347961902618408,-0.02972087822854519,0.5022988319396973,0.8734102845191956,0.00010272192594129592,0.00017120320990215987,0.00034240641980431974,-0.0034240642562508583,2.0618427032971916e-16,0.0,0.0,0.0,0.0,0.0,0.0,0.0,0.0,0.0,0.0,0.0,0.0,0.0,PD,1
17.7007,0.15,0.2,0.2,0.149544770607544,0.19953901628940307,0.20020462701256855,0.0,0.0,0.0,0.9312241077423096,0.3821567893028259,0.8348268866539001,-0.02972087822854519,0.5022988319396973,0.8734102845191956,0.00017120320990215987,6.848128396086395e-05,0.000308165792375803,1.7332366155170206e-15,2.0618427032971916e-16,0.0,0.0,0.0,0.0,0.0,0.0,0.0,0.0,0.0,0.0,0.0,0.0,0.0,PD,1
17.8008,0.15,0.2,0.2,0.14954127747336282,0.1995413241969214,0.20020806833401972,0.0,0.0,0.0,0.9312413930892944,0.38215872645378113,0.8348479270935059,-0.02972087822854519,0.5023787021636963,0.8734102845191956,0.00017120320990215987,3.4240641980431974e-05,0.00020544385188259184,1.7332366155170206e-15,2.0618427032971916e-16,0.0,0.0,0.0,0.0,0.0,0.0,0.0,0.0,0.0,0.0,0.0,0.0,0.0,PD,1
17.9007,0.15,0.2,0.2,0.14954105586413607,0.19954742650210128,0.20021127886202406,0.0,0.0,0.0,0.9312567114830017,0.38216063380241394,0.8348690271377563,-0.02972087822854519,0.5023787021636963,0.8734102845191956,0.0001369625679217279,3.4240641980431974e-05,0.00020544385188259184,1.7332366155170206e-15,2.0618427032971916e-16,0.0,0.0,0.0,0.0,0.0,0.0,0.0,0.0,0.0,0.0,0.0,0.0,0.0,PD,1
18.0007,0.15,0.2,0.2,0.1495402301045509,0.19955353864357295,0.20021463187764788,0.0,0.0,0.0,0.9312739968299866,0.38216063380241394,0.834888219833374,-0.02972087822854519,0.5023787021636963,0.873602032661438,0.00017120320990215987,2.3711192345232234e-15,0.0001369625679217279,1.7332366155170206e-15,2.0618427032971916e-16,0.0,0.0,0.0,0.0,0.0,0.0,0.0,0.0,0.0,0.0,0.0,0.0,0.0,PD,1
18.1007,0.15,0.2,0.2,0.14953938701121794,0.1995580088401599,0.20021697487342233,0.0,0.0,0.0,0.931287407875061,0.38216063380241394,0.8349016308784485,-0.02972087822854519,0.5023787021636963,0.873602032661438,0.0001369625679217279,2.3711192345232234e-15,0.0001369625679217279,1.7332366155170206e-15,2.0618427032971916e-16,0.0,0.0,0.0,0.0,0.0,0.0,0.0,0.0,0.0,0.0,0.0,0.0,0.0,PD,1
18.2007,0.15,0.2,0.2,0.14953529102329743,0.19955868441959337,0.20021956679494057,0.0,0.0,0.0,0.9313027262687683,0.38216063380241394,0.834915041923523,-0.02972087822854519,0.5024586319923401,0.873602032661438,0.0001369625679217279,2.3711192345232234e-15,0.00017120320990215987,1.7332366155170206e-15,0.001426693401299417,0.0,0.0,0.0,0.0,0.0,0.0,0.0,0.0,0.0,0.0,0.0,0.0,0.0,PD,1
18.3008,0.15,0.2,0.2,0.14953289249462395,0.19956268227436744,0.20022091011636492,0.0,0.0,0.0,0.9313200116157532,0.38216063380241394,0.834922730922699,-0.02972087822854519,0.5024586319923401,0.873602032661438,0.00017120320990215987,2.3711192345232234e-15,6.848128396086395e-05,1.7332366155170206e-15,2.0618427032971916e-16,0.0,0.0,0.0,0.0,0.0,0.0,0.0,0.0,0.0,0.0,0.0,0.0,0.0,PD,1
18.4007,0.15,0.2,0.2,0.14953164768856142,0.19956581556116265,0.20022225345133005,0.0,0.0,0.0,0.9313315153121948,0.38216063380241394,0.834930419921875,-0.02972087822854519,0.5024586319923401,0.873602032661438,0.00010272192594129592,2.3711192345232234e-15,6.848128396086395e-05,1.7332366155170206e-15,2.0618427032971916e-16,0.0,0.0,0.0,0.0,0.0,0.0,0.0,0.0,0.0,0.0,0.0,0.0,0.0,PD,1
18.5007,0.15,0.2,0.2,0.14953001402981206,0.19956922308926117,0.20022358638622956,0.0,0.0,0.0,0.9313449263572693,0.38216063380241394,0.8349380493164062,-0.02972087822854519,0.5024586319923401,0.873602032661438,0.00010272192594129592,2.3711192345232234e-15,6.848128396086395e-05,1.7332366155170206e-15,2.0618427032971916e-16,0.0,0.0,0.0,0.0,0.0,0.0,0.0,0.0,0.0,0.0,0.0,0.0,0.0,PD,1
18.6008,0.15,0.2,0.2,0.14952824774247772,0.19957165526655868,0.200224263272337,0.0,0.0,0.0,0.9313564300537109,0.38216063380241394,0.8349419236183167,-0.02972087822854519,0.5024586319923401,0.873602032661438,0.00010272192594129592,2.3711192345232234e-15,3.4240641980431974e-05,1.7332366155170206e-15,2.0618427032971916e-16,0.0,0.0,0.0,0.0,0.0,0.0,0.0,0.0,0.0,0.0,0.0,0.0,0.0,PD,1
18.7007,0.15,0.2,0.2,0.14952685392838905,0.19957379127349956,0.20022492974817102,0.0,0.0,0.0,0.9313660264015198,0.38216063380241394,0.8349457383155823,-0.02972087822854519,0.5024586319923401,0.873602032661438,0.00010272192594129592,2.3711192345232234e-15,3.4240641980431974e-05,1.7332366155170206e-15,2.0618427032971916e-16,0.0,0.0,0.0,0.0,0.0,0.0,0.0,0.0,0.0,0.0,0.0,0.0,0.0,PD,1
18.8007,0.15,0.2,0.2,0.1495258407461576,0.19957564207248285,0.20022559622733793,0.0,0.0,0.0,0.9313737154006958,0.38216063380241394,0.8349495530128479,-0.02972087822854519,0.5024586319923401,0.873602032661438,6.848128396086395e-05,2.3711192345232234e-15,3.4240641980431974e-05,1.7332366155170206e-15,2.0618427032971916e-16,0.0,0.0,0.0,0.0,0.0,0.0,0.0,0.0,0.0,0.0,0.0,0.0,0.0,PD,1
18.9007,0.15,0.2,0.2,0.14952458691560963,0.19957714436065152,0.20022593988196052,0.0,0.0,0.0,0.931381344795227,0.38216063380241394,0.8349515199661255,-0.02972087822854519,0.5024586319923401,0.873602032661438,6.848128396086395e-05,2.3711192345232234e-15,3.4240641980431974e-05,1.7332366155170206e-15,2.0618427032971916e-16,0.0,0.0,0.0,0.0,0.0,0.0,0.0,0.0,0.0,0.0,0.0,0.0,0.0,PD,1
19.0007,0.15,0.2,0.2,0.14952357369455738,0.19957899514709754,0.20022660636617876,0.0,0.0,0.0,0.9313890337944031,0.38216063380241394,0.8349553346633911,-0.02972087822854519,0.5024586319923401,0.873602032661438,6.848128396086395e-05,2.3711192345232234e-15,3.4240641980431974e-05,1.7332366155170206e-15,2.0618427032971916e-16,0.0,0.0,0.0,0.0,0.0,0.0,0.0,0.0,0.0,0.0,0.0,0.0,0.0,PD,1
19.1007,0.15,0.2,0.2,0.14952333368769705,0.19958026663068168,0.20022727285372993,0.0,0.0,0.0,0.9313928484916687,0.38216063380241394,0.8349591493606567,-0.02972087822854519,0.5024586319923401,0.873602032661438,3.4240641980431974e-05,2.3711192345232234e-15,3.4240641980431974e-05,1.7332366155170206e-15,2.0618427032971916e-16,0.0,0.0,0.0,0.0,0.0,0.0,0.0,0.0,0.0,0.0,0.0,0.0,0.0,PD,1
19.2007,0.15,0.2,0.2,0.14952205977134447,0.19958176685974502,0.20022760609875528,0.0,0.0,0.0,0.9314005374908447,0.38216063380241394,0.8349610567092896,-0.02972087822854519,0.5024586319923401,0.873602032661438,6.848128396086395e-05,2.3711192345232234e-15,-1.6336138942168901e-15,1.7332366155170206e-15,2.0618427032971916e-16,0.0,0.0,0.0,0.0,0.0,0.0,0.0,0.0,0.0,0.0,0.0,0.0,0.0,PD,1
19.3007,0.15,0.2,0.2,0.14952143531831907,0.19958334339723804,0.2002282830052781,0.0,0.0,0.0,0.9314063191413879,0.38216063380241394,0.8349649310112,-0.02972087822854519,0.5024586319923401,0.8734102845191956,3.4240641980431974e-05,2.3711192345232234e-15,3.4240641980431974e-05,1.7332366155170206e-15,2.0618427032971916e-16,-0.0034240642562508583,0.0,0.0,0.0,0.0,0.0,0.0,0.0,0.0,0.0,0.0,0.0,0.0,PD,1
19.4007,0.15,0.2,0.2,0.14952131529975787,0.19958397913701176,0.2002286162528291,0.0,0.0,0.0,0.9314082264900208,0.38216063380241394,0.8349668383598328,-0.02972087822854519,0.5024586319923401,0.8734102845191956,3.4240641980431974e-05,2.3711192345232234e-15,-1.6336138942168901e-15,1.7332366155170206e-15,2.0618427032971916e-16,0.0,0.0,0.0,0.0,0.0,0.0,0.0,0.0,0.0,0.0,0.0,0.0,0.0,PD,1
19.5008,0.15,0.2,0.2,0.14952093462325622,0.19958426432592502,0.2002286162528291,0.0,0.0,0.0,0.9314101338386536,0.38216063380241394,0.8349668383598328,-0.02972087822854519,0.5024586319923401,0.8734102845191956,3.4240641980431974e-05,2.3711192345232234e-15,-1.6336138942168901e-15,1.7332366155170206e-15,2.0618427032971916e-16,0.0,0.0,0.0,0.0,0.0,0.0,0.0,0.0,0.0,0.0,0.0,0.0,0.0,PD,1
19.6008,0.15,0.2,0.2,0.14952081460122196,0.1995849000652281,0.20022894950121323,0.0,0.0,0.0,0.9314120411872864,0.38216063380241394,0.8349687457084656,-0.02972087822854519,0.5024586319923401,0.8734102845191956,4.758098525709073e-16,2.3711192345232234e-15,-1.6336138942168901e-15,1.7332366155170206e-15,2.0618427032971916e-16,0.0,0.0,0.0,0.0,0.0,0.0,0.0,0.0,0.0,0.0,0.0,0.0,0.0,PD,1
19.7008,0.15,0.2,0.2,0.14952095523051157,0.199585886354882,0.20022961600048128,0.0,0.0,0.0,0.9314139485359192,0.38216063380241394,0.8349725604057312,-0.02972087822854519,0.5024586319923401,0.8734102845191956,4.758098525709073e-16,2.3711192345232234e-15,3.4240641980431974e-05,1.7332366155170206e-15,2.0618427032971916e-16,0.0,0.0,0.0,0.0,0.0,0.0,0.0,0.0,0.0,0.0,0.0,0.0,0.0,PD,1
19.8007,0.15,0.2,0.2,0.14952057455037215,0.19958617154310843,0.20022961600048128,0.0,0.0,0.0,0.931415855884552,0.38216063380241394,0.8349725604057312,-0.02972087822854519,0.5024586319923401,0.8734102845191956,4.758098525709073e-16,2.3711192345232234e-15,-1.6336138942168901e-15,1.7332366155170206e-15,2.0618427032971916e-16,0.0,0.0,0.0,0.0,0.0,0.0,0.0,0.0,0.0,0.0,0.0,0.0,0.0,PD,1
19.9007,0.15,0.2,0.2,0.14952057455037215,0.19958617154310843,0.20022961600048128,0.0,0.0,0.0,0.931415855884552,0.38216063380241394,0.8349725604057312,-0.02972087822854519,0.5024586319923401,0.8734102845191956,4.758098525709073e-16,2.3711192345232234e-15,-1.6336138942168901e-15,1.7332366155170206e-15,2.0618427032971916e-16,0.0,0.0,0.0,0.0,0.0,0.0,0.0,0.0,0.0,0.0,0.0,0.0,0.0,PD,1
20.0007,0.15,0.2,0.2,0.1495157296879674,0.1995901460105502,0.20022988487178864,0.0,0.0,0.0,0.9314178228378296,0.38216063380241394,0.8349745273590088,-0.029529130086302757,0.5024586319923401,0.8734102845191956,4.758098525709073e-16,2.3711192345232234e-15,-1.6336138942168901e-15,0.0034240642562508583,2.0618427032971916e-16,0.0,0.0,0.0,0.0,0.0,0.0,0.0,0.0,0.0,0.0,0.0,0.0,0.0,PD,1
20.1007,0.15,0.2,0.2,0.1495157296879674,0.1995901460105502,0.20022988487178864,0.0,0.0,0.0,0.9314178228378296,0.38216063380241394,0.8349745273590088,-0.029529130086302757,0.5024586319923401,0.8734102845191956,4.758098525709073e-16,2.3711192345232234e-15,-1.6336138942168901e-15,1.7332366155170206e-15,2.0618427032971916e-16,0.0,0.0,0.0,0.0,0.0,0.0,0.0,0.0,0.0,0.0,0.0,0.0,0.0,PD,1
20.2007,0.15,0.2,0.2,0.14951560965057553,0.19959078173998784,0.20023021812323855,0.0,0.0,0.0,0.9314197301864624,0.38216063380241394,0.8349764347076416,-0.029529130086302757,0.5024586319923401,0.8734102845191956,4.758098525709073e-16,2.3711192345232234e-15,-1.6336138942168901e-15,1.7332366155170206e-15,2.0618427032971916e-16,0.0,0.0,0.0,0.0,0.0,0.0,0.0,0.0,0.0,0.0,0.0,0.0,0.0,PD,1
20.3007,0.15,0.2,0.2,0.14951560965057553,0.19959078173998784,0.20023021812323855,0.0,0.0,0.0,0.9314197301864624,0.38216063380241394,0.8349764347076416,-0.029529130086302757,0.5024586319923401,0.8734102845191956,4.758098525709073e-16,2.3711192345232234e-15,-1.6336138942168901e-15,1.7332366155170206e-15,2.0618427032971916e-16,0.0,0.0,0.0,0.0,0.0,0.0,0.0,0.0,0.0,0.0,0.0,0.0,0.0,PD,1
20.4007,0.15,0.2,0.2,0.1495152289610989,0.19959106691801848,0.20023021812323855,0.0,0.0,0.0,0.9314216375350952,0.38216063380241394,0.8349764347076416,-0.029529130086302757,0.5024586319923401,0.8734102845191956,3.4240641980431974e-05,2.3711192345232234e-15,-1.6336138942168901e-15,1.7332366155170206e-15,2.0618427032971916e-16,0.0,0.0,0.0,0.0,0.0,0.0,0.0,0.0,0.0,0.0,0.0,0.0,0.0,PD,1
20.5008,0.15,0.2,0.2,0.1495154896109232,0.19959141746918374,0.2002305513755216,0.0,0.0,0.0,0.9314216375350952,0.38216063380241394,0.8349783420562744,-0.029529130086302757,0.5024586319923401,0.8734102845191956,4.758098525709073e-16,2.3711192345232234e-15,3.4240641980431974e-05,1.7332366155170206e-15,2.0618427032971916e-16,0.0,0.0,0.0,0.0,0.0,0.0,0.0,0.0,0.0,0.0,0.0,0.0,0.0,PD,1
20.6008,0.15,0.2,0.2,0.1495154896109232,0.19959141746918374,0.2002305513755216,0.0,0.0,0.0,0.9314216375350952,0.38216063380241394,0.8349783420562744,-0.029529130086302757,0.5024586319923401,0.8734102845191956,4.758098525709073e-16,2.3711192345232234e-15,-1.6336138942168901e-15,1.7332366155170206e-15,2.0618427032971916e-16,0.0,0.0,0.0,0.0,0.0,0.0,0.0,0.0,0.0,0.0,0.0,0.0,0.0,PD,1
20.7007,0.15,0.2,0.2,0.14951575026036815,0.1995917680198388,0.20023088462863792,0.0,0.0,0.0,0.9314216375350952,0.38216063380241394,0.8349802494049072,-0.029529130086302757,0.5024586319923401,0.8734102845191956,4.758098525709073e-16,2.3711192345232234e-15,3.4240641980431974e-05,1.7332366155170206e-15,2.0618427032971916e-16,0.0,0.0,0.0,0.0,0.0,0.0,0.0,0.0,0.0,0.0,0.0,0.0,0.0,PD,1
20.8007,0.15,0.2,0.2,0.14951536956901038,0.19959205319813755,0.2002308846286379,0.0,0.0,0.0,0.931423544883728,0.38216063380241394,0.8349802494049072,-0.029529130086302757,0.5024586319923401,0.8734102845191956,4.758098525709073e-16,2.3711192345232234e-15,-1.6336138942168901e-15,1.7332366155170206e-15,2.0618427032971916e-16,0.0,0.0,0.0,0.0,0.0,0.0,0.0,0.0,0.0,0.0,0.0,0.0,0.0,PD,1
20.9007,0.15,0.2,0.2,0.14951536956901038,0.19959205319813755,0.2002308846286379,0.0,0.0,0.0,0.931423544883728,0.38216063380241394,0.8349802494049072,-0.029529130086302757,0.5024586319923401,0.8734102845191956,4.758098525709073e-16,2.3711192345232234e-15,-1.6336138942168901e-15,1.7332366155170206e-15,2.0618427032971916e-16,0.0,0.0,0.0,0.0,0.0,0.0,0.0,0.0,0.0,0.0,0.0,0.0,0.0,PD,1
21.0007,0.15,0.2,0.2,0.1495156302174076,0.1995924037487799,0.2002312178825873,0.0,0.0,0.0,0.931423544883728,0.38216063380241394,0.83498215675354,-0.029529130086302757,0.5024586319923401,0.8734102845191956,4.758098525709073e-16,2.3711192345232234e-15,-1.6336138942168901e-15,1.7332366155170206e-15,2.0618427032971916e-16,0.0,0.0,0.0,0.0,0.0,0.0,0.0,0.0,0.0,0.0,0.0,0.0,0.0,PD,1
21.1007,0.15,0.2,0.2,0.14951567946061328,0.19959246997574037,0.20023169354061798,0.0,0.0,0.0,0.931423544883728,0.38215872645378113,0.83498215675354,-0.029529130086302757,0.5024586319923401,0.8734102845191956,4.758098525709073e-16,2.3711192345232234e-15,-1.6336138942168901e-15,1.7332366155170206e-15,2.0618427032971916e-16,0.0,0.0,0.0,0.0,0.0,0.0,0.0,0.0,0.0,0.0,0.0,0.0,0.0,PD,1
21.2008,0.15,0.2,0.2,0.1495153980218529,0.19959288864059804,0.20023265228931428,0.0,0.0,0.0,0.9314254522323608,0.3821548819541931,0.83498215675354,-0.029529130086302757,0.5024586319923401,0.8734102845191956,4.758098525709073e-16,-3.4240641980431974e-05,-1.6336138942168901e-15,1.7332366155170206e-15,2.0618427032971916e-16,0.0,0.0,0.0,0.0,0.0,0.0,0.0,0.0,0.0,0.0,0.0,0.0,0.0,PD,1
21.3007,0.15,0.2,0.2,0.1495154472632998,0.19959295486545703,0.20023312794781967,0.0,0.0,0.0,0.9314254522323608,0.3821529746055603,0.83498215675354,-0.029529130086302757,0.5024586319923401,0.8734102845191956,4.758098525709073e-16,-3.4240641980431974e-05,-1.6336138942168901e-15,1.7332366155170206e-15,2.0618427032971916e-16,0.0,0.0,0.0,0.0,0.0,0.0,0.0,0.0,0.0,0.0,0.0,0.0,0.0,PD,1
21.4007,0.15,0.2,0.2,0.14951554651394589,0.1995930883477256,0.20023408669747292,0.0,0.0,0.0,0.9314254522323608,0.3821491301059723,0.83498215675354,-0.029529130086302757,0.5024586319923401,0.8734102845191956,4.758098525709073e-16,-3.4240641980431974e-05,-1.6336138942168901e-15,1.7332366155170206e-15,2.0618427032971916e-16,0.0,0.0,0.0,0.0,0.0,0.0,0.0,0.0,0.0,0.0,0.0,0.0,0.0,PD,1
21.5007,0.15,0.2,0.2,0.14951554651394589,0.1995930883477256,0.20023408669747292,0.0,0.0,0.0,0.9314254522323608,0.3821491301059723,0.83498215675354,-0.029529130086302757,0.5024586319923401,0.8734102845191956,4.758098525709073e-16,2.3711192345232234e-15,-1.6336138942168901e-15,1.7332366155170206e-15,2.0618427032971916e-16,0.0,0.0,0.0,0.0,0.0,0.0,0.0,0.0,0.0,0.0,0.0,0.0,0.0,PD,1
21.6008,0.15,0.2,0.3,0.14951559575376017,0.199593154570389,0.2002345623564529,0.0,0.0,0.22,0.9314254522323608,0.3821472227573395,0.83498215675354,-0.029529130086302757,0.5024586319923401,0.8734102845191956,4.758098525709073e-16,2.3711192345232234e-15,-1.6336138942168901e-15,1.7332366155170206e-15,2.0618427032971916e-16,0.0,0.0,0.0,0.0,0.0,0.0,0.0,0.0,0.0,0.0,0.0,0.0,0.0,PD,1
21.7007,0.15,0.2,0.3,0.14955684860752833,0.19963544286092508,0.20170872407119567,0.0,0.0,0.22,0.9314254522323608,0.37669965624809265,0.8355554938316345,-0.029529130086302757,0.5073322057723999,0.8734102845191956,4.758098525709073e-16,-0.09686677902936935,0.010203711688518524,1.7332366155170206e-15,0.08702830225229263,0.0,0.0,0.0,0.0,0.0,0.0,0.0,0.0,0.0,0.0,0.0,0.0,0.0,PD,1
21.8008,0.15,0.2,0.3,0.14965254327265656,0.19968124046396657,0.20937870984702087,0.0,0.0,0.22,0.9314273595809937,0.3495558798313141,0.8400558233261108,-0.029529130086302757,0.5385710597038269,0.8732185363769531,4.758098525709073e-16,-0.30073556303977966,0.04920380190014839,1.7332366155170206e-15,0.3309928774833679,-0.0034240642562508583,0.0,0.0,0.0,0.0,0.0,0.0,0.0,0.0,0.0,0.0,0.0,0.0,PD,1
21.9008,0.15,0.2,0.3,0.14963613355943167,0.1995595317648293,0.21554851206178366,0.0,0.0,0.22,0.931431233882904,0.3280111253261566,0.8439617156982422,-0.030104372650384903,0.564776599407196,0.8732185363769531,4.758098525709073e-16,-0.19626736640930176,0.04040395841002464,-0.010272192768752575,0.25395143032073975,0.0,0.0,0.0,0.0,0.0,0.0,0.0,0.0,0.0,0.0,0.0,0.0,0.0,PD,1
22.0007,0.15,0.2,0.3,0.14963188131083605,0.19948272521852006,0.22163449117000322,0.0,0.0021944944667259825,0.22,0.931431233882904,0.30782201886177063,0.849137008190155,-0.030104372650384903,0.5917011499404907,0.8732185363769531,4.758098525709073e-16,-0.19773970544338226,0.05403173342347145,1.7317496491781157e-15,0.2553781270980835,0.0,0.0,0.0,0.0,0.0,0.0,0.0,0.0,0.0,0.0,0.0,0.0,0.0,PD,1
22.1007,0.15,0.2,0.3,0.14967413549272152,0.19946492273691172,0.2275380371855105,0.0,0.001961782828850775,0.22,0.931431233882904,0.288687527179718,0.8546746373176575,-0.030296120792627335,0.6159891486167908,0.8732185363769531,4.758098525709073e-16,-0.19332267343997955,0.0580378882586956,-0.0034240642562508583,0.26536497473716736,0.0,0.0,0.0,0.0,0.0,0.0,0.0,0.0,0.0,0.0,0.0,0.0,0.0,PD,1
22.2007,0.15,0.2,0.3,0.14977559373115532,0.199515375086586,0.23367285312930733,0.0,0.0,0.22,0.9314676523208618,0.26988667249679565,0.8617041110992432,-0.03087136335670948,0.6413956880569458,0.8732185363769531,0.0005136096151545644,-0.17740076780319214,0.06930305808782578,-0.0034240642562508583,0.24253788590431213,0.0,0.0,0.0,0.0,0.0,0.0,0.0,0.0,0.0,0.0,0.0,0.0,0.0,PD,1
22.3007,0.15,0.2,0.3,0.14977428896518863,0.1994654474834264,0.23949910596334142,0.0,0.002120571823805692,0.20592687629427087,0.9315404891967773,0.25259485840797424,0.8689406514167786,-0.031063111498951912,0.6672017574310303,0.8732185363769531,0.00020544385188259184,-0.1813042014837265,0.07639086991548538,-0.0034240642562508583,0.27107176184654236,0.0,0.0,0.0,0.0,0.0,0.0,0.0,0.0,0.0,0.0,0.0,0.0,0.0,PD,1
22.4007,0.15,0.2,0.3,0.14979537440872168,0.19942093298501792,0.24566473286713045,0.0,0.0022493070444796898,0.18400780806125439,0.9315558671951294,0.23482561111450195,0.8771398067474365,-0.031254857778549194,0.6934871673583984,0.8732185363769531,4.758098525709073e-16,-0.1666492074728012,0.0783083513379097,1.7307584088715913e-15,0.22113747894763947,0.0,0.0,0.0,0.0,0.0,0.0,0.0,0.0,0.0,0.0,0.0,0.0,0.0,PD,1
22.5007,0.15,0.2,0.3,0.14981619340621516,0.1993933777166948,0.25096057832884305,0.0,0.002260954333183879,0.16634213038733667,0.9315615892410278,0.22039660811424255,0.885080099105835,-0.031254857778549194,0.7167365550994873,0.8732185363769531,0.00010272192594129592,-0.142988920211792,0.08169817179441452,1.7307584088715913e-15,0.23112434148788452,0.0,0.0,0.0,0.0,0.0,0.0,0.0,0.0,0.0,0.0,0.0,0.0,0.0,PD,1
22.6007,0.15,0.2,0.3,0.14989078678530643,0.19947850225391828,0.25577023832992135,0.0,0.0013996194251686689,0.14999450584419693,0.9316383004188538,0.20781220495700836,0.8928496837615967,-0.031254857778549194,0.7360711097717285,0.8732185363769531,0.001061459886841476,-0.12374567985534668,0.07358314096927643,1.7307584088715913e-15,0.19117692112922668,0.0,0.0,0.0,0.0,0.0,0.0,0.0,0.0,0.0,0.0,0.0,0.0,0.0,PD,1
22.7007,0.15,0.2,0.3,0.14991778920671994,0.19948265010562138,0.26019609064318283,0.0,0.0017899853718096603,0.13488783043559857,0.9317054152488708,0.19672729074954987,0.9004812240600586,-0.031446605920791626,0.7554056644439697,0.8732185363769531,0.0004451283602975309,-0.10535845905542374,0.0729668065905571,1.7307584088715913e-15,0.18975022435188293,0.0,0.0,0.0,0.0,0.0,0.0,0.0,0.0,0.0,0.0,0.0,0.0,0.0,PD,1
22.8007,0.15,0.2,0.3,0.1499439235301992,0.19949098353365324,0.2642266143114987,0.0,0.0017398904920543912,0.1211763262414387,0.931738018989563,0.18684269487857819,0.9076181054115295,-0.031446605920791626,0.772423267364502,0.8732185363769531,0.00034240641980431974,-0.09169644117355347,0.06601595878601074,1.7307584088715913e-15,0.13553588092327118,0.0,0.0,0.0,0.0,0.0,0.0,0.0,0.0,0.0,0.0,0.0,0.0,0.0,PD,1
22.9007,0.15,0.2,0.3,0.14999172528011465,0.1995376677455266,0.2677193019989269,0.0,0.0,0.10948975531632757,0.9317763447761536,0.17865507304668427,0.9141969680786133,-0.031446605920791626,0.7868043184280396,0.8732185363769531,0.0004451283602975309,-0.07728113234043121,0.06622140109539032,1.7307584088715913e-15,0.13981595635414124,0.0,0.0,0.0,0.0,0.0,0.0,0.0,0.0,0.0,0.0,0.0,0.0,0.0,PD,1
23.0007,0.15,0.2,0.3,0.15003003277020802,0.19957508651647712,0.27102000039361845,0.0,0.0,0.09812930022764382,0.9318166375160217,0.17106570303440094,0.9205418825149536,-0.031446605920791626,0.800226628780365,0.8732185363769531,0.00047936898772604764,-0.07156294584274292,0.06101682409644127,1.7307584088715913e-15,0.11841555684804916,0.0,0.0,0.0,0.0,0.0,0.0,0.0,0.0,0.0,0.0,0.0,0.0,0.0,PD,1
23.1007,0.15,0.2,0.3,0.1500656646819295,0.1996213741878714,0.2738787925850747,0.0,0.0,0.0885654337607823,0.931839644908905,0.16465558111667633,0.9261946082115173,-0.031254857778549194,0.8115717172622681,0.8732185363769531,0.00023968449386302382,-0.06334518641233444,0.05800364911556244,0.0034240642562508583,0.11841555684804916,0.0,0.0,0.0,0.0,0.0,0.0,0.0,0.0,0.0,0.0,0.0,0.0,0.0,PD,1
23.2007,0.15,0.2,0.3,0.15001956234625632,0.19956376270447918,0.27676419079494086,0.0,0.0,0.0784399340078408,0.931847333908081,0.15810739994049072,0.9317610263824463,-0.03087136335670948,0.8241950869560242,0.8734102845191956,6.848128396086395e-05,-0.05992112308740616,0.052251219749450684,0.006848128512501717,0.13125579059123993,0.0,0.0,0.0,0.0,0.0,0.0,0.0,0.0,0.0,0.0,0.0,0.0,0.0,PD,1
23.3008,0.15,0.2,0.3,0.15007009156199946,0.19963069496421842,0.2789959392670496,0.0,0.0,0.07128246409321773,0.9318530559539795,0.1533980816602707,0.9364703297615051,-0.03067961521446705,0.832584023475647,0.873602032661438,3.4240641980431974e-05,-0.04738904908299446,0.048655953258275986,0.0034240642562508583,0.09273507446050644,0.0,0.0,0.0,0.0,0.0,0.0,0.0,0.0,0.0,0.0,0.0,0.0,0.0,PD,1
23.4007,0.15,0.2,0.3,0.15010904339945882,0.199682973803127,0.28124050966446507,0.0,0.0,0.06341364577695674,0.9318588376045227,0.14859864115715027,0.9411182999610901,-0.030487868934869766,0.8407333493232727,0.873602032661438,3.4240641980431974e-05,-0.043108969926834106,0.04173934459686279,0.0034240642562508583,0.05992112308740616,0.0,0.0,0.0,0.0,0.0,0.0,0.0,0.0,0.0,0.0,0.0,0.0,0.0,PD,1
23.5007,0.15,0.2,0.3,0.15011208999912143,0.1996735887803441,0.2829631940785771,0.0,0.0,0.057906136310867995,0.9318626523017883,0.1449861079454422,0.9447404146194458,-0.030487868934869766,0.8478439450263977,0.873602032661438,3.4240641980431974e-05,-0.034411847591400146,0.037664707750082016,1.7307584088715913e-15,0.07561475038528442,0.0,0.0,0.0,0.0,0.0,0.0,0.0,0.0,0.0,0.0,0.0,0.0,0.0,PD,1
23.6007,0.15,0.2,0.3,0.1500933765259796,0.1996326518581283,0.284823959391982,0.0,0.0,0.051255376814658,0.9318683743476868,0.14126236736774445,0.9488284587860107,-0.030487868934869766,0.8564726114273071,0.873602032661438,3.4240641980431974e-05,-0.036089636385440826,0.03810983523726463,1.7307584088715913e-15,0.07561475038528442,0.0,0.0,0.0,0.0,0.0,0.0,0.0,0.0,0.0,0.0,0.0,0.0,0.0,PD,1
23.7007,0.15,0.2,0.3,0.1501011291031611,0.19964813388796152,0.286203749917542,0.0,0.0,0.046907084763043005,0.9318722486495972,0.13856256008148193,0.9519309401512146,-0.030296120792627335,0.8621451258659363,0.873602032661438,3.4240641980431974e-05,-0.026022888720035553,0.03009752556681633,1.7307584088715913e-15,0.05849443003535271,0.0,0.0,0.0,0.0,0.0,0.0,0.0,0.0,0.0,0.0,0.0,0.0,0.0,PD,1
23.8007,0.15,0.2,0.3,0.15008758418493576,0.19961930891215313,0.28768844520196307,0.0,0.0,0.04160574650870813,0.9318779706954956,0.135536789894104,0.955121636390686,-0.030296120792627335,0.8684568405151367,0.873602032661438,6.848128396086395e-05,-0.02865941822528839,0.030371449887752533,1.7307584088715913e-15,0.06420120596885681,0.0,0.0,0.0,0.0,0.0,0.0,0.0,0.0,0.0,0.0,0.0,0.0,0.0,PD,1
23.9007,0.15,0.2,0.3,0.15007112615639473,0.1996024157331037,0.2888424914076564,0.0,0.0,0.03789723386750929,0.9318798780441284,0.13335470855236053,0.957781195640564,-0.030104372650384903,0.873809814453125,0.873602032661438,3.4240641980431974e-05,-0.02020197920501232,0.0257489625364542,0.0034240642562508583,0.057067736983299255,0.0,0.0,0.0,0.0,0.0,0.0,0.0,0.0,0.0,0.0,0.0,0.0,0.0,PD,1
24.0007,0.15,0.2,0.3,0.1501155151833134,0.19965493062337786,0.2900603059372431,0.0,0.0,0.03357111469006249,0.931881844997406,0.13102112710475922,0.9605692028999329,-0.030104372650384903,0.8778045177459717,0.873602032661438,4.758098525709073e-16,-0.02116071619093418,0.026741942390799522,1.7307584088715913e-15,0.037094030529260635,0.0,0.0,0.0,0.0,0.0,0.0,0.0,0.0,0.0,0.0,0.0,0.0,0.0,PD,1
24.1007,0.15,0.2,0.3,0.15013858515542583,0.1996792420712985,0.2909781671896017,0.0,0.0,0.03065855358403549,0.931881844997406,0.12930116057395935,0.9627052545547485,-0.030104372650384903,0.8811600804328918,0.873602032661438,4.758098525709073e-16,-0.016503989696502686,0.02140040136873722,1.7307584088715913e-15,0.03994741663336754,0.0,0.0,0.0,0.0,0.0,0.0,0.0,0.0,0.0,0.0,0.0,0.0,0.0,PD,1
24.2007,0.15,0.2,0.3,0.15016661047507507,0.19972802582777016,0.2919340637845101,0.0,0.0,0.027274880159306236,0.9318856596946716,0.1274910569190979,0.9649122357368469,-0.02991262450814247,0.8841961026191711,0.873602032661438,3.4240641980431974e-05,-0.01643550768494606,0.02064710669219494,1.7307584088715913e-15,0.01997370831668377,0.0,0.0,0.0,0.0,0.0,0.0,0.0,0.0,0.0,0.0,0.0,0.0,0.0,PD,1
24.3007,0.15,0.2,0.3,0.15015320264163626,0.19972017431734967,0.2926394991153533,0.0,0.0,0.025056317765420166,0.9318875670433044,0.12617184221744537,0.9665459394454956,-0.02972087822854519,0.8873119950294495,0.873602032661438,4.758098525709073e-16,-0.013525053858757019,0.017017599195241928,1.7307584088715913e-15,0.02996056154370308,0.0,0.0,0.0,0.0,0.0,0.0,0.0,0.0,0.0,0.0,0.0,0.0,0.0,PD,1
24.4007,0.15,0.2,0.3,0.15019501687848058,0.19977398698218551,0.29342371208070694,0.0,0.0,0.02223279475217202,0.9318913817405701,0.12469346076250076,0.9683637022972107,-0.02972087822854519,0.8893892765045166,0.873602032661438,4.758098525709073e-16,-0.013319609686732292,0.015990380197763443,1.7307584088715913e-15,0.011413547210395336,0.0,0.0,0.0,0.0,0.0,0.0,0.0,0.0,0.0,0.0,0.0,0.0,0.0,PD,1
24.5007,0.15,0.2,0.3,0.1502046326000352,0.19978386323445363,0.2940428356738692,0.0,0.0,0.020230951548295573,0.9318952560424805,0.12357557564973831,0.9698420763015747,-0.02972087822854519,0.8917860984802246,0.873602032661438,3.4240641980431974e-05,-0.01129941176623106,0.014107144437730312,1.7307584088715913e-15,0.027107175439596176,0.0,0.0,0.0,0.0,0.0,0.0,0.0,0.0,0.0,0.0,0.0,0.0,0.0,PD,1
24.6007,0.15,0.2,0.3,0.15023748555788494,0.1998256150908243,0.2947009254617935,0.0,0.0,0.01788867109579842,0.9318971633911133,0.12231579422950745,0.971343457698822,-0.02972087822854519,0.8934639096260071,0.8734102845191956,3.4240641980431974e-05,-0.011984225362539291,0.01431258860975504,1.7307584088715913e-15,0.002853386802598834,-0.0034240642562508583,0.0,0.0,0.0,0.0,0.0,0.0,0.0,0.0,0.0,0.0,0.0,0.0,PD,1
24.7007,0.15,0.2,0.3,0.15028772647188637,0.19989185080650973,0.29519993163458086,0.0,0.0,0.01630123310617959,0.9318971633911133,0.12140115350484848,0.972532331943512,-0.02972087822854519,0.8941829800605774,0.8734102845191956,4.758098525709073e-16,-0.008731364272534847,0.011402133852243423,1.7307584088715913e-15,0.009986854158341885,0.0,0.0,0.0,0.0,0.0,0.0,0.0,0.0,0.0,0.0,0.0,0.0,0.0,PD,1
24.8007,0.15,0.2,0.3,0.1503158397991016,0.1999276984472766,0.2957235134460916,0.0,0.0,0.014444121127168613,0.9318990707397461,0.12045776098966599,0.9737882614135742,-0.02972087822854519,0.8956210613250732,0.8734102845191956,4.758098525709073e-16,-0.008799845352768898,0.010991246439516544,1.7307584088715913e-15,0.007133467122912407,0.0,0.0,0.0,0.0,0.0,0.0,0.0,0.0,0.0,0.0,0.0,0.0,0.0,PD,1
24.9007,0.15,0.2,0.3,0.1503631655646124,0.19999159067916678,0.2960971415072009,0.0,0.0,0.01328637666368751,0.9319009780883789,0.11979623138904572,0.9747048020362854,-0.02972087822854519,0.8959406614303589,0.8734102845191956,4.758098525709073e-16,-0.006471481639891863,0.009279213845729828,1.7307584088715913e-15,0.002853386802598834,0.0,0.0,0.0,0.0,0.0,0.0,0.0,0.0,0.0,0.0,0.0,0.0,0.0,PD,1
25.0007,0.15,0.2,0.3,0.15039820431921952,0.20003705445853598,0.2965250617263912,0.0,0.0,0.011734363738440445,0.9319009780883789,0.11903882771730423,0.9757479429244995,-0.02972087822854519,0.8968194723129272,0.8734102845191956,4.758098525709073e-16,-0.007122053764760494,0.009655861184000969,1.7307584088715913e-15,0.001426693401299417,0.0,0.0,0.0,0.0,0.0,0.0,0.0,0.0,0.0,0.0,0.0,0.0,0.0,PD,1
25.1007,0.15,0.2,0.3,0.15038346196029106,0.20001557667016018,0.29682671896815527,0.0,0.0,0.01080482636969246,0.9319048523902893,0.11851343512535095,0.9764804244041443,-0.02972087822854519,0.8984972834587097,0.8734102845191956,3.4240641980431974e-05,-0.00486217113211751,0.00722477538511157,1.7307584088715913e-15,0.02996056154370308,0.0,0.0,0.0,0.0,0.0,0.0,0.0,0.0,0.0,0.0,0.0,0.0,0.0,PD,1
25.2007,0.15,0.2,0.3,0.15044176281929156,0.2000940667884542,0.2971878922540645,0.0,0.0,0.009481203824864975,0.9319048523902893,0.11788833886384964,0.977383553981781,-0.02972087822854519,0.8984972834587097,0.8732185363769531,4.758098525709073e-16,-0.006505722180008888,0.009176491759717464,1.7307584088715913e-15,-1.268826370578278e-16,0.0,0.0,0.0,0.0,0.0,0.0,0.0,0.0,0.0,0.0,0.0,0.0,0.0,PD,1
25.3008,0.15,0.2,0.3,0.15048670574730955,0.20015537429676655,0.29749613834240707,0.0,0.0,0.008455269713232655,0.9319067597389221,0.11732268333435059,0.9781179428100586,-0.02972087822854519,0.8984972834587097,0.8732185363769531,4.758098525709073e-16,-0.005067615304142237,0.006916609592735767,1.7307584088715913e-15,-1.268826370578278e-16,0.0,0.0,0.0,0.0,0.0,0.0,0.0,0.0,0.0,0.0,0.0,0.0,0.0,PD,1
25.4007,0.15,0.2,0.3,0.1505242998759086,0.200205987356598,0.2977545476522189,-0.002023020208675355,0.0,0.007600673907421862,0.9319067597389221,0.11684715002775192,0.9787315130233765,-0.02972087822854519,0.8984972834587097,0.8732185363769531,4.758098525709073e-16,-0.004588245879858732,0.00643724063411355,1.7307584088715913e-15,-1.268826370578278e-16,0.0,0.0,0.0,0.0,0.0,0.0,0.0,0.0,0.0,0.0,0.0,0.0,0.0,PD,1
25.5008,0.15,0.2,0.3,0.15055933566289142,0.20025315618343692,0.29801449886479436,-0.0021328537550341503,0.0,0.00668930276064425,0.9319067597389221,0.11634860932826996,0.9793259501457214,-0.02972087822854519,0.8984972834587097,0.8732185363769531,4.758098525709073e-16,-0.004690967965871096,0.0054442621767520905,1.7307584088715913e-15,-1.268826370578278e-16,0.0,0.0,0.0,0.0,0.0,0.0,0.0,0.0,0.0,0.0,0.0,0.0,0.0,PD,1
25.6007,0.15,0.2,0.3,0.15055476597716258,0.20027440366247884,0.29821509112168615,-0.0019188324914248267,0.0,0.006046588817206655,0.9319719672203064,0.11581938713788986,0.9796250462532043,-0.02972087822854519,0.8984972834587097,0.8732185363769531,0.0010272192303091288,-0.005992112681269646,0.0028077326714992523,1.7307584088715913e-15,-1.268826370578278e-16,0.0,0.0,0.0,0.0,0.0,0.0,0.0,0.0,0.0,0.0,0.0,0.0,0.0,PD,1
25.7008,0.15,0.2,0.3,0.15053162995859015,0.2003052963481881,0.29841377581185236,-0.0017450247622034093,0.0,0.005353099968350511,0.932119607925415,0.11528057605028152,0.9799050092697144,-0.02972087822854519,0.8984972834587097,0.8732185363769531,0.0013011443661525846,-0.00465672742575407,0.0028419734444469213,1.7307584088715913e-15,-1.268826370578278e-16,0.0,0.0,0.0,0.0,0.0,0.0,0.0,0.0,0.0,0.0,0.0,0.0,0.0,PD,1
25.8008,0.15,0.2,0.3,0.15050924314628902,0.20032631714000776,0.2985648677086341,-0.0016704169505059596,0.0,0.004871871122998833,0.9322039484977722,0.11484914273023605,0.980094850063324,-0.029529130086302757,0.8984972834587097,0.8732185363769531,0.0007190534961409867,-0.004108876921236515,0.0019859573803842068,1.7307584088715913e-15,-1.268826370578278e-16,0.0,0.0,0.0,0.0,0.0,0.0,0.0,0.0,0.0,0.0,0.0,0.0,0.0,PD,1
25.9007,0.15,0.2,0.3,0.1504945526877788,0.20034280978063213,0.29870718516591993,0.0,0.0,0.004382534461994381,0.932290256023407,0.11444839090108871,0.9802789092063904,-0.029529130086302757,0.8984972834587097,0.8732185363769531,0.0008217754075303674,-0.003937673754990101,0.001369625679217279,1.7307584088715913e-15,-1.268826370578278e-16,0.0,0.0,0.0,0.0,0.0,0.0,0.0,0.0,0.0,0.0,0.0,0.0,0.0,PD,1
26.0007,0.15,0.2,0.3,0.150491853806287,0.20036175363504927,0.2988278542106427,0.0,0.0,0.0039818412180278595,0.9323439598083496,0.11415501683950424,0.9804859757423401,-0.029529130086302757,0.8984972834587097,0.8732185363769531,0.00047936898772604764,-0.0026707700453698635,0.0023626042529940605,1.7307584088715913e-15,-1.268826370578278e-16,0.0,0.0,0.0,0.0,0.0,0.0,0.0,0.0,0.0,0.0,0.0,0.0,0.0,PD,1
26.1008,0.15,0.2,0.3,0.15050920826740372,0.20039238347051397,0.29895078734431896,-0.0018690012414966511,0.0,0.0035493111612073247,0.9323611855506897,0.11395559459924698,0.9808062314987183,-0.029529130086302757,0.8984972834587097,0.8732185363769531,3.4240641980431974e-05,-0.0016093101585283875,0.0034240642562508583,1.7307584088715913e-15,-1.268826370578278e-16,0.0,0.0,0.0,0.0,0.0,0.0,0.0,0.0,0.0,0.0,0.0,0.0,0.0,PD,1
26.2008,0.15,0.2,0.3,0.15051000910421866,0.20039269288819805,0.2990404510527711,-0.0017890360488400647,0.0,0.0032687576068489432,0.9323611855506897,0.11381370574235916,0.9810401797294617,-0.029529130086302757,0.8988967537879944,0.8732185363769531,4.758098525709073e-16,-0.0015065883053466678,0.001677791471593082,1.7307584088715913e-15,0.007133467122912407,0.0,0.0,0.0,0.0,0.0,0.0,0.0,0.0,0.0,0.0,0.0,0.0,0.0,PD,1
26.3007,0.15,0.2,0.3,0.15047249998674658,0.20038185920672225,0.29916039381907844,0.0,0.0,0.002818678866918084,0.9324570894241333,0.1134091168642044,0.9811187982559204,-0.029529130086302757,0.89921635389328,0.8732185363769531,0.0014381069922819734,-0.004588245879858732,0.0007532941526733339,1.7307584088715913e-15,0.002853386802598834,0.0,0.0,0.0,0.0,0.0,0.0,0.0,0.0,0.0,0.0,0.0,0.0,0.0,PD,1
26.4007,0.15,0.2,0.3,0.15044442890629678,0.20039884507645808,0.29923194099041023,0.0,0.0,0.0026166593622323764,0.9325874447822571,0.11318285763263702,0.9811839461326599,-0.029529130086302757,0.89921635389328,0.8732185363769531,0.0007532941526733339,-0.0015065883053466678,0.000924497377127409,1.7307584088715913e-15,-1.268826370578278e-16,0.0,0.0,0.0,0.0,0.0,0.0,0.0,0.0,0.0,0.0,0.0,0.0,0.0,PD,1
26.5007,0.15,0.2,0.3,0.15045095309192286,0.20041445049980722,0.2993103513741367,0.0,0.0,0.0023353598067950565,0.9326047301292419,0.11310040205717087,0.9814351797103882,-0.029529130086302757,0.8994560241699219,0.8734102845191956,4.758098525709073e-16,-0.0007190534961409867,0.0028419734444469213,1.7307584088715913e-15,0.002853386802598834,0.0,0.0,0.0,0.0,0.0,0.0,0.0,0.0,0.0,0.0,0.0,0.0,0.0,PD,1
26.6007,0.15,0.2,0.3,0.15044752385394178,0.2004089040062152,0.29938121316935506,0.0,0.0,0.0020948921120388653,0.9326047301292419,0.11300452798604965,0.9816364645957947,-0.029529130086302757,0.8999354243278503,0.8734102845191956,4.758098525709073e-16,-0.0009587379754520953,0.0017462727846577764,1.7307584088715913e-15,0.005706773605197668,0.0,0.0,0.0,0.0,0.0,0.0,0.0,0.0,0.0,0.0,0.0,0.0,0.0,PD,1
