Jose05M/robotics_control_challenge/PD_CTC_Controller_csv/PD_sin_perturbaciones.csv
time,x_d,y_d,z_d,x,y,z,vx_cmd,vy_cmd,vz_cmd,q1,q2,q3,q4,q5,q6,qd1,qd2,qd3,qd4,qd5,qd6,qref1,qref2,qref3,qref4,qref5,qref6,cmd1,cmd2,cmd3,cmd4,cmd5,cmd6,mode,perturbation
1.6007,0.15,0.2,0.3,0.228143739163421,0.219377542151681,0.30081783993368,-0.22,-0.16470910828929,-0.00368027970155979,0.770399689674377,0.420140087604523,1.36437237262726,-0.0285703931003809,0.953145325183868,0.784631192684174,4.75809852570907E-16,2.30767794908153E-15,-1.68119491123772E-15,1.73174964917812E-15,2.06184270329719E-16,0,0,0,0,0,0,0,0,0,0,0,0,0,PD,0
1.7007,0.15,0.2,0.3,0.227836848680974,0.21909490953073,0.300809171606183,-0.22,-0.0654190202527994,-0.0028234322941445,0.770434200763702,0.41831848025322,1.36188161373138,-0.0285703931003809,0.953145325183868,0.784631192684174,0.000616331584751606,-0.0325286090373993,-0.0444785952568054,1.73174964917812E-15,2.06184270329719E-16,0,0,0,0,0,0,0,0,0,0,0,0,0,PD,0
1.8007,0.15,0.2,0.3,0.221601394919426,0.215124975097529,0.300898708621257,-0.21942761341025,-0.0330877406753448,-0.00323501718947286,0.775327563285828,0.383021593093872,1.31523513793945,-0.029145635664463,0.941880166530609,0.787315666675568,0.0728640854358673,-0.422529518604279,-0.548808991909027,-0.0273925140500069,-0.148376122117043,0.0479369014501572,0,0,0,0,0,0,0,0,0,0,0,0,PD,0
1.9007,0.15,0.2,0.3,0.215014777085803,0.213616702749883,0.300703074119881,-0.194618630632194,-0.0401170978863617,-0.00226512491820993,0.787114322185516,0.3558030128479,1.27877819538116,-0.0301043726503849,0.933571100234985,0.799587488174439,0.118678070604801,-0.198458760976791,-0.268069982528687,-0.0205443855375051,-0.0756147503852844,0.123266316950321,0,0,0,0,0,0,0,0,0,0,0,0,PD,0
2.0007,0.15,0.2,0.3,0.209517564002165,0.213099173084914,0.300573862564844,-0.180825408589394,-0.0432594574723547,-0.00187930742191442,0.798640251159668,0.335552543401718,1.25210797786713,-0.0285703931003809,0.926939845085144,0.8095583319664,0.112446270883083,-0.222940817475319,-0.279780298471451,1.72976716856507E-15,-0.0713346749544144,0.0992978662252426,0,0,0,0,0,0,0,0,0,0,0,0,PD,0
2.1007,0.15,0.2,0.3,0.204058893157014,0.211715677307338,0.300556649618972,-0.161912771823788,-0.0340873916878013,-0.00193106072053073,0.808639883995056,0.313041388988495,1.22336506843567,-0.0285703931003809,0.922146141529083,0.81742000579834,0.0921758115291595,-0.214380666613579,-0.266015559434891,1.72976716856507E-15,-0.0470808818936348,0.0719053521752358,0,0,0,0,0,0,0,0,0,0,0,0,PD,0
2.2007,0.15,0.2,0.3,0.199340986161385,0.210629292646737,0.300538897968724,-0.149103916586708,-0.0317706009605758,-0.00186839124028756,0.817803502082825,0.293820589780807,1.19913196563721,-0.0285703931003809,0.917352497577667,0.825089931488037,0.09625044465065,-0.194692298769951,-0.236637085676193,1.72976716856507E-15,-0.0399474166333675,0.0719053521752358,0,0,0,0,0,0,0,0,0,0,0,0,PD,0
2.3007,0.15,0.2,0.3,0.194883608396758,0.209674131372362,0.300435845399215,-0.134805740565512,-0.0290836534313917,0,0.826869308948517,0.276383072137833,1.17702734470367,-0.0285703931003809,0.913597404956818,0.832376301288605,0.087313637137413,-0.159184753894806,-0.203355178236961,1.72976716856507E-15,-0.0370940305292606,0.0684812888503075,0,0,0,0,0,0,0,0,0,0,0,0,PD,0
2.4007,0.15,0.2,0.3,0.191031222774464,0.208814530939455,0.300412716006502,-0.124347351599152,-0.0265528561235575,0,0.834817290306091,0.261150628328323,1.15820729732513,-0.0285703931003809,0.910641312599182,0.839279234409332,0.0809448808431625,-0.152405098080635,-0.191062778234482,1.72976716856507E-15,-0.0299605615437031,0.075329415500164,0,0,0,0,0,0,0,0,0,0,0,0,PD,0
2.5007,0.15,0.2,0.3,0.187253158966671,0.207947650019069,0.300459396261462,-0.111495737344382,-0.0234823704648115,0,0.842738389968872,0.246345803141594,1.14039194583893,-0.0285703931003809,0.909043431282043,0.844072937965393,0.0770414471626282,-0.136962577700615,-0.168429717421532,1.72976716856507E-15,-0.0114135472103953,0.0410887710750103,0,0,0,0,0,0,0,0,0,0,0,0,PD,0
2.6007,0.15,0.2,0.3,0.18404021384595,0.20721976837459,0.300552555873045,-0.103076022857226,-0.0216297810886671,-0.00202710516724006,0.849637448787689,0.233527481555939,1.12534368038178,-0.0285703931003809,0.907205820083618,0.849633634090424,0.0722477585077286,-0.12888178229332,-0.153672009706497,1.72976716856507E-15,-0.0171203222125769,0.0513609647750855,0,0,0,0,0,0,0,0,0,0,0,0,PD,0
2.7008,0.15,0.2,0.3,0.181029644198832,0.206535302725459,0.300526552701771,-0.093550906460323,-0.0194512312934513,-0.00181693128492597,0.856222033500671,0.222112745046616,1.11158192157745,-0.0285703931003809,0.906486749649048,0.853085041046143,0.0648860186338425,-0.110905438661575,-0.135010853409767,1.72976716856507E-15,-0.00713346712291241,0.0342406444251537,0,0,0,0,0,0,0,0,0,0,0,0,PD,0
2.8007,0.15,0.2,0.3,0.178393974374495,0.205945617639936,0.300525716605175,-0.0862005611890456,-0.0178612363121639,-0.00183917202151482,0.862106800079346,0.211990386247635,1.09956705570221,-0.0285703931003809,0.905448138713837,0.857111752033234,0.0604689754545689,-0.100427806377411,-0.120116174221039,1.72976716856507E-15,-0.00856016110628843,0.0410887710750103,0,0,0,0,0,0,0,0,0,0,0,0,PD,0
2.9007,0.15,0.2,0.3,0.175798657410472,0.205370108509921,0.300508620856474,-0.0773187161165408,-0.015917834134645,-0.00176307724895938,0.868006885051727,0.2021614164114,1.08791065216064,-0.0285703931003809,0.904649198055267,0.859796226024628,0.0584145374596119,-0.0920388475060463,-0.110289111733437,1.72976716856507E-15,-0.00856016110628843,0.0136962570250034,0,0,0,0,0,0,0,0,0,0,0,0,PD,0
3.0008,0.15,0.2,0.3,0.173432737134983,0.204794341667228,0.300468433018067,-0.0701849785949894,-0.0139013616218319,0,0.873347043991089,0.193289250135422,1.07734727859497,-0.0285703931003809,0.904569268226624,0.863822937011719,0.0543056577444077,-0.0877930074930191,-0.104125797748566,1.72976716856507E-15,-0.00142669340129942,0.0308165792375803,0,0,0,0,0,0,0,0,0,0,0,0,PD,0
3.1007,0.15,0.2,0.3,0.171195096772658,0.204312356130105,0.300399145904373,-0.0629946368926809,-0.0126833187697568,0,0.878616273403168,0.184957817196846,1.0673553943634,-0.0285703931003809,0.903610587120056,0.865356922149658,0.0506076700985432,-0.0787192359566689,-0.0934769511222839,1.72976716856507E-15,-0.00570677360519767,0.0205443855375051,0,0,0,0,0,0,0,0,0,0,0,0,PD,0
3.2007,0.15,0.2,0.3,0.169399082518718,0.203898923270142,0.300443197307272,-0.0589167175458154,-0.0115790671456843,0,0.882836639881134,0.178106680512428,1.05961835384369,-0.0285703931003809,0.903530657291412,0.86784964799881,0.0431089699268341,-0.0687552094459534,-0.0780344232916832,1.72976716856507E-15,2.06184270329719E-16,0.0205443855375051,0,0,0,0,0,0,0,0,0,0,0,0,PD,0
3.3007,0.15,0.2,0.3,0.167498646622948,0.203472834467412,0.300499110184868,-0.0517430837014664,-0.0100244766222912,0,0.887381017208099,0.17090080678463,1.05156493186951,-0.0285703931003809,0.903530657291412,0.869191884994507,0.0420817509293556,-0.0697481855750084,-0.0734804198145866,1.72976716856507E-15,2.06184270329719E-16,0.0102721927687526,0,0,0,0,0,0,0,0,0,0,0,0,PD,0
3.4007,0.15,0.2,0.3,0.166037312772565,0.2031498116356,0.300451288328099,-0.0488239254520583,-0.009409226565536,0,0.890922605991364,0.165635406970978,1.04532158374786,-0.0285703931003809,0.903530657291412,0.870917618274689,0.035747230052948,-0.050710391253233,-0.0623522102832794,1.72976716856507E-15,2.06184270329719E-16,0.0273925140500069,0,0,0,0,0,0,0,0,0,0,0,0,PD,0
3.5007,0.15,0.2,0.3,0.164532894878123,0.202803832194685,0.300528865215221,-0.0433430426012235,-0.0080835154768229,-0.001928605140394,0.894569635391235,0.159813955426216,1.03901505470276,-0.0285703931003809,0.903530657291412,0.871109366416931,0.0335215888917446,-0.0542371794581413,-0.057832445949316,1.72976716856507E-15,2.06184270329719E-16,0.00342406425625086,0,0,0,0,0,0,0,0,0,0,0,0,PD,0
3.6007,0.15,0.2,0.3,0.163301793126806,0.202549791629264,0.300514442865852,-0.0404007671872339,-0.00765406787532408,-0.00178612768111125,0.897649109363556,0.15537691116333,1.03390693664551,-0.0285703931003809,0.903530657291412,0.871684610843658,0.0321519635617733,-0.0425268784165382,-0.0523539409041405,1.72976716856507E-15,2.06184270329719E-16,0.0102721927687526,0,0,0,0,0,0,0,0,0,0,0,0,PD,0
3.7007,0.15,0.2,0.3,0.162039372368582,0.202245073410502,0.300483308974292,-0.0358256994989198,-0.00633416584294198,0,0.900761187076569,0.150717452168465,1.02849006652832,-0.0287621393799782,0.903530657291412,0.871684610843658,0.0279403645545244,-0.0432116910815239,-0.0499570965766907,-0.00342406425625086,2.06184270329719E-16,0,0,0,0,0,0,0,0,0,0,0,0,0,PD,0
3.8007,0.15,0.2,0.3,0.161011042606089,0.202052813540352,0.300508071427099,-0.0333970003088462,-0.00622354804048561,-0.00180301244765341,0.903418838977814,0.146984115242958,1.0243809223175,-0.0287621393799782,0.903530657291412,0.871684610843658,0.0284539740532637,-0.0392397753894329,-0.0414996594190598,1.72976716856507E-15,2.06184270329719E-16,0,0,0,0,0,0,0,0,0,0,0,0,0,PD,0
3.9008,0.15,0.2,0.3,0.159985222732964,0.201814499397989,0.300479738008705,-0.0298191801997453,-0.00515917718114337,0,0.905974805355072,0.143245041370392,1.02004539966583,-0.0287621393799782,0.903530657291412,0.871876358985901,0.0227357875555754,-0.0348227322101593,-0.0413284562528133,1.72976716856507E-15,2.06184270329719E-16,0,0,0,0,0,0,0,0,0,0,0,0,0,PD,0
4.0008,0.15,0.2,0.3,0.159135866488889,0.201629072266652,0.300451522014782,-0.0277287514907347,-0.00477461727659612,0,0.908131957054138,0.140207767486572,1.01650965213776,-0.0287621393799782,0.903530657291412,0.871876358985901,0.0226330645382404,-0.0304741710424423,-0.0359184332191944,1.72976716856507E-15,2.06184270329719E-16,0,0,0,0,0,0,0,0,0,0,0,0,0,PD,0
4.1007,0.15,0.2,0.3,0.158260866525421,0.201486796655713,0.300469257419435,-0.0245380330216384,-0.00449241024030447,0,0.91048276424408,0.137124463915825,1.01313102245331,-0.0287621393799782,0.903530657291412,0.871876358985901,0.0206813476979733,-0.0305426530539989,-0.0309193003922701,1.72976716856507E-15,2.06184270329719E-16,0,0,0,0,0,0,0,0,0,0,0,0,0,PD,0
4.2007,0.15,0.2,0.3,0.157592216814487,0.201323554846512,0.300496108030281,-0.0232295102960314,-0.00381623291678373,0,0.912156760692596,0.134532034397125,1.01034879684448,-0.0287621393799782,0.903530657291412,0.871876358985901,0.0163670275360346,-0.0259544067084789,-0.0272555518895388,1.72976716856507E-15,2.06184270329719E-16,0,0,0,0,0,0,0,0,0,0,0,0,0,PD,0
4.3008,0.15,0.2,0.3,0.156852543545282,0.201182979483808,0.300482681370115,-0.0202855360624608,-0.0034375513798089,0,0.914112567901611,0.131935775279999,1.00739204883575,-0.0287621393799782,0.903530657291412,0.871876358985901,0.0189350750297308,-0.0251668728888035,-0.0270158667117357,1.72976716856507E-15,2.06184270329719E-16,0,0,0,0,0,0,0,0,0,0,0,0,0,PD,0
4.4008,0.15,0.2,0.3,0.156268751207381,0.201074257044877,0.300456288525377,-0.0190216675363266,-0.00321628746241724,0,0.915667653083801,0.12994159758091,1.00505459308624,-0.0287621393799782,0.903530657291412,0.871876358985901,0.0157506950199604,-0.0203731823712587,-0.0232151560485363,1.72976716856507E-15,2.06184270329719E-16,0,0,0,0,0,0,0,0,0,0,0,0,0,PD,0
4.5007,0.15,0.2,0.3,0.155712661363385,0.20096014010026,0.300491323769864,-0.0172138655518726,-0.00278990562782334,0,0.91712874174118,0.12783046066761,1.00285911560059,-0.0287621393799782,0.903530657291412,0.871684610843658,0.0140386633574963,-0.0206128675490618,-0.0213661603629589,1.72976716856507E-15,2.06184270329719E-16,-0.00342406425625086,0,0,0,0,0,0,0,0,0,0,0,0,PD,0
4.6007,0.15,0.2,0.3,0.155253584185413,0.200864332978203,0.300483895609697,-0.0160921587590838,-0.00254612981342825,0,0.91833484172821,0.126187175512314,1.00100111961365,-0.0287621393799782,0.903530657291412,0.871684610843658,0.0123266316950321,-0.0169148780405521,-0.0182502623647451,1.72976716856507E-15,2.06184270329719E-16,0,0,0,0,0,0,0,0,0,0,0,0,0,PD,0
4.7007,0.15,0.2,0.3,0.154751363435938,0.200768229473308,0.300480128949985,-0.0141186682784071,-0.0022082856321001,0,0.91967898607254,0.124409675598145,0.999012649059296,-0.0287621393799782,0.903530657291412,0.871684610843658,0.0123608717694879,-0.0161958243697882,-0.0190720371901989,1.72976716856507E-15,2.06184270329719E-16,0,0,0,0,0,0,0,0,0,0,0,0,0,PD,0
4.8007,0.15,0.2,0.3,0.154370267271044,0.200696636093344,0.300503347676684,-0.0133904546241864,-0.00208025942688689,-0.00178493559509527,0.92070484161377,0.122990742325783,0.997541964054108,-0.0287621393799782,0.903530657291412,0.871492862701416,0.0101694706827402,-0.0140729043632746,-0.0145522728562355,1.72976716856507E-15,2.06184270329719E-16,-0.00342406425625086,0,0,0,0,0,0,0,0,0,0,0,0,PD,0
4.9008,0.15,0.2,0.3,0.153956570353927,0.200618799985591,0.300519724651922,-0.0117795116531611,-0.00177661941080108,-0.00183541325696365,0.921820819377899,0.1214759349823,0.995937049388886,-0.0287621393799782,0.903530657291412,0.871492862701416,0.0102721927687526,-0.0145522728562355,-0.0153740486130118,1.72976716856507E-15,2.06184270329719E-16,0,0,0,0,0,0,0,0,0,0,0,0,0,PD,0
5.0007,0.15,0.2,0.3,0.153628715591305,0.200550334368952,0.300469505636852,-0.0110612307564586,-0.00158384220813386,0,0.922691345214844,0.120457760989666,0.994590938091278,-0.0287621393799782,0.903610587120056,0.871492862701416,0.00890256743878126,-0.00996402744203806,-0.0136620160192251,1.72976716856507E-15,2.06184270329719E-16,0,0,0,0,0,0,0,0,0,0,0,0,0,PD,0
5.1007,0.15,0.2,0.3,0.153225964779848,0.20046148417399,0.300397301455532,-0.00927712267218016,0,0,0.923751711845398,0.119215235114098,0.992901682853699,-0.0287621393799782,0.903690457344055,0.871492862701416,0.0109570054337382,-0.0129772033542395,-0.0179420970380306,1.72976716856507E-15,0.00142669340129942,0,0,0,0,0,0,0,0,0,0,0,0,0,PD,0
5.2008,0.15,0.2,0.3,0.152912504656058,0.200421876177954,0.300390326230344,-0.00862646567725489,0,0,0.924649119377136,0.118197053670883,0.991747319698334,-0.0287621393799782,0.903690457344055,0.871492862701416,0.00818351376801729,-0.00965586118400097,-0.00972434226423502,1.72976716856507E-15,2.06184270329719E-16,0,0,0,0,0,0,0,0,0,0,0,0,0,PD,0
5.3007,0.15,0.2,0.3,0.152651792418853,0.200412961877779,0.300401441066438,-0.00797771227995907,0,0,0.925454437732697,0.117414727807045,0.990932404994965,-0.0287621393799782,0.903770327568054,0.871492862701416,0.00869712326675653,-0.00821775384247303,-0.00873136427253485,1.72976716856507E-15,0.00142669340129942,0,0,0,0,0,0,0,0,0,0,0,0,0,PD,0
5.4007,0.15,0.2,0.3,0.152388425259259,0.20040746510662,0.300405674621311,-0.00704265260943744,0,0,0.926277041435242,0.11663430929184,0.990090668201447,-0.0287621393799782,0.903770327568054,0.871301114559174,0.00780686642974615,-0.00756718218326569,-0.00784110743552446,1.72976716856507E-15,2.06184270329719E-16,0,0,0,0,0,0,0,0,0,0,0,0,0,PD,0
5.5007,0.15,0.2,0.3,0.152168994283862,0.200400578575824,0.300419472858398,-0.00649432511653593,0,0,0.926957726478577,0.115945935249329,0.989392697811127,-0.0287621393799782,0.903770327568054,0.871301114559174,0.00722477538511157,-0.00729325693100691,-0.00708781322464347,1.72976716856507E-15,2.06184270329719E-16,0,0,0,0,0,0,0,0,0,0,0,0,0,PD,0
5.6007,0.15,0.2,0.3,0.15194906230794,0.200404783807636,0.300419487098246,-0.00572205819817782,0,0,0.927667200565338,0.11533809453249,0.988723456859589,-0.0287621393799782,0.903770327568054,0.871301114559174,0.00612907484173775,-0.00558122480288148,-0.00619755638763309,1.72976716856507E-15,2.06184270329719E-16,0,0,0,0,0,0,0,0,0,0,0,0,0,PD,0
5.7007,0.15,0.2,0.3,0.151770267589809,0.200415389156031,0.300434278285554,-0.00530196297367962,0,0,0.928261637687683,0.114828050136566,0.98822683095932,-0.0287621393799782,0.903770327568054,0.871301114559174,0.00578666850924492,-0.00506761530414224,-0.00482793059200048,1.72976716856507E-15,2.06184270329719E-16,0,0,0,0,0,0,0,0,0,0,0,0,0,PD,0
5.8007,0.15,0.2,0.3,0.151599132131423,0.200421534117336,0.300429183059048,-0.00474128516804821,0,0,0.928821504116058,0.114381276071072,0.987712979316711,-0.0287621393799782,0.903770327568054,0.871301114559174,0.00520457746461034,-0.00414311792701483,-0.00486217113211751,1.72976716856507E-15,2.06184270329719E-16,0,0,0,0,0,0,0,0,0,0,0,0,0,PD,0
5.9007,0.15,0.2,0.3,0.151453436077381,0.200422949755357,0.30043161230477,-0.00435854600062317,0,0,0.929289400577545,0.113967105746269,0.987268090248108,-0.0287621393799782,0.903770327568054,0.871301114559174,0.00465672742575407,-0.00380071136169136,-0.00451976479962468,1.72976716856507E-15,2.06184270329719E-16,0,0,0,0,0,0,0,0,0,0,0,0,0,PD,0
6.0007,0.15,0.2,0.3,0.151309871415675,0.200431091660078,0.300432321604925,-0.00386672664633339,0,0,0.929766833782196,0.113589361310005,0.986855864524841,-0.0287621393799782,0.903770327568054,0.871301114559174,0.00434856163337827,-0.00366374873556197,-0.00386919267475605,1.72976716856507E-15,2.06184270329719E-16,0,0,0,0,0,0,0,0,0,0,0,0,0,PD,0
6.1007,0.15,0.2,0.3,0.151195093573634,0.200434232693129,0.300432883318872,-0.00360893829751067,0,0,0.930140733718872,0.113274894654751,0.986512660980225,-0.0287621393799782,0.903770327568054,0.871301114559174,0.00376647058874369,-0.00287621398456395,-0.00304741715081036,1.72976716856507E-15,2.06184270329719E-16,0,0,0,0,0,0,0,0,0,0,0,0,0,PD,0
6.2007,0.15,0.2,0.3,0.151087344410515,0.200429020938234,0.30042430597791,-0.0032669596212128,0,0,0.930472493171692,0.112975768744946,0.98614639043808,-0.0287621393799782,0.903770327568054,0.871301114559174,0.00301317661069334,-0.00287621398456395,-0.00315013900399208,1.72976716856507E-15,2.06184270329719E-16,0,0,0,0,0,0,0,0,0,0,0,0,0,PD,0
6.3007,0.15,0.2,0.3,0.150993850911433,0.200426751069023,0.300424801461112,-0.00301101069460533,0,0,0.930765867233276,0.112701565027237,0.985847294330597,-0.0287621393799782,0.903770327568054,0.871301114559174,0.00304741715081036,-0.00256804819218814,-0.00294469529762864,1.72976716856507E-15,2.06184270329719E-16,0,0,0,0,0,0,0,0,0,0,0,0,0,PD,0
6.4007,0.15,0.2,0.3,0.150904651183344,0.200420525882612,0.300427672215167,-0.00272028050125728,0,0,0.931036233901978,0.112417779862881,0.985548138618469,-0.0287621393799782,0.903770327568054,0.871301114559174,0.00249956687912345,-0.00304741715081036,-0.00267077004536986,1.72976716856507E-15,2.06184270329719E-16,0,0,0,0,0,0,0,0,0,0,0,0,0,PD,0
6.5007,0.15,0.2,0.3,0.150829968839381,0.200418435545161,0.30041840152918,-0.00253147921802165,0,0,0.931270122528076,0.112226031720638,0.985296964645386,-0.0287621393799782,0.903770327568054,0.871301114559174,0.00256804819218814,-0.00215716054663062,-0.00273925135843456,1.72976716856507E-15,2.06184270329719E-16,0,0,0,0,0,0,0,0,0,0,0,0,0,PD,0
6.6007,0.15,0.2,0.3,0.150750805690522,0.200408703157409,0.300426500656196,-0.00223200417252936,0,0,0.931500256061554,0.111942246556282,0.985020816326141,-0.0287621393799782,0.903770327568054,0.871492862701416,0.00195171660743654,-0.00270501081831753,-0.00246532633900642,1.72976716856507E-15,2.06184270329719E-16,0.00342406425625086,0,0,0,0,0,0,0,0,0,0,0,0,PD,0
6.7007,0.15,0.2,0.3,0.150699970561583,0.200403975227311,0.300433636226341,-0.002195721320847,0,0,0.931651711463928,0.111760087311268,0.984852075576782,-0.0287621393799782,0.903770327568054,0.871876358985901,0.00164355081506073,-0.00160931015852839,-0.00143810699228197,1.72976716856507E-15,2.06184270329719E-16,0,0,0,0,0,0,0,0,0,0,0,0,0,PD,0
6.8007,0.15,0.2,0.3,0.150634793084907,0.200387545038109,0.300422869948545,-0.00189588841379697,0,0,0.931858837604523,0.111545331776142,0.984568297863007,-0.0289538875222206,0.903770327568054,0.872068107128143,0.00184899475425482,-0.00225988239981234,-0.00273925135843456,-0.00342406425625086,2.06184270329719E-16,0.00342406425625086,0,0,0,0,0,0,0,0,0,0,0,0,PD,0
6.9008,0.15,0.2,0.3,0.150595028216323,0.200376732344467,0.300436822535565,-0.00188377441420978,0,0,0.931960463523865,0.111351668834686,0.984416842460632,-0.0289538875222206,0.903770327568054,0.872259855270386,0.00112994119990617,-0.00174627278465778,-0.00147234764881432,1.72976716856507E-15,2.06184270329719E-16,0.00342406425625086,0,0,0,0,0,0,0,0,0,0,0,0,PD,0
7.0008,0.15,0.2,0.3,0.15054626516531,0.200360554213535,0.300442242792241,-0.0016681128235225,0,0,0.932115733623505,0.11113690584898,0.984203994274139,-0.029145635664463,0.903770327568054,0.872259855270386,0.00109570054337382,-0.00225988239981234,-0.00239684502594173,1.72976716856507E-15,2.06184270329719E-16,0,0,0,0,0,0,0,0,0,0,0,0,0,PD,0
7.1007,0.15,0.2,0.3,0.150504449799626,0.200350184934367,0.300443628157435,-0.00155649747026652,0,0,0.932225048542023,0.110975839197636,0.984033346176147,-0.029145635664463,0.903770327568054,0.872451543807983,0.00102721923030913,-0.00174627278465778,-0.00167779147159308,1.72976716856507E-15,2.06184270329719E-16,0,0,0,0,0,0,0,0,0,0,0,0,0,PD,0
7.2007,0.15,0.2,0.3,0.150467368231764,0.200337631623012,0.30045121068701,0,0,0,0.932351589202881,0.110801346600056,0.983874201774597,-0.0293373819440603,0.903770327568054,0.872451543807983,0.00116418185643852,-0.00164355081506073,-0.00157506950199604,-0.00342406425625086,2.06184270329719E-16,0,0,0,0,0,0,0,0,0,0,0,0,0,PD,0
7.3008,0.15,0.2,0.3,0.150435006321768,0.200330305436045,0.300451206713824,0,0,0,0.932437896728516,0.110682465136051,0.983743786811829,-0.0293373819440603,0.903770327568054,0.872835040092468,0.000924497377127409,-0.00123266316950321,-0.00123266316950321,1.72976716856507E-15,2.06184270329719E-16,0.00342406425625086,0,0,0,0,0,0,0,0,0,0,0,0,PD,0
7.4008,0.15,0.2,0.3,0.150420151505478,0.200331233876644,0.300451174792531,0,0,0,0.932487726211548,0.110644116997719,0.983701586723328,-0.0293373819440603,0.903770327568054,0.872835040092468,0.000410887703765184,-0.000239684493863024,-0.000308165792375803,1.72976716856507E-15,2.06184270329719E-16,0,0,0,0,0,0,0,0,0,0,0,0,0,PD,0
7.5007,0.15,0.2,0.3,0.150420970763909,0.200327844566755,0.30045072611679,0,0,0,0.932514607906342,0.110634528100491,0.983688175678253,-0.0295291300863028,0.903770327568054,0.872835040092468,0.000239684493863024,-6.84812839608639E-05,-0.000136962567921728,1.72976716856507E-15,2.06184270329719E-16,0,0,0,0,0,0,0,0,0,0,0,0,0,PD,0
7.6008,0.15,0.2,0.3,0.150417825499907,0.200328441608507,0.300450424413088,0,0,0,0.932526111602783,0.11062877625227,0.983680546283722,-0.0295291300863028,0.903770327568054,0.872835040092468,0.000102721925941296,-6.84812839608639E-05,-6.84812839608639E-05,1.72976716856507E-15,2.06184270329719E-16,0,0,0,0,0,0,0,0,0,0,0,0,0,PD,0
7.7007,0.15,0.2,0.3,0.150416351377813,0.200328860370777,0.300449539501034,0,0,0,0.932531833648682,0.11062877625227,0.983676671981812,-0.0295291300863028,0.903770327568054,0.872835040092468,6.84812839608639E-05,2.2640618932868E-15,-3.4240641980432E-05,1.72976716856507E-15,2.06184270329719E-16,0,0,0,0,0,0,0,0,0,0,0,0,0,PD,0
7.8007,0.15,0.2,0.3,0.150414649652077,0.200329799347207,0.300449103852806,0,0,0,0.932539522647858,0.11062877625227,0.983674764633179,-0.0295291300863028,0.903770327568054,0.872835040092468,6.84812839608639E-05,2.2640618932868E-15,-3.4240641980432E-05,1.72976716856507E-15,2.06184270329719E-16,0,0,0,0,0,0,0,0,0,0,0,0,0,PD,0
7.9007,0.15,0.2,0.3,0.150414649652077,0.200329799347207,0.300449103852806,0,0,0,0.932539522647858,0.11062877625227,0.983674764633179,-0.0295291300863028,0.903770327568054,0.872835040092468,4.75809852570907E-16,2.2640618932868E-15,-1.61775351991691E-15,1.72976716856507E-15,2.06184270329719E-16,0,0,0,0,0,0,0,0,0,0,0,0,0,PD,0
8.0007,0.15,0.2,0.3,0.150414267553035,0.200330086240019,0.300449103852806,0,0,0,0.932541429996491,0.11062877625227,0.983674764633179,-0.0295291300863028,0.903770327568054,0.872835040092468,3.4240641980432E-05,2.2640618932868E-15,-1.61775351991691E-15,1.72976716856507E-15,2.06184270329719E-16,0,0,0,0,0,0,0,0,0,0,0,0,0,PD,0
8.1007,0.15,0.2,0.3,0.150416784366879,0.200334434101618,0.300448949634546,0,0,0,0.932543337345123,0.11062877625227,0.983674764633179,-0.0295291300863028,0.903690457344055,0.872835040092468,4.75809852570907E-16,2.2640618932868E-15,-1.61775351991691E-15,1.72976716856507E-15,2.06184270329719E-16,0,0,0,0,0,0,0,0,0,0,0,0,0,PD,0
8.2007,0.15,0.2,0.3,0.150416784366879,0.200334434101618,0.300448949634546,0,0,0,0.932543337345123,0.11062877625227,0.983674764633179,-0.0295291300863028,0.903690457344055,0.872835040092468,4.75809852570907E-16,2.2640618932868E-15,-1.61775351991691E-15,1.72976716856507E-15,2.06184270329719E-16,0,0,0,0,0,0,0,0,0,0,0,0,0,PD,0
8.3007,0.15,0.2,0.3,0.150422202233113,0.200342846024934,0.300448642278917,0,0,0,0.932545244693756,0.11062877625227,0.983674764633179,-0.0295291300863028,0.903530657291412,0.872835040092468,4.75809852570907E-16,2.2640618932868E-15,-1.61775351991691E-15,1.72976716856507E-15,-0.00285338680259883,0,0,0,0,0,0,0,0,0,0,0,0,0,PD,0
8.4007,0.15,0.2,0.3,0.150422202233113,0.200342846024934,0.300448642278917,0,0,0,0.932545244693756,0.11062877625227,0.983674764633179,-0.0295291300863028,0.903530657291412,0.872835040092468,4.75809852570907E-16,2.2640618932868E-15,-1.61775351991691E-15,1.72976716856507E-15,2.06184270329719E-16,0,0,0,0,0,0,0,0,0,0,0,0,0,PD,0
8.5008,0.15,0.2,0.3,0.150422202233113,0.200342846024934,0.300448642278917,0,0,0,0.932545244693756,0.11062877625227,0.983674764633179,-0.0295291300863028,0.903530657291412,0.872835040092468,4.75809852570907E-16,2.2640618932868E-15,-1.61775351991691E-15,1.72976716856507E-15,2.06184270329719E-16,0,0,0,0,0,0,0,0,0,0,0,0,0,PD,0
8.6007,0.15,0.2,0.3,0.150422202233113,0.200342846024934,0.300448642278917,0,0,0,0.932545244693756,0.11062877625227,0.983674764633179,-0.0295291300863028,0.903530657291412,0.872835040092468,4.75809852570907E-16,2.2640618932868E-15,-1.61775351991691E-15,1.72976716856507E-15,2.06184270329719E-16,0,0,0,0,0,0,0,0,0,0,0,0,0,PD,0
8.7007,0.15,0.2,0.3,0.150422202233113,0.200342846024934,0.300448642278917,0,0,0,0.932545244693756,0.11062877625227,0.983674764633179,-0.0295291300863028,0.903530657291412,0.872835040092468,4.75809852570907E-16,2.2640618932868E-15,-1.61775351991691E-15,1.72976716856507E-15,2.06184270329719E-16,0,0,0,0,0,0,0,0,0,0,0,0,0,PD,0
8.8007,0.15,0.2,0.3,0.150422202233113,0.200342846024934,0.300448642278917,0,0,0,0.932545244693756,0.11062877625227,0.983674764633179,-0.0295291300863028,0.903530657291412,0.872643291950226,4.75809852570907E-16,2.2640618932868E-15,-1.61775351991691E-15,1.72976716856507E-15,2.06184270329719E-16,0,0,0,0,0,0,0,0,0,0,0,0,0,PD,0
8.9007,0.15,0.2,0.3,0.150422202233113,0.200342846024934,0.300448642278917,0,0,0,0.932545244693756,0.11062877625227,0.983674764633179,-0.0295291300863028,0.903530657291412,0.872643291950226,4.75809852570907E-16,2.2640618932868E-15,-1.61775351991691E-15,1.72976716856507E-15,2.06184270329719E-16,0,0,0,0,0,0,0,0,0,0,0,0,0,PD,0
9.0007,0.15,0.2,0.3,0.150422202233113,0.200342846024934,0.300448642278917,0,0,0,0.932545244693756,0.11062877625227,0.983674764633179,-0.0295291300863028,0.903530657291412,0.872643291950226,4.75809852570907E-16,2.2640618932868E-15,-1.61775351991691E-15,1.72976716856507E-15,2.06184270329719E-16,0,0,0,0,0,0,0,0,0,0,0,0,0,PD,0
9.1007,0.15,0.2,0.3,0.150422202233113,0.200342846024934,0.300448642278917,0,0,0,0.932545244693756,0.11062877625227,0.983674764633179,-0.0295291300863028,0.903530657291412,0.872643291950226,4.75809852570907E-16,2.2640618932868E-15,-1.61775351991691E-15,1.72976716856507E-15,2.06184270329719E-16,0,0,0,0,0,0,0,0,0,0,0,0,0,PD,0
9.2007,0.15,0.2,0.3,0.150422202233113,0.200342846024934,0.300448642278917,0,0,0,0.932545244693756,0.11062877625227,0.983674764633179,-0.0295291300863028,0.903530657291412,0.872643291950226,4.75809852570907E-16,2.2640618932868E-15,-1.61775351991691E-15,1.72976716856507E-15,2.06184270329719E-16,0,0,0,0,0,0,0,0,0,0,0,0,0,PD,0
9.3007,0.15,0.2,0.3,0.150422202233113,0.200342846024934,0.300448642278917,0,0,0,0.932545244693756,0.11062877625227,0.983674764633179,-0.0295291300863028,0.903530657291412,0.872643291950226,4.75809852570907E-16,2.2640618932868E-15,-1.61775351991691E-15,1.72976716856507E-15,2.06184270329719E-16,0,0,0,0,0,0,0,0,0,0,0,0,0,PD,0
9.4007,0.15,0.2,0.3,0.150422267200112,0.200342933603743,0.300448162576734,0,0,0,0.932545244693756,0.110630691051483,0.983674764633179,-0.0295291300863028,0.903530657291412,0.872643291950226,4.75809852570907E-16,3.4240641980432E-05,-1.61775351991691E-15,1.72976716856507E-15,2.06184270329719E-16,0,0,0,0,0,0,0,0,0,0,0,0,0,PD,0
9.5007,0.15,0.2,0.3,0.150422397385252,0.200343109099916,0.300447201305194,0,0,0,0.932545244693756,0.110634528100491,0.983674764633179,-0.0295291300863028,0.903530657291412,0.872643291950226,4.75809852570907E-16,3.4240641980432E-05,-1.61775351991691E-15,1.72976716856507E-15,2.06184270329719E-16,0,0,0,0,0,0,0,0,0,0,0,0,0,PD,0
9.6008,0.15,0.2,0.3,0.15041492906802,0.200348835366661,0.300445548014591,0,0,0,0.932545244693756,0.110640279948711,0.983674764633179,-0.0293373819440603,0.903530657291412,0.872451543807983,4.75809852570907E-16,6.84812839608639E-05,-1.61775351991691E-15,0.00342406425625086,2.06184270329719E-16,0,0,0,0,0,0,0,0,0,0,0,0,0,PD,0
9.7008,0.15,0.2,0.3,0.150415059247183,0.200349010854776,0.300444586741638,0,0,0,0.932545244693756,0.110644116997719,0.983674764633179,-0.0293373819440603,0.903530657291412,0.872451543807983,4.75809852570907E-16,3.4240641980432E-05,-1.61775351991691E-15,1.72976716856507E-15,2.06184270329719E-16,0,0,0,0,0,0,0,0,0,0,0,0,0,PD,0
9.8007,0.15,0.2,0.3,0.150407591642372,0.20035473801736,0.300442934835257,0,0,0,0.932545244693756,0.11064986884594,0.983674764633179,-0.029145635664463,0.903530657291412,0.872451543807983,4.75809852570907E-16,6.84812839608639E-05,-1.61775351991691E-15,1.72976716856507E-15,2.06184270329719E-16,0,0,0,0,0,0,0,0,0,0,0,0,0,PD,0
9.9007,0.15,0.2,0.3,0.150407786774953,0.200355001065976,0.300441493856667,0,0,0,0.932545244693756,0.11065562069416,0.983674764633179,-0.029145635664463,0.903530657291412,0.872451543807983,4.75809852570907E-16,6.84812839608639E-05,-1.61775351991691E-15,1.72976716856507E-15,2.06184270329719E-16,0,0,0,0,0,0,0,0,0,0,0,0,0,PD,0
10.0008,0.15,0.2,0.3,0.150407916944848,0.200355176541598,0.300440532581041,0,0,0,0.932545244693756,0.110659457743168,0.983674764633179,-0.029145635664463,0.903530657291412,0.872451543807983,4.75809852570907E-16,6.84812839608639E-05,-1.61775351991691E-15,1.72976716856507E-15,2.06184270329719E-16,0,0,0,0,0,0,0,0,0,0,0,0,0,PD,0
10.1008,0.15,0.2,0.3,0.150408112069196,0.200355439579118,0.30043909159931,0,0,0,0.932545244693756,0.110665209591389,0.983674764633179,-0.029145635664463,0.903530657291412,0.872451543807983,4.75809852570907E-16,3.4240641980432E-05,-1.61775351991691E-15,1.72976716856507E-15,2.06184270329719E-16,0,0,0,0,0,0,0,0,0,0,0,0,0,PD,0
10.2007,0.15,0.2,0.3,0.150408307188607,0.20035570260998,0.300437650615694,0,0,0,0.932545244693756,0.11067096143961,0.983674764633179,-0.029145635664463,0.903530657291412,0.872451543807983,4.75809852570907E-16,3.4240641980432E-05,-1.61775351991691E-15,1.72976716856507E-15,2.06184270329719E-16,0,0,0,0,0,0,0,0,0,0,0,0,0,PD,0
10.3007,0.15,0.2,0.3,0.150408567255894,0.200356053193876,0.300435729923465,0,0,0,0.932545244693756,0.110678628087044,0.983674764633179,-0.029145635664463,0.903530657291412,0.872451543807983,4.75809852570907E-16,6.84812839608639E-05,-1.61775351991691E-15,1.72976716856507E-15,2.06184270329719E-16,0,0,0,0,0,0,0,0,0,0,0,0,0,PD,0
10.4007,0.15,0.2,0.3,0.150408697412613,0.200356228651735,0.300434768642813,0,0,0,0.932545244693756,0.110682465136051,0.983674764633179,-0.029145635664463,0.903530657291412,0.872451543807983,4.75809852570907E-16,3.4240641980432E-05,-1.61775351991691E-15,1.72976716856507E-15,2.06184270329719E-16,0,0,0,0,0,0,0,0,0,0,0,0,0,PD,0
10.5007,0.15,0.2,0.3,0.150406055691404,0.200352516218056,0.300432999894468,0,0,0,0.932545244693756,0.110690139234066,0.983674764633179,-0.029145635664463,0.903610587120056,0.872451543807983,4.75809852570907E-16,6.84812839608639E-05,-1.61775351991691E-15,1.72976716856507E-15,2.06184270329719E-16,0,0,0,0,0,0,0,0,0,0,0,0,0,PD,0
10.6007,0.15,0.2,0.3,0.150406638557653,0.200353301962742,0.300431950528421,0,0,0,0.932545244693756,0.1106978058815,0.983678579330444,-0.029145635664463,0.903610587120056,0.872451543807983,4.75809852570907E-16,6.84812839608639E-05,3.4240641980432E-05,1.72976716856507E-15,2.06184270329719E-16,0,0,0,0,0,0,0,0,0,0,0,0,0,PD,0
10.7007,0.15,0.2,0.3,0.150404165191145,0.20034981661375,0.30043063326639,0,0,0,0.932545244693756,0.110705472528934,0.983680546283722,-0.029145635664463,0.903690457344055,0.872451543807983,4.75809852570907E-16,0.000102721925941296,3.4240641980432E-05,1.72976716856507E-15,0.00142669340129942,0,0,0,0,0,0,0,0,0,0,0,0,0,PD,0
10.8007,0.15,0.2,0.3,0.150404586891738,0.200350385093248,0.300429146398589,0,0,0,0.932545244693756,0.110713146626949,0.983682453632355,-0.029145635664463,0.903690457344055,0.872643291950226,4.75809852570907E-16,6.84812839608639E-05,3.4240641980432E-05,1.72976716856507E-15,2.06184270329719E-16,0.00342406425625086,0,0,0,0,0,0,0,0,0,0,0,0,PD,0
10.9007,0.15,0.2,0.3,0.150405008334331,0.20035095322495,0.300427661390311,0,0,0,0.932545244693756,0.110720813274384,0.983684360980988,-0.029145635664463,0.903690457344055,0.872643291950226,4.75809852570907E-16,6.84812839608639E-05,3.4240641980432E-05,1.72976716856507E-15,2.06184270329719E-16,0,0,0,0,0,0,0,0,0,0,0,0,0,PD,0
11.0007,0.15,0.2,0.3,0.15040536482972,0.200351433804526,0.30042665607123,0,0,0,0.932545244693756,0.110726565122604,0.98368626832962,-0.029145635664463,0.903690457344055,0.872643291950226,4.75809852570907E-16,6.84812839608639E-05,3.4240641980432E-05,1.72976716856507E-15,2.06184270329719E-16,0,0,0,0,0,0,0,0,0,0,0,0,0,PD,0
11.1007,0.15,0.2,0.3,0.150405984255358,0.200352268839008,0.300427015325199,0,0,0,0.932545244693756,0.110730402171612,0.983692049980164,-0.029145635664463,0.903690457344055,0.872643291950226,4.75809852570907E-16,3.4240641980432E-05,6.84812839608639E-05,1.72976716856507E-15,2.06184270329719E-16,0,0,0,0,0,0,0,0,0,0,0,0,0,PD,0
11.2007,0.15,0.2,0.3,0.150406405942894,0.200352837300905,0.300425528430329,0,0,0,0.932545244693756,0.110738076269627,0.983693957328796,-0.029145635664463,0.903690457344055,0.872643291950226,4.75809852570907E-16,6.84812839608639E-05,3.4240641980432E-05,1.72976716856507E-15,2.06184270329719E-16,0,0,0,0,0,0,0,0,0,0,0,0,0,PD,0
11.3007,0.15,0.2,0.3,0.150406923849606,0.20035353547684,0.300424958727292,0,0,0,0.932545244693756,0.110743828117847,0.983697772026062,-0.029145635664463,0.903690457344055,0.872643291950226,4.75809852570907E-16,6.84812839608639E-05,3.4240641980432E-05,1.72976716856507E-15,2.06184270329719E-16,0,0,0,0,0,0,0,0,0,0,0,0,0,PD,0
11.4008,0.15,0.2,0.3,0.150415206739521,0.200348905389104,0.300425530776048,0,0,0,0.932545244693756,0.110747657716274,0.983703553676605,-0.0293373819440603,0.903690457344055,0.872643291950226,4.75809852570907E-16,3.4240641980432E-05,6.84812839608639E-05,1.72976716856507E-15,2.06184270329719E-16,0,0,0,0,0,0,0,0,0,0,0,0,0,PD,0
11.5007,0.15,0.2,0.3,0.150415659705224,0.200349516021264,0.300425440766676,0,0,0,0.932545244693756,0.110751494765282,0.983707368373871,-0.0293373819440603,0.903690457344055,0.872643291950226,4.75809852570907E-16,3.4240641980432E-05,3.4240641980432E-05,1.72976716856507E-15,2.06184270329719E-16,0,0,0,0,0,0,0,0,0,0,0,0,0,PD,0
11.6009,0.15,0.2,0.2,0.150416208891982,0.200350256369996,0.300426267960664,0,0,-0.22,0.932545244693756,0.110753409564495,0.983713090419769,-0.0293373819440603,0.903690457344055,0.872643291950226,4.75809852570907E-16,3.4240641980432E-05,6.84812839608639E-05,1.72976716856507E-15,2.06184270329719E-16,0,0,0,0,0,0,0,0,0,0,0,0,0,PD,0
11.7007,0.15,0.2,0.2,0.150427173844747,0.200369147995318,0.299854549753326,0,0,-0.22,0.932545244693756,0.111884720623493,0.982468664646149,-0.0293373819440603,0.901533305644989,0.872643291950226,4.75809852570907E-16,0.020167738199234,-0.0222564171999693,1.72976716856507E-15,-0.0385207235813141,0,0,0,0,0,0,0,0,0,0,0,0,0,PD,0
11.8007,0.15,0.2,0.2,0.150480573464891,0.200531715224067,0.292789892606368,0,-0.00267383942797864,-0.22,0.932545244693756,0.124718390405178,0.965778946876526,-0.0289538875222206,0.870773792266846,0.872643291950226,4.75809852570907E-16,0.153261110186577,-0.194829255342484,-0.00684812851250172,-0.359526753425598,0,0,0,0,0,0,0,0,0,0,0,0,0,PD,0
11.9007,0.15,0.2,0.2,0.150509741159266,0.200597418847952,0.286367682136161,-0.00192993252931045,-0.00241948408725391,-0.22,0.932545244693756,0.136838749051094,0.950949192047119,-0.0293373819440603,0.84241110086441,0.872643291950226,4.75809852570907E-16,0.107447139918804,-0.128094241023064,0.0102721927687526,-0.263938277959824,0,0,0,0,0,0,0,0,0,0,0,0,0,PD,0
12.0007,0.15,0.2,0.2,0.150517131753981,0.200678309909465,0.280204753120201,-0.00184691411250623,-0.00277853999069272,-0.22,0.932545244693756,0.149356037378311,0.937561392784119,-0.029145635664463,0.815326750278473,0.872643291950226,4.75809852570907E-16,0.142269864678383,-0.147269010543823,0.00342406425625086,-0.306739091873169,0,0,0,0,0,0,0,0,0,0,0,0,0,PD,0
12.1007,0.15,0.2,0.2,0.150384541857061,0.200559637449416,0.273374176492008,0,-0.00136536877271118,-0.22,0.932516515254974,0.163848325610161,0.923222482204437,-0.0289538875222206,0.788082659244537,0.872643291950226,-0.000273925135843456,0.129258424043655,-0.127751842141151,1.73373223567028E-15,-0.26251158118248,0,0,0,0,0,0,0,0,0,0,0,0,0,PD,0
12.2007,0.15,0.2,0.2,0.150388951822353,0.20067129266824,0.266920175633476,0,-0.00290780043296221,-0.22,0.932516515254974,0.178522765636444,0.910653471946716,-0.0283786449581385,0.758521556854248,0.872643291950226,4.75809852570907E-16,0.154288336634636,-0.129977479577065,1.73373223567028E-15,-0.343833118677139,0,0,0,0,0,0,0,0,0,0,0,0,0,PD,0
12.3007,0.15,0.2,0.2,0.150287079033019,0.200589757270944,0.260402504141068,0,-0.00165647346182579,-0.20489109300133,0.932514607906342,0.194387957453728,0.898970246315002,-0.0283786449581385,0.732635617256165,0.872643291950226,-3.4240641980432E-05,0.151275157928467,-0.109056442975998,1.73373223567028E-15,-0.238257810473442,0,0,0,0,0,0,0,0,0,0,0,0,0,PD,0
12.4008,0.15,0.2,0.2,0.15033034239608,0.200712350972583,0.253921916309855,0,-0.00310619691223649,-0.18224611925328,0.932482004165649,0.211219564080238,0.888462483882904,-0.028186896815896,0.703633785247803,0.872643291950226,-0.000445128360297531,0.175688743591309,-0.109261892735958,1.73373223567028E-15,-0.296752244234085,0,0,0,0,0,0,0,0,0,0,0,0,0,PD,0
12.5008,0.15,0.2,0.2,0.150234983683097,0.200628024570745,0.248122017331987,0,-0.00177645398841576,-0.162627161684085,0.932432115077972,0.226789474487305,0.87950211763382,-0.0279951486736536,0.680544197559357,0.872835040092468,-0.000308165792375803,0.145899385213852,-0.0836156457662582,0.00342406425625086,-0.225417569279671,0.00342406425625086,0,0,0,0,0,0,0,0,0,0,0,0,PD,0
12.6008,0.15,0.2,0.2,0.150319737351466,0.200804331721781,0.242880418123978,0,-0.00369669678140946,-0.144839864225913,0.93238228559494,0.241506099700928,0.87211412191391,-0.0276116542518139,0.655137598514557,0.872835040092468,-0.000410887703765184,0.153706237673759,-0.0749185234308243,0.00684812851250172,-0.26251158118248,0,0,0,0,0,0,0,0,0,0,0,0,0,PD,0
12.7007,0.15,0.2,0.2,0.150213873854421,0.200684227431658,0.23842171759418,0,-0.00179427456018827,-0.130017311049832,0.932341992855072,0.254314839839935,0.86606639623642,-0.0276116542518139,0.638040125370026,0.872835040092468,-0.000205443851882592,0.119328640401363,-0.0542029365897179,1.73373223567028E-15,-0.169776514172554,0,0,0,0,0,0,0,0,0,0,0,0,0,PD,0
12.8007,0.15,0.2,0.2,0.150216413422388,0.20069571892398,0.234394969534979,0,-0.00249247369553927,-0.116355645313224,0.932263374328613,0.266293317079544,0.861069440841675,-0.0276116542518139,0.620463252067566,0.872835040092468,-0.000650572183076292,0.125697404146194,-0.0504022240638733,1.73373223567028E-15,-0.172629907727242,0,0,0,0,0,0,0,0,0,0,0,0,0,PD,0
12.9008,0.15,0.2,0.2,0.15012009486836,0.200569719281083,0.23074402170111,0,-0.00136401926931057,-0.103953128120017,0.932196319103241,0.27737632393837,0.856747448444366,-0.0276116542518139,0.606961071491241,0.872835040092468,-0.000376647076336667,0.103098571300507,-0.0375962257385254,1.73373223567028E-15,-0.141242653131485,0,0,0,0,0,0,0,0,0,0,0,0,0,PD,0
13.0008,0.15,0.2,0.2,0.150109320723312,0.200575324284232,0.227539415752055,0,-0.00204166001055743,-0.0931833491831376,0.932165622711182,0.287356793880463,0.853253781795502,-0.0276116542518139,0.593139231204987,0.872835040092468,-0.000102721925941296,0.102858893573284,-0.0344118475914001,1.73373223567028E-15,-0.125549018383026,0,0,0,0,0,0,0,0,0,0,0,0,0,PD,0
13.1007,0.15,0.2,0.2,0.150091119120731,0.200573002446822,0.224604334937303,0,-0.00199389937682221,-0.0831800914658105,0.932148337364197,0.296733230352402,0.850323915481567,-0.0276116542518139,0.580915331840515,0.872835040092468,-0.000102721925941296,0.0863891392946243,-0.0262968130409718,1.73373223567028E-15,-0.108428701758385,0,0,0,0,0,0,0,0,0,0,0,0,0,PD,0
13.2007,0.15,0.2,0.2,0.150146435763645,0.200660223897424,0.222014499481636,0,-0.00274689089399621,-0.0744609127300583,0.932104229927063,0.305062770843506,0.8478062748909,-0.0276116542518139,0.568052232265472,0.872835040092468,-0.000513609615154564,0.0841977372765541,-0.0262625720351934,1.73373223567028E-15,-0.142669349908829,0,0,0,0,0,0,0,0,0,0,0,0,0,PD,0
13.3007,0.15,0.2,0.2,0.150057857658139,0.200525232067385,0.219705770052307,0,-0.00116335308565396,-0.0666614657537441,0.932046711444855,0.312517911195755,0.845549404621124,-0.0278034023940563,0.560222566127777,0.872835040092468,-0.000547850271686912,0.0684812888503075,-0.0205786265432835,1.73373223567028E-15,-0.0770414471626282,0,0,0,0,0,0,0,0,0,0,0,0,0,PD,0
13.4008,0.15,0.2,0.2,0.150068617470555,0.200528185521703,0.217645942485946,0,-0.00186341659754741,-0.0597009711344501,0.931989192962647,0.319254010915756,0.84365302324295,-0.0279951486736536,0.550874888896942,0.872835040092468,-0.000513609615154564,0.0667350143194199,-0.0189693160355091,1.73373223567028E-15,-0.0970151573419571,0,0,0,0,0,0,0,0,0,0,0,0,0,PD,0
13.5007,0.15,0.2,0.2,0.149988076658488,0.200424486167606,0.215748198082315,0,0,-0.0532209488844707,0.93196427822113,0.325620025396347,0.842084527015686,-0.0279951486736536,0.544802844524384,0.872835040092468,-0.000205443851882592,0.0593732744455338,-0.0138332191854715,1.73373223567028E-15,-0.0527876578271389,0,0,0,0,0,0,0,0,0,0,0,0,0,PD,0
13.6007,0.15,0.2,0.2,0.149994524115372,0.200420605469534,0.214102083182666,0,0,-0.0477111762396809,0.931941270828247,0.331196039915085,0.840803623199463,-0.0283786449581385,0.537772119045258,0.872835040092468,-0.000205443851882592,0.0568052269518375,-0.0127717601135373,1.73323661551702E-15,-0.0699079781770706,0,0,0,0,0,0,0,0,0,0,0,0,0,PD,0
13.7007,0.15,0.2,0.2,0.149974242551662,0.200402762006845,0.212680488217731,0,0,-0.0429601137971243,0.931931674480438,0.33614119887352,0.839860260486603,-0.0283786449581385,0.532499074935913,0.872835040092468,-6.84812839608639E-05,0.0473890490829945,-0.00825199484825134,1.73323661551702E-15,-0.0627745091915131,0,0,0,0,0,0,0,0,0,0,0,0,0,PD,0
13.8008,0.15,0.2,0.2,0.14998425249349,0.200420284232778,0.211339244677072,0,0,-0.0383461128290918,0.931931674480438,0.340875446796417,0.839064478874207,-0.0285703931003809,0.526986300945282,0.872643291950226,4.75809852570907E-16,0.0478341765701771,-0.00845743902027607,1.73323661551702E-15,-0.0542143508791924,0,0,0,0,0,0,0,0,0,0,0,0,0,PD,0
13.9007,0.15,0.2,0.2,0.149943685842228,0.200374389554367,0.210175806480582,0,0,-0.0344518844855481,0.931929767131805,0.344980776309967,0.838358879089356,-0.0285703931003809,0.523311138153076,0.872643291950226,-3.4240641980432E-05,0.035610269755125,-0.00568394688889384,1.73323661551702E-15,-0.0299605615437031,0,0,0,0,0,0,0,0,0,0,0,0,0,PD,0
14.0008,0.15,0.2,0.2,0.149972383176675,0.200414509923435,0.209148786587901,0,0,-0.0309937331649739,0.931927859783173,0.348652750253677,0.837814271450043,-0.0287621393799782,0.518597364425659,0.872643291950226,-3.4240641980432E-05,0.0378359109163284,-0.00558122480288148,1.73323661551702E-15,-0.0456541888415813,0,0,0,0,0,0,0,0,0,0,0,0,0,PD,0
14.1008,0.15,0.2,0.2,0.149910406923898,0.20033530492951,0.208175347337999,0,0,-0.0276402764330927,0.931923985481262,0.352138698101044,0.837281227111816,-0.0287621393799782,0.516360282897949,0.872643291950226,-3.4240641980432E-05,0.0312617048621178,-0.00465672742575407,1.73323661551702E-15,-0.0271071754395962,0,0,0,0,0,0,0,0,0,0,0,0,0,PD,0
14.2007,0.15,0.2,0.2,0.149921354303188,0.200357877314944,0.207360704740159,0,0,-0.0249478239927177,0.931920170783997,0.355057120323181,0.836853623390198,-0.0287621393799782,0.512765049934387,0.872643291950226,-3.4240641980432E-05,0.0290703047066927,-0.00421159900724888,1.73323661551702E-15,-0.0299605615437031,0,0,0,0,0,0,0,0,0,0,0,0,0,PD,0
14.3008,0.15,0.2,0.2,0.149862727029972,0.20028192652805,0.206607589118701,0,0,-0.0223734462939969,0.931918263435364,0.357778012752533,0.83646821975708,-0.0287621393799782,0.511326909065247,0.872643291950226,4.75809852570907E-16,0.0244135782122612,-0.00359526742249727,1.73323661551702E-15,-0.00998685415834188,0,0,0,0,0,0,0,0,0,0,0,0,0,PD,0
14.4007,0.15,0.2,0.2,0.149862504564227,0.200286752951137,0.205962490610122,0,0,-0.0202236186268459,0.931914448738098,0.3601154088974,0.836161434650421,-0.0287621393799782,0.508770287036896,0.872643291950226,-3.4240641980432E-05,0.0227700266987085,-0.00328710163012147,1.73323661551702E-15,-0.0242537893354893,0,0,0,0,0,0,0,0,0,0,0,0,0,PD,0
14.5007,0.15,0.2,0.2,0.149819037669771,0.200221012427681,0.205337928412122,0,0,-0.0180581872444261,0.931912481784821,0.362368434667587,0.835835456848145,-0.0289538875222206,0.507492005825043,0.872451543807983,4.75809852570907E-16,0.0213661603629589,-0.00294469529762864,-0.00342406425625086,-0.0114135472103953,-0.00342406425625086,0,0,0,0,0,0,0,0,0,0,0,0,PD,0
14.6008,0.15,0.2,0.2,0.149798535976113,0.200186689482355,0.204772702464159,0,0,-0.0161392326765921,0.931910574436188,0.364460408687592,0.835616886615753,-0.029145635664463,0.506053864955902,0.872451543807983,4.75809852570907E-16,0.0202704612165689,-0.00198595738038421,-0.00342406425625086,-0.0156936272978783,0,0,0,0,0,0,0,0,0,0,0,0,0,PD,0
14.7007,0.15,0.2,0.2,0.149760625590488,0.200126463969814,0.204294611537927,0,0,-0.0145530494565126,0.931906759738922,0.366197645664215,0.835381031036377,-0.0293373819440603,0.505254924297333,0.872451543807983,-3.4240641980432E-05,0.0163670275360346,-0.00188323529437184,-0.00342406425625086,-0.00570677360519767,0,0,0,0,0,0,0,0,0,0,0,0,0,PD,0
14.8008,0.15,0.2,0.2,0.149725300703335,0.200079028757376,0.203874772806385,0,0,-0.0131418660908035,0.931902945041657,0.367752730846405,0.835214197635651,-0.0293373819440603,0.504615783691406,0.872451543807983,-3.4240641980432E-05,0.0158534180372953,-0.00178051344119012,1.73323661551702E-15,-0.00428008055314422,0,0,0,0,0,0,0,0,0,0,0,0,0,PD,0
14.9007,0.15,0.2,0.2,0.149693174438366,0.200037105455247,0.203462416043321,0,0,-0.0117060993885586,0.931900978088379,0.369261771440506,0.835026264190674,-0.0293373819440603,0.503816843032837,0.872451543807983,4.75809852570907E-16,0.0134908128529787,-0.00167779147159308,1.73323661551702E-15,-0.00998685415834188,0,0,0,0,0,0,0,0,0,0,0,0,0,PD,0
15.0007,0.15,0.2,0.2,0.149650109640879,0.199978761012532,0.203133723178757,0,0,-0.0106393382610837,0.931899070739746,0.370469778776169,0.834876716136932,-0.0293373819440603,0.503657042980194,0.872451543807983,-3.4240641980432E-05,0.0125663159415126,-0.00150658830534667,1.73323661551702E-15,-0.00285338680259883,0,0,0,0,0,0,0,0,0,0,0,0,0,PD,0
15.1008,0.15,0.2,0.2,0.149641474326584,0.199969134877665,0.20281160146385,0,0,-0.00951848340856738,0.931897163391113,0.371656686067581,0.834746301174164,-0.0293373819440603,0.502618372440338,0.872451543807983,4.75809852570907E-16,0.0110597275197506,-0.00126690382603556,1.73323661551702E-15,-0.0185470152646303,0,0,0,0,0,0,0,0,0,0,0,0,0,PD,0
15.2007,0.15,0.2,0.2,0.149609217618477,0.199923719123885,0.202544439007502,0,0,-0.00863837406990853,0.93189138174057,0.372646123170853,0.834635138511658,-0.0293373819440603,0.50245863199234,0.872451543807983,-3.4240641980432E-05,0.0099982675164938,-0.00109570054337382,1.73323661551702E-15,-0.00142669340129942,0,0,0,0,0,0,0,0,0,0,0,0,0,PD,0
15.3007,0.15,0.2,0.2,0.14957730047976,0.199881182315505,0.202287448079719,0,0,-0.00774907735123206,0.93189138174057,0.373599112033844,0.834529638290405,-0.0293373819440603,0.502298831939697,0.872451543807983,4.75809852570907E-16,0.00917649175971746,-0.00106145988684148,1.73323661551702E-15,-0.00142669340129942,0,0,0,0,0,0,0,0,0,0,0,0,0,PD,0
15.4008,0.15,0.2,0.2,0.149542313387637,0.19983328364278,0.202067075010157,0,0,-0.00701438946598668,0.931889474391937,0.374400615692139,0.834414601325989,-0.0293373819440603,0.502298831939697,0.872451543807983,-3.4240641980432E-05,0.00818351376801729,-0.000992978690192103,1.73323661551702E-15,2.06184270329719E-16,0,0,0,0,0,0,0,0,0,0,0,0,0,PD,0
15.5007,0.15,0.2,0.2,0.149512966698219,0.199792180417331,0.201848326740239,0,0,-0.00625039532091948,0.931885659694672,0.375227034091949,0.834343671798706,-0.0293373819440603,0.502298831939697,0.872451543807983,-6.84812839608639E-05,0.00794382952153683,-0.000650572183076292,1.73323661551702E-15,2.06184270329719E-16,0,0,0,0,0,0,0,0,0,0,0,0,0,PD,0
15.6007,0.15,0.2,0.2,0.149487873980335,0.199757602512716,0.201670347248179,0.00191790465824401,0,-0.00566823587656569,0.931883752346039,0.37589430809021,0.834278464317322,-0.0293373819440603,0.502298831939697,0.872451543807983,-3.4240641980432E-05,0.00674540642648935,-0.000719053496140987,1.73323661551702E-15,2.06184270329719E-16,0,0,0,0,0,0,0,0,0,0,0,0,0,PD,0
15.7008,0.15,0.2,0.2,0.149463216603423,0.199724408823452,0.201503543004618,0.00200202877257971,0,-0.005095596272603,0.931883752346039,0.376515597105026,0.834211349487305,-0.0293373819440603,0.502298831939697,0.872451543807983,4.75809852570907E-16,0.00588939059525728,-0.000616331584751606,1.73323661551702E-15,2.06184270329719E-16,0,0,0,0,0,0,0,0,0,0,0,0,0,PD,0
15.8007,0.15,0.2,0.2,0.149451010534993,0.199692744140598,0.201341475484442,0.00198249346967304,0,-0.00453309667537066,0.931847333908081,0.377146422863007,0.834184527397156,-0.0293373819440603,0.502298831939697,0.872643291950226,-0.000547850271686912,0.00653996272012591,-0.000136962567921728,1.73323661551702E-15,2.06184270329719E-16,0.00342406425625086,0,0,0,0,0,0,0,0,0,0,0,0,PD,0
15.9007,0.15,0.2,0.2,0.149463361677594,0.199646005619977,0.201166574691759,0.0018164784154147,0,-0.0039081106284756,0.931695818901062,0.377846300601959,0.834182560443878,-0.0293373819440603,0.502298831939697,0.872643291950226,-0.00157506950199604,0.00595787167549133,-1.63361389421689E-15,1.73323661551702E-15,2.06184270329719E-16,0,0,0,0,0,0,0,0,0,0,0,0,0,PD,0
16.0007,0.15,0.2,0.2,0.149472377927828,0.199613257951466,0.201044159071928,0.00180159600142936,0,-0.00353214113191833,0.931588470935822,0.378337174654007,0.834182560443878,-0.0293373819440603,0.502298831939697,0.872643291950226,-0.000992978690192103,0.00510185584425926,-1.63361389421689E-15,1.73323661551702E-15,2.06184270329719E-16,0,0,0,0,0,0,0,0,0,0,0,0,0,PD,0
16.1007,0.15,0.2,0.2,0.149477096033774,0.199582732778649,0.200917450989594,0.00180657335205967,0,-0.003084370381244,0.931500256061554,0.378845304250717,0.834182560443878,-0.0293373819440603,0.502298831939697,0.872643291950226,-0.000856016064062715,0.00472520850598812,-1.63361389421689E-15,1.73323661551702E-15,2.06184270329719E-16,0,0,0,0,0,0,0,0,0,0,0,0,0,PD,0
16.2008,0.15,0.2,0.2,0.14948458440465,0.199554345631103,0.200810831497687,0.00176651272934468,0,-0.00273129074999945,0.931408226490021,0.379272907972336,0.834182560443878,-0.0293373819440603,0.502298831939697,0.872643291950226,-0.000890256720595062,0.00404039584100246,-1.63361389421689E-15,1.73323661551702E-15,2.06184270329719E-16,0,0,0,0,0,0,0,0,0,0,0,0,0,PD,0
16.3008,0.15,0.2,0.2,0.149494826271738,0.199524860499131,0.200708997404913,0.00171689871347638,0,-0.00237965682441989,0.931304693222046,0.379681348800659,0.834182560443878,-0.0293373819440603,0.502298831939697,0.872643291950226,-0.000958737975452095,0.00441704271361232,-1.63361389421689E-15,1.73323661551702E-15,2.06184270329719E-16,0,0,0,0,0,0,0,0,0,0,0,0,0,PD,0
16.4008,0.15,0.2,0.2,0.14950577533601,0.199499518803686,0.200629169816949,0,0.00187839266432552,-0.00212226677135799,0.931208789348602,0.380001544952393,0.834182560443878,-0.0293373819440603,0.502298831939697,0.872643291950226,-0.000992978690192103,0.00304741715081036,-1.63361389421689E-15,1.73323661551702E-15,2.06184270329719E-16,0,0,0,0,0,0,0,0,0,0,0,0,0,PD,0
16.5007,0.15,0.2,0.2,0.149516445767115,0.199473010505546,0.200543120838085,0,0.00197700472128727,-0.00181487395443207,0.931110978126526,0.380346715450287,0.834182560443878,-0.0293373819440603,0.502298831939697,0.872643291950226,-0.000890256720595062,0.00308165792375803,-1.63361389421689E-15,1.73323661551702E-15,2.06184270329719E-16,0,0,0,0,0,0,0,0,0,0,0,0,0,PD,0
16.6008,0.15,0.2,0.2,0.149512466482742,0.199461265455614,0.200468132036169,0,0.0019442961550156,0,0.931095659732819,0.380651593208313,0.834188342094421,-0.0293373819440603,0.502298831939697,0.872643291950226,4.75809852570907E-16,0.00304741715081036,0.000102721925941296,1.73323661551702E-15,2.06184270329719E-16,0,0,0,0,0,0,0,0,0,0,0,0,0,PD,0
16.7007,0.15,0.2,0.2,0.149504734313358,0.199450873672812,0.200371117662974,0,0.00197390105916198,0,0.931095659732819,0.381054252386093,0.834207534790039,-0.0293373819440603,0.502298831939697,0.872643291950226,4.75809852570907E-16,0.00383495190180838,0.000205443851882592,1.73323661551702E-15,2.06184270329719E-16,0,0,0,0,0,0,0,0,0,0,0,0,0,PD,0
16.8007,0.15,0.2,0.2,0.149503715896799,0.199451097908558,0.200333453787404,0,0.00192003614132091,0,0.931099474430084,0.38122683763504,0.834238171577454,-0.0293373819440603,0.502298831939697,0.872643291950226,3.4240641980432E-05,0.00106145988684148,0.000308165792375803,1.73323661551702E-15,2.06184270329719E-16,0,0,0,0,0,0,0,0,0,0,0,0,0,PD,0
16.9008,0.15,0.2,0.2,0.149503751907749,0.199455153545282,0.200312719835287,0,0.00188668440789434,0,0.931109070777893,0.381334215402603,0.834272682666779,-0.0293373819440603,0.502298831939697,0.872643291950226,0.000102721925941296,0.00119842251297086,0.000308165792375803,1.73323661551702E-15,2.06184270329719E-16,0,0,0,0,0,0,0,0,0,0,0,0,0,PD,0
17.0007,0.15,0.2,0.2,0.149505013513308,0.199463271002114,0.200277609302658,0,0.00183796420843804,0,0.931124448776245,0.381522119045258,0.834339797496796,-0.0293373819440603,0.502298831939697,0.872835040092468,0.000102721925941296,0.00195171660743654,0.00068481283960864,1.73323661551702E-15,2.06184270329719E-16,0.00342406425625086,0,0,0,0,0,0,0,0,0,0,0,0,PD,0
17.1008,0.15,0.2,0.2,0.149511229600107,0.199476430201266,0.200256552026556,0,0.00176669829981249,0,0.931135952472687,0.381669759750366,0.834429919719696,-0.0293373819440603,0.502298831939697,0.873026788234711,0.000136962567921728,0.00154082896187902,0.000890256720595062,1.73323661551702E-15,2.06184270329719E-16,0,0,0,0,0,0,0,0,0,0,0,0,0,PD,0
17.2008,0.15,0.2,0.2,0.149516189496042,0.199487901449608,0.20023430086195,0,0.00173498868466,0,0.931147456169128,0.381815493106842,0.834510505199432,-0.0293373819440603,0.502298831939697,0.873026788234711,0.000136962567921728,0.00130114436615258,0.00078753475099802,1.73323661551702E-15,2.06184270329719E-16,0,0,0,0,0,0,0,0,0,0,0,0,0,PD,0
17.3007,0.15,0.2,0.2,0.149525491122159,0.199506005909139,0.200216013178246,0,0,0,0.931160867214203,0.381970793008804,0.834627449512482,-0.0293373819440603,0.502298831939697,0.873026788234711,0.000136962567921728,0.00171203212812543,0.00123266316950321,1.73323661551702E-15,2.06184270329719E-16,0,0,0,0,0,0,0,0,0,0,0,0,0,PD,0
17.4007,0.15,0.2,0.2,0.14953398667315,0.19951657728397,0.200200989834065,0,0,0,0.931181967258453,0.382087767124176,0.834707975387573,-0.0295291300863028,0.502298831939697,0.873410284519196,0.000239684493863024,0.00112994119990617,0.000856016064062715,-0.00342406425625086,2.06184270329719E-16,0.00684812851250172,0,0,0,0,0,0,0,0,0,0,0,0,PD,0
17.5007,0.15,0.2,0.2,0.14953789382354,0.199526635117524,0.200199373517252,0,0,0,0.931193470954895,0.38213187456131,0.834761679172516,-0.0295291300863028,0.502298831939697,0.873410284519196,0.000102721925941296,0.000308165792375803,0.000445128360297531,1.73323661551702E-15,2.06184270329719E-16,0,0,0,0,0,0,0,0,0,0,0,0,0,PD,0
17.6007,0.15,0.2,0.2,0.149544209164797,0.199531064842539,0.200201174379667,0,0,0,0.93120688199997,0.382149130105972,0.834796190261841,-0.0297208782285452,0.502298831939697,0.873410284519196,0.000102721925941296,0.00017120320990216,0.00034240641980432,-0.00342406425625086,2.06184270329719E-16,0,0,0,0,0,0,0,0,0,0,0,0,0,PD,0
17.7007,0.15,0.2,0.2,0.149544770607544,0.199539016289403,0.200204627012569,0,0,0,0.93122410774231,0.382156789302826,0.8348268866539,-0.0297208782285452,0.502298831939697,0.873410284519196,0.00017120320990216,6.84812839608639E-05,0.000308165792375803,1.73323661551702E-15,2.06184270329719E-16,0,0,0,0,0,0,0,0,0,0,0,0,0,PD,0
17.8008,0.15,0.2,0.2,0.149541277473363,0.199541324196921,0.20020806833402,0,0,0,0.931241393089294,0.382158726453781,0.834847927093506,-0.0297208782285452,0.502378702163696,0.873410284519196,0.00017120320990216,3.4240641980432E-05,0.000205443851882592,1.73323661551702E-15,2.06184270329719E-16,0,0,0,0,0,0,0,0,0,0,0,0,0,PD,0
17.9007,0.15,0.2,0.2,0.149541055864136,0.199547426502101,0.200211278862024,0,0,0,0.931256711483002,0.382160633802414,0.834869027137756,-0.0297208782285452,0.502378702163696,0.873410284519196,0.000136962567921728,3.4240641980432E-05,0.000205443851882592,1.73323661551702E-15,2.06184270329719E-16,0,0,0,0,0,0,0,0,0,0,0,0,0,PD,0
18.0007,0.15,0.2,0.2,0.149540230104551,0.199553538643573,0.200214631877648,0,0,0,0.931273996829987,0.382160633802414,0.834888219833374,-0.0297208782285452,0.502378702163696,0.873602032661438,0.00017120320990216,2.37111923452322E-15,0.000136962567921728,1.73323661551702E-15,2.06184270329719E-16,0,0,0,0,0,0,0,0,0,0,0,0,0,PD,0
18.1007,0.15,0.2,0.2,0.149539387011218,0.19955800884016,0.200216974873422,0,0,0,0.931287407875061,0.382160633802414,0.834901630878449,-0.0297208782285452,0.502378702163696,0.873602032661438,0.000136962567921728,2.37111923452322E-15,0.000136962567921728,1.73323661551702E-15,2.06184270329719E-16,0,0,0,0,0,0,0,0,0,0,0,0,0,PD,0
18.2007,0.15,0.2,0.2,0.149535291023297,0.199558684419593,0.200219566794941,0,0,0,0.931302726268768,0.382160633802414,0.834915041923523,-0.0297208782285452,0.50245863199234,0.873602032661438,0.000136962567921728,2.37111923452322E-15,0.00017120320990216,1.73323661551702E-15,0.00142669340129942,0,0,0,0,0,0,0,0,0,0,0,0,0,PD,0
18.3008,0.15,0.2,0.2,0.149532892494624,0.199562682274367,0.200220910116365,0,0,0,0.931320011615753,0.382160633802414,0.834922730922699,-0.0297208782285452,0.50245863199234,0.873602032661438,0.00017120320990216,2.37111923452322E-15,6.84812839608639E-05,1.73323661551702E-15,2.06184270329719E-16,0,0,0,0,0,0,0,0,0,0,0,0,0,PD,0
18.4007,0.15,0.2,0.2,0.149531647688561,0.199565815561163,0.20022225345133,0,0,0,0.931331515312195,0.382160633802414,0.834930419921875,-0.0297208782285452,0.50245863199234,0.873602032661438,0.000102721925941296,2.37111923452322E-15,6.84812839608639E-05,1.73323661551702E-15,2.06184270329719E-16,0,0,0,0,0,0,0,0,0,0,0,0,0,PD,0
18.5007,0.15,0.2,0.2,0.149530014029812,0.199569223089261,0.20022358638623,0,0,0,0.931344926357269,0.382160633802414,0.834938049316406,-0.0297208782285452,0.50245863199234,0.873602032661438,0.000102721925941296,2.37111923452322E-15,6.84812839608639E-05,1.73323661551702E-15,2.06184270329719E-16,0,0,0,0,0,0,0,0,0,0,0,0,0,PD,0
18.6008,0.15,0.2,0.2,0.149528247742478,0.199571655266559,0.200224263272337,0,0,0,0.931356430053711,0.382160633802414,0.834941923618317,-0.0297208782285452,0.50245863199234,0.873602032661438,0.000102721925941296,2.37111923452322E-15,3.4240641980432E-05,1.73323661551702E-15,2.06184270329719E-16,0,0,0,0,0,0,0,0,0,0,0,0,0,PD,0
18.7007,0.15,0.2,0.2,0.149526853928389,0.1995737912735,0.200224929748171,0,0,0,0.93136602640152,0.382160633802414,0.834945738315582,-0.0297208782285452,0.50245863199234,0.873602032661438,0.000102721925941296,2.37111923452322E-15,3.4240641980432E-05,1.73323661551702E-15,2.06184270329719E-16,0,0,0,0,0,0,0,0,0,0,0,0,0,PD,0
18.8007,0.15,0.2,0.2,0.149525840746158,0.199575642072483,0.200225596227338,0,0,0,0.931373715400696,0.382160633802414,0.834949553012848,-0.0297208782285452,0.50245863199234,0.873602032661438,6.84812839608639E-05,2.37111923452322E-15,3.4240641980432E-05,1.73323661551702E-15,2.06184270329719E-16,0,0,0,0,0,0,0,0,0,0,0,0,0,PD,0
18.9007,0.15,0.2,0.2,0.14952458691561,0.199577144360652,0.20022593988196,0,0,0,0.931381344795227,0.382160633802414,0.834951519966126,-0.0297208782285452,0.50245863199234,0.873602032661438,6.84812839608639E-05,2.37111923452322E-15,3.4240641980432E-05,1.73323661551702E-15,2.06184270329719E-16,0,0,0,0,0,0,0,0,0,0,0,0,0,PD,0
19.0007,0.15,0.2,0.2,0.149523573694557,0.199578995147098,0.200226606366179,0,0,0,0.931389033794403,0.382160633802414,0.834955334663391,-0.0297208782285452,0.50245863199234,0.873602032661438,6.84812839608639E-05,2.37111923452322E-15,3.4240641980432E-05,1.73323661551702E-15,2.06184270329719E-16,0,0,0,0,0,0,0,0,0,0,0,0,0,PD,0
19.1007,0.15,0.2,0.2,0.149523333687697,0.199580266630682,0.20022727285373,0,0,0,0.931392848491669,0.382160633802414,0.834959149360657,-0.0297208782285452,0.50245863199234,0.873602032661438,3.4240641980432E-05,2.37111923452322E-15,3.4240641980432E-05,1.73323661551702E-15,2.06184270329719E-16,0,0,0,0,0,0,0,0,0,0,0,0,0,PD,0
19.2007,0.15,0.2,0.2,0.149522059771344,0.199581766859745,0.200227606098755,0,0,0,0.931400537490845,0.382160633802414,0.83496105670929,-0.0297208782285452,0.50245863199234,0.873602032661438,6.84812839608639E-05,2.37111923452322E-15,-1.63361389421689E-15,1.73323661551702E-15,2.06184270329719E-16,0,0,0,0,0,0,0,0,0,0,0,0,0,PD,0
19.3007,0.15,0.2,0.2,0.149521435318319,0.199583343397238,0.200228283005278,0,0,0,0.931406319141388,0.382160633802414,0.8349649310112,-0.0297208782285452,0.50245863199234,0.873410284519196,3.4240641980432E-05,2.37111923452322E-15,3.4240641980432E-05,1.73323661551702E-15,2.06184270329719E-16,-0.00342406425625086,0,0,0,0,0,0,0,0,0,0,0,0,PD,0
19.4007,0.15,0.2,0.2,0.149521315299758,0.199583979137012,0.200228616252829,0,0,0,0.931408226490021,0.382160633802414,0.834966838359833,-0.0297208782285452,0.50245863199234,0.873410284519196,3.4240641980432E-05,2.37111923452322E-15,-1.63361389421689E-15,1.73323661551702E-15,2.06184270329719E-16,0,0,0,0,0,0,0,0,0,0,0,0,0,PD,0
19.5008,0.15,0.2,0.2,0.149520934623256,0.199584264325925,0.200228616252829,0,0,0,0.931410133838654,0.382160633802414,0.834966838359833,-0.0297208782285452,0.50245863199234,0.873410284519196,3.4240641980432E-05,2.37111923452322E-15,-1.63361389421689E-15,1.73323661551702E-15,2.06184270329719E-16,0,0,0,0,0,0,0,0,0,0,0,0,0,PD,0
19.6008,0.15,0.2,0.2,0.149520814601222,0.199584900065228,0.200228949501213,0,0,0,0.931412041187286,0.382160633802414,0.834968745708466,-0.0297208782285452,0.50245863199234,0.873410284519196,4.75809852570907E-16,2.37111923452322E-15,-1.63361389421689E-15,1.73323661551702E-15,2.06184270329719E-16,0,0,0,0,0,0,0,0,0,0,0,0,0,PD,0
19.7008,0.15,0.2,0.2,0.149520955230512,0.199585886354882,0.200229616000481,0,0,0,0.931413948535919,0.382160633802414,0.834972560405731,-0.0297208782285452,0.50245863199234,0.873410284519196,4.75809852570907E-16,2.37111923452322E-15,3.4240641980432E-05,1.73323661551702E-15,2.06184270329719E-16,0,0,0,0,0,0,0,0,0,0,0,0,0,PD,0
19.8007,0.15,0.2,0.2,0.149520574550372,0.199586171543108,0.200229616000481,0,0,0,0.931415855884552,0.382160633802414,0.834972560405731,-0.0297208782285452,0.50245863199234,0.873410284519196,4.75809852570907E-16,2.37111923452322E-15,-1.63361389421689E-15,1.73323661551702E-15,2.06184270329719E-16,0,0,0,0,0,0,0,0,0,0,0,0,0,PD,0
19.9007,0.15,0.2,0.2,0.149520574550372,0.199586171543108,0.200229616000481,0,0,0,0.931415855884552,0.382160633802414,0.834972560405731,-0.0297208782285452,0.50245863199234,0.873410284519196,4.75809852570907E-16,2.37111923452322E-15,-1.63361389421689E-15,1.73323661551702E-15,2.06184270329719E-16,0,0,0,0,0,0,0,0,0,0,0,0,0,PD,0
20.0007,0.15,0.2,0.2,0.149515729687967,0.19959014601055,0.200229884871789,0,0,0,0.93141782283783,0.382160633802414,0.834974527359009,-0.0295291300863028,0.50245863199234,0.873410284519196,4.75809852570907E-16,2.37111923452322E-15,-1.63361389421689E-15,0.00342406425625086,2.06184270329719E-16,0,0,0,0,0,0,0,0,0,0,0,0,0,PD,0
20.1007,0.15,0.2,0.2,0.149515729687967,0.19959014601055,0.200229884871789,0,0,0,0.93141782283783,0.382160633802414,0.834974527359009,-0.0295291300863028,0.50245863199234,0.873410284519196,4.75809852570907E-16,2.37111923452322E-15,-1.63361389421689E-15,1.73323661551702E-15,2.06184270329719E-16,0,0,0,0,0,0,0,0,0,0,0,0,0,PD,0
20.2007,0.15,0.2,0.2,0.149515609650576,0.199590781739988,0.200230218123239,0,0,0,0.931419730186462,0.382160633802414,0.834976434707642,-0.0295291300863028,0.50245863199234,0.873410284519196,4.75809852570907E-16,2.37111923452322E-15,-1.63361389421689E-15,1.73323661551702E-15,2.06184270329719E-16,0,0,0,0,0,0,0,0,0,0,0,0,0,PD,0
20.3007,0.15,0.2,0.2,0.149515609650576,0.199590781739988,0.200230218123239,0,0,0,0.931419730186462,0.382160633802414,0.834976434707642,-0.0295291300863028,0.50245863199234,0.873410284519196,4.75809852570907E-16,2.37111923452322E-15,-1.63361389421689E-15,1.73323661551702E-15,2.06184270329719E-16,0,0,0,0,0,0,0,0,0,0,0,0,0,PD,0
20.4007,0.15,0.2,0.2,0.149515228961099,0.199591066918018,0.200230218123239,0,0,0,0.931421637535095,0.382160633802414,0.834976434707642,-0.0295291300863028,0.50245863199234,0.873410284519196,3.4240641980432E-05,2.37111923452322E-15,-1.63361389421689E-15,1.73323661551702E-15,2.06184270329719E-16,0,0,0,0,0,0,0,0,0,0,0,0,0,PD,0
20.5008,0.15,0.2,0.2,0.149515489610923,0.199591417469184,0.200230551375522,0,0,0,0.931421637535095,0.382160633802414,0.834978342056274,-0.0295291300863028,0.50245863199234,0.873410284519196,4.75809852570907E-16,2.37111923452322E-15,3.4240641980432E-05,1.73323661551702E-15,2.06184270329719E-16,0,0,0,0,0,0,0,0,0,0,0,0,0,PD,0
20.6008,0.15,0.2,0.2,0.149515489610923,0.199591417469184,0.200230551375522,0,0,0,0.931421637535095,0.382160633802414,0.834978342056274,-0.0295291300863028,0.50245863199234,0.873410284519196,4.75809852570907E-16,2.37111923452322E-15,-1.63361389421689E-15,1.73323661551702E-15,2.06184270329719E-16,0,0,0,0,0,0,0,0,0,0,0,0,0,PD,0
20.7007,0.15,0.2,0.2,0.149515750260368,0.199591768019839,0.200230884628638,0,0,0,0.931421637535095,0.382160633802414,0.834980249404907,-0.0295291300863028,0.50245863199234,0.873410284519196,4.75809852570907E-16,2.37111923452322E-15,3.4240641980432E-05,1.73323661551702E-15,2.06184270329719E-16,0,0,0,0,0,0,0,0,0,0,0,0,0,PD,0
20.8007,0.15,0.2,0.2,0.14951536956901,0.199592053198138,0.200230884628638,0,0,0,0.931423544883728,0.382160633802414,0.834980249404907,-0.0295291300863028,0.50245863199234,0.873410284519196,4.75809852570907E-16,2.37111923452322E-15,-1.63361389421689E-15,1.73323661551702E-15,2.06184270329719E-16,0,0,0,0,0,0,0,0,0,0,0,0,0,PD,0
20.9007,0.15,0.2,0.2,0.14951536956901,0.199592053198138,0.200230884628638,0,0,0,0.931423544883728,0.382160633802414,0.834980249404907,-0.0295291300863028,0.50245863199234,0.873410284519196,4.75809852570907E-16,2.37111923452322E-15,-1.63361389421689E-15,1.73323661551702E-15,2.06184270329719E-16,0,0,0,0,0,0,0,0,0,0,0,0,0,PD,0
21.0007,0.15,0.2,0.2,0.149515630217408,0.19959240374878,0.200231217882587,0,0,0,0.931423544883728,0.382160633802414,0.83498215675354,-0.0295291300863028,0.50245863199234,0.873410284519196,4.75809852570907E-16,2.37111923452322E-15,-1.63361389421689E-15,1.73323661551702E-15,2.06184270329719E-16,0,0,0,0,0,0,0,0,0,0,0,0,0,PD,0
21.1007,0.15,0.2,0.2,0.149515679460613,0.19959246997574,0.200231693540618,0,0,0,0.931423544883728,0.382158726453781,0.83498215675354,-0.0295291300863028,0.50245863199234,0.873410284519196,4.75809852570907E-16,2.37111923452322E-15,-1.63361389421689E-15,1.73323661551702E-15,2.06184270329719E-16,0,0,0,0,0,0,0,0,0,0,0,0,0,PD,0
21.2008,0.15,0.2,0.2,0.149515398021853,0.199592888640598,0.200232652289314,0,0,0,0.931425452232361,0.382154881954193,0.83498215675354,-0.0295291300863028,0.50245863199234,0.873410284519196,4.75809852570907E-16,-3.4240641980432E-05,-1.63361389421689E-15,1.73323661551702E-15,2.06184270329719E-16,0,0,0,0,0,0,0,0,0,0,0,0,0,PD,0
21.3007,0.15,0.2,0.2,0.1495154472633,0.199592954865457,0.20023312794782,0,0,0,0.931425452232361,0.38215297460556,0.83498215675354,-0.0295291300863028,0.50245863199234,0.873410284519196,4.75809852570907E-16,-3.4240641980432E-05,-1.63361389421689E-15,1.73323661551702E-15,2.06184270329719E-16,0,0,0,0,0,0,0,0,0,0,0,0,0,PD,0
21.4007,0.15,0.2,0.2,0.149515546513946,0.199593088347726,0.200234086697473,0,0,0,0.931425452232361,0.382149130105972,0.83498215675354,-0.0295291300863028,0.50245863199234,0.873410284519196,4.75809852570907E-16,-3.4240641980432E-05,-1.63361389421689E-15,1.73323661551702E-15,2.06184270329719E-16,0,0,0,0,0,0,0,0,0,0,0,0,0,PD,0
21.5007,0.15,0.2,0.2,0.149515546513946,0.199593088347726,0.200234086697473,0,0,0,0.931425452232361,0.382149130105972,0.83498215675354,-0.0295291300863028,0.50245863199234,0.873410284519196,4.75809852570907E-16,2.37111923452322E-15,-1.63361389421689E-15,1.73323661551702E-15,2.06184270329719E-16,0,0,0,0,0,0,0,0,0,0,0,0,0,PD,0
21.6008,0.15,0.2,0.3,0.14951559575376,0.199593154570389,0.200234562356453,0,0,0.22,0.931425452232361,0.382147222757339,0.83498215675354,-0.0295291300863028,0.50245863199234,0.873410284519196,4.75809852570907E-16,2.37111923452322E-15,-1.63361389421689E-15,1.73323661551702E-15,2.06184270329719E-16,0,0,0,0,0,0,0,0,0,0,0,0,0,PD,0
21.7007,0.15,0.2,0.3,0.149556848607528,0.199635442860925,0.201708724071196,0,0,0.22,0.931425452232361,0.376699656248093,0.835555493831635,-0.0295291300863028,0.5073322057724,0.873410284519196,4.75809852570907E-16,-0.0968667790293694,0.0102037116885185,1.73323661551702E-15,0.0870283022522926,0,0,0,0,0,0,0,0,0,0,0,0,0,PD,0
21.8008,0.15,0.2,0.3,0.149652543272657,0.199681240463967,0.209378709847021,0,0,0.22,0.931427359580994,0.349555879831314,0.840055823326111,-0.0295291300863028,0.538571059703827,0.873218536376953,4.75809852570907E-16,-0.30073556303978,0.0492038019001484,1.73323661551702E-15,0.330992877483368,-0.00342406425625086,0,0,0,0,0,0,0,0,0,0,0,0,PD,0
21.9008,0.15,0.2,0.3,0.149636133559432,0.199559531764829,0.215548512061784,0,0,0.22,0.931431233882904,0.328011125326157,0.843961715698242,-0.0301043726503849,0.564776599407196,0.873218536376953,4.75809852570907E-16,-0.196267366409302,0.0404039584100246,-0.0102721927687526,0.25395143032074,0,0,0,0,0,0,0,0,0,0,0,0,0,PD,0
22.0007,0.15,0.2,0.3,0.149631881310836,0.19948272521852,0.221634491170003,0,0.00219449446672598,0.22,0.931431233882904,0.307822018861771,0.849137008190155,-0.0301043726503849,0.591701149940491,0.873218536376953,4.75809852570907E-16,-0.197739705443382,0.0540317334234715,1.73174964917812E-15,0.255378127098083,0,0,0,0,0,0,0,0,0,0,0,0,0,PD,0
22.1007,0.15,0.2,0.3,0.149674135492722,0.199464922736912,0.22753803718551,0,0.00196178282885077,0.22,0.931431233882904,0.288687527179718,0.854674637317658,-0.0302961207926273,0.615989148616791,0.873218536376953,4.75809852570907E-16,-0.19332267343998,0.0580378882586956,-0.00342406425625086,0.265364974737167,0,0,0,0,0,0,0,0,0,0,0,0,0,PD,0
22.2007,0.15,0.2,0.3,0.149775593731155,0.199515375086586,0.233672853129307,0,0,0.22,0.931467652320862,0.269886672496796,0.861704111099243,-0.0308713633567095,0.641395688056946,0.873218536376953,0.000513609615154564,-0.177400767803192,0.0693030580878258,-0.00342406425625086,0.242537885904312,0,0,0,0,0,0,0,0,0,0,0,0,0,PD,0
22.3007,0.15,0.2,0.3,0.149774288965189,0.199465447483426,0.239499105963341,0,0.00212057182380569,0.205926876294271,0.931540489196777,0.252594858407974,0.868940651416779,-0.0310631114989519,0.66720175743103,0.873218536376953,0.000205443851882592,-0.181304201483727,0.0763908699154854,-0.00342406425625086,0.271071761846542,0,0,0,0,0,0,0,0,0,0,0,0,0,PD,0
22.4007,0.15,0.2,0.3,0.149795374408722,0.199420932985018,0.24566473286713,0,0.00224930704447969,0.184007808061254,0.931555867195129,0.234825611114502,0.877139806747437,-0.0312548577785492,0.693487167358398,0.873218536376953,4.75809852570907E-16,-0.166649207472801,0.0783083513379097,1.73075840887159E-15,0.221137478947639,0,0,0,0,0,0,0,0,0,0,0,0,0,PD,0
22.5007,0.15,0.2,0.3,0.149816193406215,0.199393377716695,0.250960578328843,0,0.00226095433318388,0.166342130387337,0.931561589241028,0.220396608114243,0.885080099105835,-0.0312548577785492,0.716736555099487,0.873218536376953,0.000102721925941296,-0.142988920211792,0.0816981717944145,1.73075840887159E-15,0.231124341487885,0,0,0,0,0,0,0,0,0,0,0,0,0,PD,0
22.6007,0.15,0.2,0.3,0.149890786785306,0.199478502253918,0.255770238329921,0,0.00139961942516867,0.149994505844197,0.931638300418854,0.207812204957008,0.892849683761597,-0.0312548577785492,0.736071109771729,0.873218536376953,0.00106145988684148,-0.123745679855347,0.0735831409692764,1.73075840887159E-15,0.191176921129227,0,0,0,0,0,0,0,0,0,0,0,0,0,PD,0
22.7007,0.15,0.2,0.3,0.14991778920672,0.199482650105621,0.260196090643183,0,0.00178998537180966,0.134887830435599,0.931705415248871,0.19672729074955,0.900481224060059,-0.0314466059207916,0.75540566444397,0.873218536376953,0.000445128360297531,-0.105358459055424,0.0729668065905571,1.73075840887159E-15,0.189750224351883,0,0,0,0,0,0,0,0,0,0,0,0,0,PD,0
22.8007,0.15,0.2,0.3,0.149943923530199,0.199490983533653,0.264226614311499,0,0.00173989049205439,0.121176326241439,0.931738018989563,0.186842694878578,0.90761810541153,-0.0314466059207916,0.772423267364502,0.873218536376953,0.00034240641980432,-0.0916964411735535,0.0660159587860107,1.73075840887159E-15,0.135535880923271,0,0,0,0,0,0,0,0,0,0,0,0,0,PD,0
22.9007,0.15,0.2,0.3,0.149991725280115,0.199537667745527,0.267719301998927,0,0,0.109489755316328,0.931776344776154,0.178655073046684,0.914196968078613,-0.0314466059207916,0.78680431842804,0.873218536376953,0.000445128360297531,-0.0772811323404312,0.0662214010953903,1.73075840887159E-15,0.139815956354141,0,0,0,0,0,0,0,0,0,0,0,0,0,PD,0
23.0007,0.15,0.2,0.3,0.150030032770208,0.199575086516477,0.271020000393618,0,0,0.0981293002276438,0.931816637516022,0.171065703034401,0.920541882514954,-0.0314466059207916,0.800226628780365,0.873218536376953,0.000479368987726048,-0.0715629458427429,0.0610168240964413,1.73075840887159E-15,0.118415556848049,0,0,0,0,0,0,0,0,0,0,0,0,0,PD,0
23.1007,0.15,0.2,0.3,0.15006566468193,0.199621374187871,0.273878792585075,0,0,0.0885654337607823,0.931839644908905,0.164655581116676,0.926194608211517,-0.0312548577785492,0.811571717262268,0.873218536376953,0.000239684493863024,-0.0633451864123344,0.0580036491155624,0.00342406425625086,0.118415556848049,0,0,0,0,0,0,0,0,0,0,0,0,0,PD,0
23.2007,0.15,0.2,0.3,0.150019562346256,0.199563762704479,0.276764190794941,0,0,0.0784399340078408,0.931847333908081,0.158107399940491,0.931761026382446,-0.0308713633567095,0.824195086956024,0.873410284519196,6.84812839608639E-05,-0.0599211230874062,0.0522512197494507,0.00684812851250172,0.13125579059124,0,0,0,0,0,0,0,0,0,0,0,0,0,PD,0
23.3008,0.15,0.2,0.3,0.150070091561999,0.199630694964218,0.27899593926705,0,0,0.0712824640932177,0.93185305595398,0.153398081660271,0.936470329761505,-0.030679615214467,0.832584023475647,0.873602032661438,3.4240641980432E-05,-0.0473890490829945,0.048655953258276,0.00342406425625086,0.0927350744605064,0,0,0,0,0,0,0,0,0,0,0,0,0,PD,0
23.4007,0.15,0.2,0.3,0.150109043399459,0.199682973803127,0.281240509664465,0,0,0.0634136457769567,0.931858837604523,0.14859864115715,0.94111829996109,-0.0304878689348698,0.840733349323273,0.873602032661438,3.4240641980432E-05,-0.0431089699268341,0.0417393445968628,0.00342406425625086,0.0599211230874062,0,0,0,0,0,0,0,0,0,0,0,0,0,PD,0
23.5007,0.15,0.2,0.3,0.150112089999121,0.199673588780344,0.282963194078577,0,0,0.057906136310868,0.931862652301788,0.144986107945442,0.944740414619446,-0.0304878689348698,0.847843945026398,0.873602032661438,3.4240641980432E-05,-0.0344118475914001,0.037664707750082,1.73075840887159E-15,0.0756147503852844,0,0,0,0,0,0,0,0,0,0,0,0,0,PD,0
23.6007,0.15,0.2,0.3,0.15009337652598,0.199632651858128,0.284823959391982,0,0,0.051255376814658,0.931868374347687,0.141262367367744,0.948828458786011,-0.0304878689348698,0.856472611427307,0.873602032661438,3.4240641980432E-05,-0.0360896363854408,0.0381098352372646,1.73075840887159E-15,0.0756147503852844,0,0,0,0,0,0,0,0,0,0,0,0,0,PD,0
23.7007,0.15,0.2,0.3,0.150101129103161,0.199648133887962,0.286203749917542,0,0,0.046907084763043,0.931872248649597,0.138562560081482,0.951930940151215,-0.0302961207926273,0.862145125865936,0.873602032661438,3.4240641980432E-05,-0.0260228887200356,0.0300975255668163,1.73075840887159E-15,0.0584944300353527,0,0,0,0,0,0,0,0,0,0,0,0,0,PD,0
23.8007,0.15,0.2,0.3,0.150087584184936,0.199619308912153,0.287688445201963,0,0,0.0416057465087081,0.931877970695496,0.135536789894104,0.955121636390686,-0.0302961207926273,0.868456840515137,0.873602032661438,6.84812839608639E-05,-0.0286594182252884,0.0303714498877525,1.73075840887159E-15,0.0642012059688568,0,0,0,0,0,0,0,0,0,0,0,0,0,PD,0
23.9007,0.15,0.2,0.3,0.150071126156395,0.199602415733104,0.288842491407656,0,0,0.0378972338675093,0.931879878044128,0.133354708552361,0.957781195640564,-0.0301043726503849,0.873809814453125,0.873602032661438,3.4240641980432E-05,-0.0202019792050123,0.0257489625364542,0.00342406425625086,0.0570677369832993,0,0,0,0,0,0,0,0,0,0,0,0,0,PD,0
24.0007,0.15,0.2,0.3,0.150115515183313,0.199654930623378,0.290060305937243,0,0,0.0335711146900625,0.931881844997406,0.131021127104759,0.960569202899933,-0.0301043726503849,0.877804517745972,0.873602032661438,4.75809852570907E-16,-0.0211607161909342,0.0267419423907995,1.73075840887159E-15,0.0370940305292606,0,0,0,0,0,0,0,0,0,0,0,0,0,PD,0
24.1007,0.15,0.2,0.3,0.150138585155426,0.199679242071299,0.290978167189602,0,0,0.0306585535840355,0.931881844997406,0.129301160573959,0.962705254554749,-0.0301043726503849,0.881160080432892,0.873602032661438,4.75809852570907E-16,-0.0165039896965027,0.0214004013687372,1.73075840887159E-15,0.0399474166333675,0,0,0,0,0,0,0,0,0,0,0,0,0,PD,0
24.2007,0.15,0.2,0.3,0.150166610475075,0.19972802582777,0.29193406378451,0,0,0.0272748801593062,0.931885659694672,0.127491056919098,0.964912235736847,-0.0299126245081425,0.884196102619171,0.873602032661438,3.4240641980432E-05,-0.0164355076849461,0.0206471066921949,1.73075840887159E-15,0.0199737083166838,0,0,0,0,0,0,0,0,0,0,0,0,0,PD,0
24.3007,0.15,0.2,0.3,0.150153202641636,0.19972017431735,0.292639499115353,0,0,0.0250563177654202,0.931887567043304,0.126171842217445,0.966545939445496,-0.0297208782285452,0.887311995029449,0.873602032661438,4.75809852570907E-16,-0.013525053858757,0.0170175991952419,1.73075840887159E-15,0.0299605615437031,0,0,0,0,0,0,0,0,0,0,0,0,0,PD,0
24.4007,0.15,0.2,0.3,0.150195016878481,0.199773986982186,0.293423712080707,0,0,0.022232794752172,0.93189138174057,0.124693460762501,0.968363702297211,-0.0297208782285452,0.889389276504517,0.873602032661438,4.75809852570907E-16,-0.0133196096867323,0.0159903801977634,1.73075840887159E-15,0.0114135472103953,0,0,0,0,0,0,0,0,0,0,0,0,0,PD,0
24.5007,0.15,0.2,0.3,0.150204632600035,0.199783863234454,0.294042835673869,0,0,0.0202309515482956,0.931895256042481,0.123575575649738,0.969842076301575,-0.0297208782285452,0.891786098480225,0.873602032661438,3.4240641980432E-05,-0.0112994117662311,0.0141071444377303,1.73075840887159E-15,0.0271071754395962,0,0,0,0,0,0,0,0,0,0,0,0,0,PD,0
24.6007,0.15,0.2,0.3,0.150237485557885,0.199825615090824,0.294700925461793,0,0,0.0178886710957984,0.931897163391113,0.122315794229507,0.971343457698822,-0.0297208782285452,0.893463909626007,0.873410284519196,3.4240641980432E-05,-0.0119842253625393,0.014312588609755,1.73075840887159E-15,0.00285338680259883,-0.00342406425625086,0,0,0,0,0,0,0,0,0,0,0,0,PD,0
24.7007,0.15,0.2,0.3,0.150287726471886,0.19989185080651,0.295199931634581,0,0,0.0163012331061796,0.931897163391113,0.121401153504848,0.972532331943512,-0.0297208782285452,0.894182980060577,0.873410284519196,4.75809852570907E-16,-0.00873136427253485,0.0114021338522434,1.73075840887159E-15,0.00998685415834188,0,0,0,0,0,0,0,0,0,0,0,0,0,PD,0
24.8007,0.15,0.2,0.3,0.150315839799102,0.199927698447277,0.295723513446092,0,0,0.0144441211271686,0.931899070739746,0.120457760989666,0.973788261413574,-0.0297208782285452,0.895621061325073,0.873410284519196,4.75809852570907E-16,-0.0087998453527689,0.0109912464395165,1.73075840887159E-15,0.00713346712291241,0,0,0,0,0,0,0,0,0,0,0,0,0,PD,0
24.9007,0.15,0.2,0.3,0.150363165564612,0.199991590679167,0.296097141507201,0,0,0.0132863766636875,0.931900978088379,0.119796231389046,0.974704802036285,-0.0297208782285452,0.895940661430359,0.873410284519196,4.75809852570907E-16,-0.00647148163989186,0.00927921384572983,1.73075840887159E-15,0.00285338680259883,0,0,0,0,0,0,0,0,0,0,0,0,0,PD,0
25.0007,0.15,0.2,0.3,0.15039820431922,0.200037054458536,0.296525061726391,0,0,0.0117343637384404,0.931900978088379,0.119038827717304,0.9757479429245,-0.0297208782285452,0.896819472312927,0.873410284519196,4.75809852570907E-16,-0.00712205376476049,0.00965586118400097,1.73075840887159E-15,0.00142669340129942,0,0,0,0,0,0,0,0,0,0,0,0,0,PD,0
25.1007,0.15,0.2,0.3,0.150383461960291,0.20001557667016,0.296826718968155,0,0,0.0108048263696925,0.931904852390289,0.118513435125351,0.976480424404144,-0.0297208782285452,0.89849728345871,0.873410284519196,3.4240641980432E-05,-0.00486217113211751,0.00722477538511157,1.73075840887159E-15,0.0299605615437031,0,0,0,0,0,0,0,0,0,0,0,0,0,PD,0
25.2007,0.15,0.2,0.3,0.150441762819292,0.200094066788454,0.297187892254064,0,0,0.00948120382486498,0.931904852390289,0.11788833886385,0.977383553981781,-0.0297208782285452,0.89849728345871,0.873218536376953,4.75809852570907E-16,-0.00650572218000889,0.00917649175971746,1.73075840887159E-15,-1.26882637057828E-16,0,0,0,0,0,0,0,0,0,0,0,0,0,PD,0
25.3008,0.15,0.2,0.3,0.15048670574731,0.200155374296767,0.297496138342407,0,0,0.00845526971323265,0.931906759738922,0.117322683334351,0.978117942810059,-0.0297208782285452,0.89849728345871,0.873218536376953,4.75809852570907E-16,-0.00506761530414224,0.00691660959273577,1.73075840887159E-15,-1.26882637057828E-16,0,0,0,0,0,0,0,0,0,0,0,0,0,PD,0
25.4007,0.15,0.2,0.3,0.150524299875909,0.200205987356598,0.297754547652219,-0.00202302020867535,0,0.00760067390742186,0.931906759738922,0.116847150027752,0.978731513023376,-0.0297208782285452,0.89849728345871,0.873218536376953,4.75809852570907E-16,-0.00458824587985873,0.00643724063411355,1.73075840887159E-15,-1.26882637057828E-16,0,0,0,0,0,0,0,0,0,0,0,0,0,PD,0
25.5008,0.15,0.2,0.3,0.150559335662891,0.200253156183437,0.298014498864794,-0.00213285375503415,0,0.00668930276064425,0.931906759738922,0.11634860932827,0.979325950145721,-0.0297208782285452,0.89849728345871,0.873218536376953,4.75809852570907E-16,-0.0046909679658711,0.00544426217675209,1.73075840887159E-15,-1.26882637057828E-16,0,0,0,0,0,0,0,0,0,0,0,0,0,PD,0
25.6007,0.15,0.2,0.3,0.150554765977163,0.200274403662479,0.298215091121686,-0.00191883249142483,0,0.00604658881720666,0.931971967220306,0.11581938713789,0.979625046253204,-0.0297208782285452,0.89849728345871,0.873218536376953,0.00102721923030913,-0.00599211268126965,0.00280773267149925,1.73075840887159E-15,-1.26882637057828E-16,0,0,0,0,0,0,0,0,0,0,0,0,0,PD,0
25.7008,0.15,0.2,0.3,0.15053162995859,0.200305296348188,0.298413775811852,-0.00174502476220341,0,0.00535309996835051,0.932119607925415,0.115280576050282,0.979905009269714,-0.0297208782285452,0.89849728345871,0.873218536376953,0.00130114436615258,-0.00465672742575407,0.00284197344444692,1.73075840887159E-15,-1.26882637057828E-16,0,0,0,0,0,0,0,0,0,0,0,0,0,PD,0
25.8008,0.15,0.2,0.3,0.150509243146289,0.200326317140008,0.298564867708634,-0.00167041695050596,0,0.00487187112299883,0.932203948497772,0.114849142730236,0.980094850063324,-0.0295291300863028,0.89849728345871,0.873218536376953,0.000719053496140987,-0.00410887692123652,0.00198595738038421,1.73075840887159E-15,-1.26882637057828E-16,0,0,0,0,0,0,0,0,0,0,0,0,0,PD,0
25.9007,0.15,0.2,0.3,0.150494552687779,0.200342809780632,0.29870718516592,0,0,0.00438253446199438,0.932290256023407,0.114448390901089,0.98027890920639,-0.0295291300863028,0.89849728345871,0.873218536376953,0.000821775407530367,-0.0039376737549901,0.00136962567921728,1.73075840887159E-15,-1.26882637057828E-16,0,0,0,0,0,0,0,0,0,0,0,0,0,PD,0
26.0007,0.15,0.2,0.3,0.150491853806287,0.200361753635049,0.298827854210643,0,0,0.00398184121802786,0.93234395980835,0.114155016839504,0.98048597574234,-0.0295291300863028,0.89849728345871,0.873218536376953,0.000479368987726048,-0.00267077004536986,0.00236260425299406,1.73075840887159E-15,-1.26882637057828E-16,0,0,0,0,0,0,0,0,0,0,0,0,0,PD,0
26.1008,0.15,0.2,0.3,0.150509208267404,0.200392383470514,0.298950787344319,-0.00186900124149665,0,0.00354931116120732,0.93236118555069,0.113955594599247,0.980806231498718,-0.0295291300863028,0.89849728345871,0.873218536376953,3.4240641980432E-05,-0.00160931015852839,0.00342406425625086,1.73075840887159E-15,-1.26882637057828E-16,0,0,0,0,0,0,0,0,0,0,0,0,0,PD,0
26.2008,0.15,0.2,0.3,0.150510009104219,0.200392692888198,0.299040451052771,-0.00178903604884006,0,0.00326875760684894,0.93236118555069,0.113813705742359,0.981040179729462,-0.0295291300863028,0.898896753787994,0.873218536376953,4.75809852570907E-16,-0.00150658830534667,0.00167779147159308,1.73075840887159E-15,0.00713346712291241,0,0,0,0,0,0,0,0,0,0,0,0,0,PD,0
26.3007,0.15,0.2,0.3,0.150472499986747,0.200381859206722,0.299160393819078,0,0,0.00281867886691808,0.932457089424133,0.113409116864204,0.98111879825592,-0.0295291300863028,0.89921635389328,0.873218536376953,0.00143810699228197,-0.00458824587985873,0.000753294152673334,1.73075840887159E-15,0.00285338680259883,0,0,0,0,0,0,0,0,0,0,0,0,0,PD,0
26.4007,0.15,0.2,0.3,0.150444428906297,0.200398845076458,0.29923194099041,0,0,0.00261665936223238,0.932587444782257,0.113182857632637,0.98118394613266,-0.0295291300863028,0.89921635389328,0.873218536376953,0.000753294152673334,-0.00150658830534667,0.000924497377127409,1.73075840887159E-15,-1.26882637057828E-16,0,0,0,0,0,0,0,0,0,0,0,0,0,PD,0
26.5007,0.15,0.2,0.3,0.150450953091923,0.200414450499807,0.299310351374137,0,0,0.00233535980679506,0.932604730129242,0.113100402057171,0.981435179710388,-0.0295291300863028,0.899456024169922,0.873410284519196,4.75809852570907E-16,-0.000719053496140987,0.00284197344444692,1.73075840887159E-15,0.00285338680259883,0,0,0,0,0,0,0,0,0,0,0,0,0,PD,0
26.6007,0.15,0.2,0.3,0.150447523853942,0.200408904006215,0.299381213169355,0,0,0.00209489211203886,0.932604730129242,0.11300452798605,0.981636464595795,-0.0295291300863028,0.89993542432785,0.873410284519196,4.75809852570907E-16,-0.000958737975452095,0.00174627278465778,1.73075840887159E-15,0.00570677360519767,0,0,0,0,0,0,0,0,0,0,0,0,0,PD,0
26.7007,0.15,0.2,0.3,0.15044817019544,0.20040946812174,0.299443069269034,0,0,0.00188740145870292,0.932604730129242,0.112874142825603,0.981763064861298,-0.0295291300863028,0.900095164775848,0.873410284519196,4.75809852570907E-16,-0.00130114436615258,0.00123266316950321,1.73075840887159E-15,0.00285338680259883,0,0,0,0,0,0,0,0,0,0,0,0,0,PD,0
26.8007,0.15,0.2,0.3,0.150457497101806,0.200422043240961,0.29949281168305,0,0,0.00172541669531062,0.932604730129242,0.112801276147366,0.981901109218597,-0.0295291300863028,0.900095164775848,0.873410284519196,4.75809852570907E-16,-0.000821775407530367,0.00150658830534667,1.73075840887159E-15,-1.26882637057828E-16,0,0,0,0,0,0,0,0,0,0,0,0,0,PD,0
26.9008,0.15,0.2,0.3,0.150455925257286,0.200420111483577,0.299550007094222,0,0,0,0.932606637477875,0.112716905772686,0.982056438922882,-0.0295291300863028,0.900414764881134,0.873410284519196,3.4240641980432E-05,-0.000753294152673334,0.00123266316950321,1.73075840887159E-15,0.00428008055314422,0,0,0,0,0,0,0,0,0,0,0,0,0,PD,0
27.0007,0.15,0.2,0.3,0.150452260570226,0.200415665563996,0.299577931321006,0,0,0,0.932608544826508,0.11265555024147,0.98211008310318,-0.0295291300863028,0.900574564933777,0.873410284519196,3.4240641980432E-05,-0.000445128360297531,0.000376647076336667,1.73075840887159E-15,0.00285338680259883,0,0,0,0,0,0,0,0,0,0,0,0,0,PD,0
27.1007,0.15,0.2,0.3,0.150450327016155,0.200413707365939,0.299586265119876,0,0,0,0.93261045217514,0.112642124295235,0.98213118314743,-0.0295291300863028,0.900654435157776,0.873410284519196,4.75809852570907E-16,-0.000102721925941296,0.000205443851882592,1.73075840887159E-15,-1.26882637057828E-16,0,0,0,0,0,0,0,0,0,0,0,0,0,PD,0
27.2008,0.15,0.2,0.3,0.15045125777337,0.200415764645105,0.29959304397098,0,0,0,0.932612359523773,0.112632542848587,0.982150375843048,-0.0295291300863028,0.900654435157776,0.873410284519196,3.4240641980432E-05,-0.000102721925941296,0.00017120320990216,1.73075840887159E-15,-1.26882637057828E-16,0,0,0,0,0,0,0,0,0,0,0,0,0,PD,0
27.3007,0.15,0.2,0.3,0.150452206460086,0.200417043742452,0.299597546290095,0,0,0,0.932612359523773,0.112626783549786,0.982163786888123,-0.0295291300863028,0.900654435157776,0.873410284519196,4.75809852570907E-16,-6.84812839608639E-05,0.000102721925941296,1.73075840887159E-15,-1.26882637057828E-16,0,0,0,0,0,0,0,0,0,0,0,0,0,PD,0
27.4007,0.15,0.2,0.3,0.150452077915389,0.200417697869822,0.299598909869969,0,0,0,0.932614326477051,0.112624868750572,0.982167661190033,-0.0295291300863028,0.900654435157776,0.873410284519196,3.4240641980432E-05,-3.4240641980432E-05,-1.63361389421689E-15,1.73075840887159E-15,-1.26882637057828E-16,0,0,0,0,0,0,0,0,0,0,0,0,0,PD,0
27.5007,0.15,0.2,0.3,0.150452402498955,0.200418135499527,0.299599780005969,0,0,0,0.932614326477051,0.112624868750572,0.982171475887299,-0.0295291300863028,0.900654435157776,0.873410284519196,4.75809852570907E-16,2.28785250767634E-15,-1.63361389421689E-15,1.73075840887159E-15,-1.26882637057828E-16,0,0,0,0,0,0,0,0,0,0,0,0,0,PD,0
27.6007,0.15,0.2,0.3,0.150452500796299,0.200418268034175,0.299600694927293,0,0,0,0.932614326477051,0.112622953951359,0.982173383235931,-0.0295291300863028,0.900654435157776,0.873410284519196,4.75809852570907E-16,-3.4240641980432E-05,-1.63361389421689E-15,1.73075840887159E-15,-1.26882637057828E-16,0,0,0,0,0,0,0,0,0,0,0,0,0,PD,0
27.7007,0.15,0.2,0.3,0.150460310618659,0.200413038134232,0.29960134258569,0,0,0,0.932614326477051,0.112622953951359,0.982175290584564,-0.0297208782285452,0.900654435157776,0.873410284519196,4.75809852570907E-16,2.28785250767634E-15,-1.63361389421689E-15,-0.00342406425625086,-1.26882637057828E-16,0,0,0,0,0,0,0,0,0,0,0,0,0,PD,0
27.8008,0.15,0.2,0.3,0.150467958725581,0.200407590439424,0.299601556547592,0,0,0,0.932614326477051,0.112622953951359,0.982175290584564,-0.0299126245081425,0.900654435157776,0.873410284519196,4.75809852570907E-16,2.28785250767634E-15,-1.63361389421689E-15,-0.00342406425625086,-1.26882637057828E-16,0,0,0,0,0,0,0,0,0,0,0,0,0,PD,0
27.9007,0.15,0.2,0.3,0.150468121014652,0.200407809250622,0.299601991618619,0,0,0,0.932614326477051,0.112622953951359,0.982177197933197,-0.0299126245081425,0.900654435157776,0.873410284519196,4.75809852570907E-16,2.28785250767634E-15,-1.63361389421689E-15,1.73075840887159E-15,-1.26882637057828E-16,0,0,0,0,0,0,0,0,0,0,0,0,0,PD,0
28.0007,0.15,0.2,0.3,0.150467738766818,0.200408096245422,0.299601991618619,0,0,0,0.932616233825684,0.112622953951359,0.982177197933197,-0.0299126245081425,0.900654435157776,0.873410284519196,3.4240641980432E-05,2.28785250767634E-15,-1.63361389421689E-15,1.73075840887159E-15,-1.26882637057828E-16,0,0,0,0,0,0,0,0,0,0,0,0,0,PD,0
28.1007,0.15,0.2,0.3,0.150467738766818,0.200408096245422,0.299601991618619,0,0,0,0.932616233825684,0.112622953951359,0.982177197933197,-0.0299126245081425,0.900654435157776,0.873410284519196,4.75809852570907E-16,2.28785250767634E-15,-1.63361389421689E-15,1.73075840887159E-15,-1.26882637057828E-16,0,0,0,0,0,0,0,0,0,0,0,0,0,PD,0
28.2007,0.15,0.2,0.3,0.150467738766818,0.200408096245422,0.299601991618619,0,0,0,0.932616233825684,0.112622953951359,0.982177197933197,-0.0299126245081425,0.900654435157776,0.873410284519196,4.75809852570907E-16,2.28785250767634E-15,-1.63361389421689E-15,1.73075840887159E-15,-1.26882637057828E-16,0,0,0,0,0,0,0,0,0,0,0,0,0,PD,0
28.3007,0.15,0.2,0.3,0.150467738766818,0.200408096245422,0.299601991618619,0,0,0,0.932616233825684,0.112622953951359,0.982177197933197,-0.0299126245081425,0.900654435157776,0.873410284519196,4.75809852570907E-16,2.28785250767634E-15,-1.63361389421689E-15,1.73075840887159E-15,-1.26882637057828E-16,0,0,0,0,0,0,0,0,0,0,0,0,0,PD,0
28.4007,0.15,0.2,0.3,0.150467356518436,0.200408383239493,0.299601991618619,0,0,0,0.932618141174316,0.112622953951359,0.982177197933197,-0.0299126245081425,0.900654435157776,0.873410284519196,3.4240641980432E-05,2.28785250767634E-15,-1.63361389421689E-15,1.73075840887159E-15,-1.26882637057828E-16,0,0,0,0,0,0,0,0,0,0,0,0,0,PD,0
28.5008,0.15,0.2,0.3,0.150467356518436,0.200408383239493,0.299601991618619,0,0,0,0.932618141174316,0.112622953951359,0.982177197933197,-0.0299126245081425,0.900654435157776,0.873410284519196,4.75809852570907E-16,2.28785250767634E-15,-1.63361389421689E-15,1.73075840887159E-15,-1.26882637057828E-16,0,0,0,0,0,0,0,0,0,0,0,0,0,PD,0
28.6007,0.15,0.2,0.3,0.150467356518436,0.200408383239493,0.299601991618619,0,0,0,0.932618141174316,0.112622953951359,0.982177197933197,-0.0299126245081425,0.900654435157776,0.873410284519196,4.75809852570907E-16,2.28785250767634E-15,-1.63361389421689E-15,1.73075840887159E-15,-1.26882637057828E-16,0,0,0,0,0,0,0,0,0,0,0,0,0,PD,0
28.7007,0.15,0.2,0.3,0.150467356518436,0.200408383239493,0.299601991618619,0,0,0,0.932618141174316,0.112622953951359,0.982177197933197,-0.0299126245081425,0.900654435157776,0.873410284519196,4.75809852570907E-16,2.28785250767634E-15,-1.63361389421689E-15,1.73075840887159E-15,-1.26882637057828E-16,0,0,0,0,0,0,0,0,0,0,0,0,0,PD,0
28.8007,0.15,0.2,0.3,0.150467356518436,0.200408383239493,0.299601991618619,0,0,0,0.932618141174316,0.112622953951359,0.982177197933197,-0.0299126245081425,0.900654435157776,0.873410284519196,4.75809852570907E-16,2.28785250767634E-15,-1.63361389421689E-15,1.73075840887159E-15,-1.26882637057828E-16,0,0,0,0,0,0,0,0,0,0,0,0,0,PD,0
28.9007,0.15,0.2,0.3,0.15047025383176,0.20041244527806,0.299601835496998,0,0,0,0.932618141174316,0.112622953951359,0.982177197933197,-0.0299126245081425,0.900574564933777,0.873410284519196,4.75809852570907E-16,2.28785250767634E-15,-1.63361389421689E-15,1.73075840887159E-15,-0.00142669340129942,0,0,0,0,0,0,0,0,0,0,0,0,0,PD,0
29.0007,0.15,0.2,0.3,0.15047025383176,0.20041244527806,0.299601835496998,0,0,0,0.932618141174316,0.112622953951359,0.982177197933197,-0.0299126245081425,0.900574564933777,0.873410284519196,4.75809852570907E-16,2.28785250767634E-15,-1.63361389421689E-15,1.73075840887159E-15,-1.26882637057828E-16,0,0,0,0,0,0,0,0,0,0,0,0,0,PD,0
29.1007,0.15,0.2,0.3,0.150473153307066,0.200416510363445,0.299601679657719,0,0,0,0.932618141174316,0.112622953951359,0.982177197933197,-0.0299126245081425,0.900494635105133,0.873410284519196,4.75809852570907E-16,2.28785250767634E-15,-1.63361389421689E-15,1.73075840887159E-15,-1.26882637057828E-16,0,0,0,0,0,0,0,0,0,0,0,0,0,PD,0
29.2007,0.15,0.2,0.3,0.150473153307066,0.200416510363445,0.299601679657719,0,0,0,0.932618141174316,0.112622953951359,0.982177197933197,-0.0299126245081425,0.900494635105133,0.873410284519196,4.75809852570907E-16,2.28785250767634E-15,-1.63361389421689E-15,1.73075840887159E-15,-1.26882637057828E-16,0,0,0,0,0,0,0,0,0,0,0,0,0,PD,0
29.3007,0.15,0.2,0.3,0.150473153307066,0.200416510363445,0.299601679657719,0,0,0,0.932618141174316,0.112622953951359,0.982177197933197,-0.0299126245081425,0.900494635105133,0.873410284519196,4.75809852570907E-16,2.28785250767634E-15,-1.63361389421689E-15,1.73075840887159E-15,-1.26882637057828E-16,0,0,0,0,0,0,0,0,0,0,0,0,0,PD,0
29.4007,0.15,0.2,0.3,0.150473153307066,0.200416510363445,0.299601679657719,0,0,0,0.932618141174316,0.112622953951359,0.982177197933197,-0.0299126245081425,0.900494635105133,0.873410284519196,4.75809852570907E-16,2.28785250767634E-15,-1.63361389421689E-15,1.73075840887159E-15,-1.26882637057828E-16,0,0,0,0,0,0,0,0,0,0,0,0,0,PD,0
29.5007,0.15,0.2,0.3,0.150473153307066,0.200416510363445,0.299601679657719,0,0,0,0.932618141174316,0.112622953951359,0.982177197933197,-0.0299126245081425,0.900494635105133,0.873410284519196,4.75809852570907E-16,2.28785250767634E-15,-1.63361389421689E-15,1.73075840887159E-15,-1.26882637057828E-16,0,0,0,0,0,0,0,0,0,0,0,0,0,PD,0
29.6007,0.15,0.2,0.3,0.150473153307066,0.200416510363445,0.299601679657719,0,0,0,0.932618141174316,0.112622953951359,0.982177197933197,-0.0299126245081425,0.900494635105133,0.873410284519196,4.75809852570907E-16,2.28785250767634E-15,-1.63361389421689E-15,1.73075840887159E-15,-1.26882637057828E-16,0,0,0,0,0,0,0,0,0,0,0,0,0,PD,0
29.7007,0.15,0.2,0.3,0.150473153307066,0.200416510363445,0.299601679657719,0,0,0,0.932618141174316,0.112622953951359,0.982177197933197,-0.0299126245081425,0.900494635105133,0.873410284519196,4.75809852570907E-16,2.28785250767634E-15,-1.63361389421689E-15,1.73075840887159E-15,-1.26882637057828E-16,0,0,0,0,0,0,0,0,0,0,0,0,0,PD,0
29.8007,0.15,0.2,0.3,0.150476050619988,0.200420572432857,0.299601524333205,0,0,0,0.932618141174316,0.112622953951359,0.982177197933197,-0.0299126245081425,0.900414764881134,0.873410284519196,4.75809852570907E-16,2.28785250767634E-15,-1.63361389421689E-15,1.73075840887159E-15,-0.00142669340129942,0,0,0,0,0,0,0,0,0,0,0,0,0,PD,0
29.9007,0.15,0.2,0.3,0.150476050619988,0.200420572432857,0.299601524333205,0,0,0,0.932618141174316,0.112622953951359,0.982177197933197,-0.0299126245081425,0.900414764881134,0.873410284519196,4.75809852570907E-16,2.28785250767634E-15,-1.63361389421689E-15,1.73075840887159E-15,-1.26882637057828E-16,0,0,0,0,0,0,0,0,0,0,0,0,0,PD,0
30.0007,0.15,0.2,0.3,0.150468403945401,0.200426019063964,0.299601310411614,0,0,0,0.932618141174316,0.112622953951359,0.982177197933197,-0.0297208782285452,0.900414764881134,0.873410284519196,4.75809852570907E-16,2.28785250767634E-15,-1.63361389421689E-15,0.00342406425625086,-1.26882637057828E-16,0,0,0,0,0,0,0,0,0,0,0,0,0,PD,0
30.1007,0.15,0.2,0.3,0.150468403945401,0.200426019063964,0.299601310411614,0,0,0,0.932618141174316,0.112622953951359,0.982177197933197,-0.0297208782285452,0.900414764881134,0.873410284519196,4.75809852570907E-16,2.28785250767634E-15,-1.63361389421689E-15,1.73075840887159E-15,-1.26882637057828E-16,0,0,0,0,0,0,0,0,0,0,0,0,0,PD,0
30.2007,0.15,0.2,0.3,0.150468403945401,0.200426019063964,0.299601310411614,0,0,0,0.932618141174316,0.112622953951359,0.982177197933197,-0.0297208782285452,0.900414764881134,0.873410284519196,4.75809852570907E-16,2.28785250767634E-15,-1.63361389421689E-15,1.73075840887159E-15,-1.26882637057828E-16,0,0,0,0,0,0,0,0,0,0,0,0,0,PD,0
30.3007,0.15,0.2,0.3,0.150468403945401,0.200426019063964,0.299601310411614,0,0,0,0.932618141174316,0.112622953951359,0.982177197933197,-0.0297208782285452,0.900414764881134,0.873410284519196,4.75809852570907E-16,2.28785250767634E-15,-1.63361389421689E-15,1.73075840887159E-15,-1.26882637057828E-16,0,0,0,0,0,0,0,0,0,0,0,0,0,PD,0
30.4008,0.15,0.2,0.3,0.150468403945401,0.200426019063964,0.299601310411614,0,0,0,0.932618141174316,0.112622953951359,0.982177197933197,-0.0297208782285452,0.900414764881134,0.873410284519196,4.75809852570907E-16,2.28785250767634E-15,-1.63361389421689E-15,1.73075840887159E-15,-1.26882637057828E-16,0,0,0,0,0,0,0,0,0,0,0,0,0,PD,0
30.5007,0.15,0.2,0.3,0.15046824165639,0.200425800251104,0.299600875312379,0,0,0,0.932618141174316,0.112622953951359,0.982175290584564,-0.0297208782285452,0.900414764881134,0.873410284519196,4.75809852570907E-16,2.28785250767634E-15,-3.4240641980432E-05,1.73075840887159E-15,-1.26882637057828E-16,0,0,0,0,0,0,0,0,0,0,0,0,0,PD,0
30.6007,0.15,0.2,0.3,0.15046824165639,0.200425800251104,0.299600875312379,0,0,0,0.932618141174316,0.112622953951359,0.982175290584564,-0.0297208782285452,0.900414764881134,0.873410284519196,4.75809852570907E-16,2.28785250767634E-15,-1.63361389421689E-15,1.73075840887159E-15,-1.26882637057828E-16,0,0,0,0,0,0,0,0,0,0,0,0,0,PD,0
30.7007,0.15,0.2,0.3,0.150467917076885,0.200425362623385,0.299600005115468,0,0,0,0.932618141174316,0.112622953951359,0.982171475887299,-0.0297208782285452,0.900414764881134,0.873410284519196,4.75809852570907E-16,2.28785250767634E-15,-3.4240641980432E-05,1.73075840887159E-15,-1.26882637057828E-16,0,0,0,0,0,0,0,0,0,0,0,0,0,PD,0
